(Created with grbl post processor 2025/04/16 20:52)
G21
(G-code Generated with Fabex and NC library)
G17G90
S12000M03
G00 Z10.0

G0X5.267Y13.433Z10
G1Z-1F500
X5.314Y13.485F1000
X5.479Y13.635
X5.486Y13.64
X5.479Y13.644
X5.314Y13.794
X5.267Y13.846
Y13.433
X5.668Y13.131
X5.797Y13.248
X5.936Y13.351
X6.085Y13.44
X6.242Y13.515
X6.406Y13.573
X6.574Y13.615
X6.738Y13.64
X6.574Y13.664
X6.406Y13.706
X6.242Y13.764
X6.085Y13.839
X5.936Y13.928
X5.797Y14.031
X5.668Y14.148
X5.551Y14.277
X5.448Y14.416
X5.359Y14.565
X5.284Y14.722
X5.226Y14.886
X5.184Y15.054
X5.158Y15.226
X5.152Y15.363
Y25.512
X4.767
Y1.767
X5.152
Y11.916
X5.158Y12.053
X5.184Y12.225
X5.226Y12.393
X5.284Y12.557
X5.359Y12.714
X5.448Y12.863
X5.551Y13.002
X5.668Y13.131
G0Z10
X23.633Y13.64
G1Z-1F500
X23.64Y13.634F1000
X23.805Y13.485
X23.852Y13.433
Y13.846
X23.805Y13.794
X23.64Y13.645
X23.633Y13.64
X23.322Y13.248
X23.451Y13.131
X23.568Y13.002
X23.671Y12.863
X23.76Y12.714
X23.835Y12.557
X23.893Y12.393
X23.935Y12.225
X23.961Y12.053
X23.967Y11.916
Y1.767
X24.352
Y25.512
X23.967
Y15.363
X23.961Y15.226
X23.935Y15.054
X23.893Y14.886
X23.835Y14.722
X23.76Y14.565
X23.671Y14.416
X23.568Y14.277
X23.451Y14.148
X23.322Y14.031
X23.183Y13.928
X23.034Y13.839
X22.877Y13.764
X22.713Y13.706
X22.545Y13.664
X22.381Y13.64
X22.545Y13.615
X22.713Y13.573
X22.877Y13.515
X23.034Y13.44
X23.183Y13.351
X23.322Y13.248
X22.687Y12.474
X22.743Y12.423
X22.794Y12.367
X22.839Y12.306
X22.877Y12.242
X22.91Y12.174
X22.935Y12.103
X22.953Y12.029
X22.964Y11.955
X22.967Y11.892
Y0.767
X25.352
Y26.512
X22.967
Y15.387
X22.964Y15.324
X22.953Y15.25
X22.935Y15.176
X22.91Y15.105
X22.877Y15.037
X22.839Y14.973
X22.794Y14.912
X22.743Y14.856
X22.687Y14.805
X22.626Y14.76
X22.562Y14.722
X22.494Y14.689
X22.423Y14.664
X22.349Y14.646
X22.275Y14.635
X22.212Y14.632
X6.907
X6.844Y14.635
X6.77Y14.646
X6.696Y14.664
X6.625Y14.689
X6.557Y14.722
X6.493Y14.76
X6.432Y14.805
X6.376Y14.856
X6.325Y14.912
X6.28Y14.973
X6.242Y15.037
X6.209Y15.105
X6.184Y15.176
X6.166Y15.25
X6.155Y15.324
X6.152Y15.387
Y26.512
X3.767
Y0.767
X6.152
Y11.892
X6.155Y11.955
X6.166Y12.029
X6.184Y12.103
X6.209Y12.174
X6.242Y12.242
X6.28Y12.306
X6.325Y12.367
X6.376Y12.423
X6.432Y12.474
X6.493Y12.519
X6.557Y12.557
X6.625Y12.59
X6.696Y12.615
X6.77Y12.633
X6.844Y12.644
X6.907Y12.647
X22.212
X22.275Y12.644
X22.349Y12.633
X22.423Y12.615
X22.494Y12.59
X22.562Y12.557
X22.626Y12.519
X22.687Y12.474
G0Z10
X32.675Y10.696
G1Z-1F500
X32.671Y10.673F1000
X32.654Y10.545
X32.637Y10.417
X32.623Y10.286
X32.61Y10.155
X32.599Y10.022
X32.589Y9.888
X32.582Y9.753
X32.575Y9.616
X32.571Y9.479
X32.568Y9.34
X32.567Y9.199
X32.568Y9.073
X32.571Y8.947
X32.575Y8.821
X32.58Y8.695
X32.587Y8.57
X32.592Y8.507
X32.604Y8.665
X32.634Y8.832
X32.68Y8.996
X32.741Y9.155
X32.817Y9.307
X32.908Y9.451
X33.012Y9.586
X33.083Y9.663
X32.981Y9.797
X32.891Y9.942
X32.816Y10.096
X32.755Y10.256
X32.711Y10.422
X32.682Y10.591
X32.675Y10.696
X32.64Y7.999
X32.646Y7.95
X32.663Y7.827
X32.681Y7.705
X32.7Y7.584
X32.721Y7.463
X32.744Y7.342
X32.768Y7.223
X32.793Y7.104
X32.82Y6.985
X32.849Y6.867
X32.879Y6.75
X32.91Y6.634
X32.943Y6.519
X32.977Y6.404
X33.013Y6.29
X33.05Y6.177
X33.089Y6.065
X33.129Y5.954
X33.17Y5.844
X33.213Y5.735
X33.257Y5.626
X33.303Y5.519
X33.349Y5.412
X33.398Y5.307
X33.447Y5.203
X33.498Y5.1
X33.551Y4.998
X33.604Y4.897
X33.659Y4.797
X33.715Y4.698
X33.773Y4.601
X33.831Y4.504
X33.891Y4.409
X33.953Y4.315
X34.015Y4.223
X34.079Y4.131
X34.144Y4.041
X34.21Y3.952
X34.277Y3.865
X34.346Y3.779
X34.416Y3.694
X34.487Y3.61
X34.559Y3.528
X34.632Y3.447
X34.707Y3.368
X34.783Y3.29
X34.86Y3.213
X34.938Y3.138
X35.017Y3.064
X35.098Y2.991
X35.179Y2.92
X35.262Y2.851
X35.346Y2.783
X35.431Y2.716
X35.518Y2.651
X35.605Y2.588
X35.694Y2.525
X35.784Y2.465
X35.875Y2.406
X35.967Y2.348
X36.061Y2.292
X36.156Y2.238
X36.252Y2.185
X36.349Y2.133
X36.448Y2.083
X36.548Y2.035
X36.649Y1.989
X36.752Y1.944
X36.856Y1.9
X36.961Y1.859
X37.068Y1.819
X37.176Y1.78
X37.285Y1.744
X37.396Y1.709
X37.509Y1.676
X37.622Y1.645
X37.738Y1.615
X37.855Y1.587
X37.973Y1.562
X38.093Y1.538
X38.126Y1.532
X38.062Y1.548
X37.951Y1.577
X37.842Y1.607
X37.732Y1.639
X37.624Y1.673
X37.517Y1.708
X37.41Y1.745
X37.303Y1.783
X37.198Y1.823
X37.093Y1.864
X36.99Y1.907
X36.886Y1.952
X36.784Y1.998
X36.683Y2.045
X36.582Y2.095
X36.483Y2.146
X36.384Y2.198
X36.287Y2.252
X36.19Y2.308
X36.094Y2.365
X35.999Y2.424
X35.906Y2.484
X35.813Y2.546
X35.722Y2.609
X35.631Y2.674
X35.542Y2.74
X35.454Y2.808
X35.367Y2.877
X35.281Y2.948
X35.197Y3.02
X35.113Y3.094
X35.031Y3.168
X34.95Y3.245
X34.871Y3.323
X34.793Y3.402
X34.716Y3.482
X34.64Y3.564
X34.566Y3.647
X34.493Y3.731
X34.421Y3.816
X34.351Y3.903
X34.282Y3.991
X34.214Y4.08
X34.148Y4.17
X34.083Y4.262
X34.02Y4.353
X33.958Y4.447
X33.897Y4.542
X33.837Y4.637
X33.78Y4.734
X33.723Y4.831
X33.667Y4.93
X33.614Y5.029
X33.561Y5.13
X33.51Y5.231
X33.46Y5.334
X33.411Y5.437
X33.363Y5.542
X33.317Y5.647
X33.273Y5.752
X33.229Y5.86
X33.187Y5.966
X33.146Y6.076
X33.106Y6.185
X33.068Y6.295
X33.03Y6.407
X32.994Y6.518
X32.959Y6.632
X32.926Y6.744
X32.893Y6.859
X32.862Y6.975
X32.832Y7.09
X32.803Y7.207
X32.775Y7.324
X32.748Y7.443
X32.723Y7.562
X32.699Y7.682
X32.675Y7.802
X32.653Y7.925
X32.64Y7.999
X33.62Y8.204
X33.6Y8.328
X33.593Y8.39
X33.591Y8.464
X33.597Y8.537
X33.61Y8.61
X33.63Y8.681
X33.657Y8.75
X33.69Y8.816
X33.729Y8.879
X33.774Y8.937
X33.825Y8.991
X33.88Y9.04
X33.94Y9.083
X34.004Y9.121
X34.071Y9.152
X34.141Y9.176
X34.213Y9.194
X34.286Y9.204
X34.347Y9.207
X46.217
X46.21Y9.373
X46.2Y9.554
X46.189Y9.732
X46.176Y9.908
X46.162Y10.082
X46.145Y10.253
X46.128Y10.423
X46.108Y10.59
X46.087Y10.756
X46.064Y10.919
X46.04Y11.079
X46.014Y11.238
X45.987Y11.395
X45.958Y11.549
X45.927Y11.702
X45.895Y11.852
X45.862Y12
X45.827Y12.146
X45.79Y12.289
X45.752Y12.431
X45.713Y12.57
X45.672Y12.708
X45.629Y12.843
X45.586Y12.976
X45.541Y13.107
X45.494Y13.236
X45.446Y13.362
X45.397Y13.487
X45.346Y13.609
X45.294Y13.73
X45.241Y13.848
X45.187Y13.964
X45.131Y14.079
X45.074Y14.191
X45.015Y14.301
X44.956Y14.409
X44.895Y14.515
X44.833Y14.619
X44.769Y14.721
X44.705Y14.821
X44.639Y14.919
X44.572Y15.015
X44.504Y15.109
X44.435Y15.202
X44.364Y15.292
X44.292Y15.38
X44.22Y15.467
X44.146Y15.551
X44.071Y15.634
X43.994Y15.715
X43.917Y15.794
X43.838Y15.871
X43.759Y15.946
X43.678Y16.02
X43.596Y16.092
X43.513Y16.162
X43.428Y16.23
X43.343Y16.296
X43.256Y16.361
X43.169Y16.424
X43.08Y16.485
X42.989Y16.545
X42.898Y16.602
X42.806Y16.658
X42.712Y16.713
X42.617Y16.765
X42.521Y16.816
X42.424Y16.866
X42.325Y16.913
X42.226Y16.959
X42.125Y17.003
X42.023Y17.046
X41.919Y17.087
X41.815Y17.126
X41.709Y17.163
X41.602Y17.199
X41.493Y17.233
X41.384Y17.265
X41.273Y17.296
X41.161Y17.325
X41.048Y17.352
X40.933Y17.378
X40.817Y17.401
X40.7Y17.423
X40.582Y17.444
X40.462Y17.462
X40.342Y17.479
X40.22Y17.494
X40.096Y17.508
X39.972Y17.519
X39.846Y17.529
X39.719Y17.537
X39.591Y17.543
X39.462Y17.548
X39.331Y17.551
X39.2Y17.552
X39.063Y17.551
X38.927Y17.547
X38.792Y17.542
X38.658Y17.535
X38.525Y17.526
X38.393Y17.515
X38.262Y17.502
X38.133Y17.488
X38.004Y17.471
X37.876Y17.452
X37.75Y17.431
X37.624Y17.409
X37.5Y17.385
X37.377Y17.358
X37.254Y17.33
X37.133Y17.301
X37.013Y17.269
X36.894Y17.235
X36.776Y17.2
X36.66Y17.163
X36.544Y17.124
X36.429Y17.084
X36.316Y17.042
X36.204Y16.998
X36.093Y16.952
X35.983Y16.904
X35.874Y16.855
X35.767Y16.804
X35.66Y16.752
X35.555Y16.698
X35.451Y16.642
X35.348Y16.585
X35.246Y16.525
X35.146Y16.465
X35.046Y16.402
X34.948Y16.338
X34.851Y16.273
X34.755Y16.206
X34.661Y16.137
X34.567Y16.067
X34.475Y15.995
X34.385Y15.921
X34.295Y15.846
X34.207Y15.77
X34.12Y15.692
X34.034Y15.612
X33.949Y15.531
X33.866Y15.448
X33.784Y15.364
X33.703Y15.278
X33.624Y15.191
X33.546Y15.102
X33.469Y15.012
X33.394Y14.92
X33.32Y14.827
X33.247Y14.732
X33.176Y14.636
X33.106Y14.538
X33.037Y14.439
X32.97Y14.338
X32.904Y14.236
X32.84Y14.133
X32.777Y14.028
X32.715Y13.922
X32.655Y13.814
X32.597Y13.705
X32.539Y13.594
X32.484Y13.482
X32.43Y13.369
X32.377Y13.254
X32.326Y13.138
X32.276Y13.02
X32.228Y12.901
X32.182Y12.781
X32.137Y12.659
X32.094Y12.536
X32.052Y12.412
X32.012Y12.286
X31.974Y12.159
X31.937Y12.031
X31.902Y11.901
X31.868Y11.77
X31.836Y11.638
X31.806Y11.504
X31.778Y11.369
X31.751Y11.233
X31.726Y11.096
X31.703Y10.957
X31.682Y10.817
X31.662Y10.676
X31.644Y10.534
X31.628Y10.39
X31.614Y10.246
X31.602Y10.1
X31.591Y9.953
X31.583Y9.804
X31.576Y9.655
X31.571Y9.504
X31.568Y9.352
X31.567Y9.199
X31.568Y9.06
X31.571Y8.922
X31.575Y8.783
X31.581Y8.645
X31.589Y8.507
X31.599Y8.37
X31.61Y8.233
X31.623Y8.096
X31.638Y7.959
X31.654Y7.824
X31.672Y7.688
X31.692Y7.553
X31.714Y7.419
X31.737Y7.285
X31.762Y7.152
X31.788Y7.02
X31.817Y6.888
X31.847Y6.756
X31.878Y6.626
X31.911Y6.496
X31.946Y6.367
X31.983Y6.239
X32.021Y6.111
X32.061Y5.984
X32.102Y5.858
X32.145Y5.733
X32.19Y5.609
X32.236Y5.486
X32.284Y5.363
X32.334Y5.242
X32.385Y5.122
X32.437Y5.002
X32.492Y4.884
X32.547Y4.767
X32.605Y4.651
X32.664Y4.535
X32.724Y4.421
X32.786Y4.309
X32.85Y4.197
X32.915Y4.086
X32.981Y3.977
X33.05Y3.869
X33.119Y3.762
X33.19Y3.657
X33.263Y3.553
X33.337Y3.45
X33.413Y3.348
X33.49Y3.248
X33.569Y3.149
X33.649Y3.052
X33.73Y2.956
X33.813Y2.862
X33.898Y2.769
X33.984Y2.677
X34.071Y2.587
X34.16Y2.499
X34.25Y2.412
X34.342Y2.326
X34.435Y2.242
X34.53Y2.16
X34.626Y2.079
X34.723Y2
X34.822Y1.923
X34.923Y1.847
X35.024Y1.773
X35.128Y1.701
X35.232Y1.631
X35.338Y1.562
X35.446Y1.495
X35.555Y1.429
X35.665Y1.366
X35.777Y1.304
X35.891Y1.245
X36.005Y1.187
X36.122Y1.131
X36.24Y1.076
X36.359Y1.024
X36.479Y0.974
X36.602Y0.925
X36.725Y0.879
X36.85Y0.835
X36.977Y0.792
X37.105Y0.752
X37.235Y0.714
X37.366Y0.678
X37.499Y0.644
X37.633Y0.612
X37.769Y0.583
X37.906Y0.555
X38.045Y0.53
X38.185Y0.507
X38.327Y0.487
X38.471Y0.468
X38.616Y0.452
X38.762Y0.439
X38.911Y0.428
X39.061Y0.419
X39.212Y0.413
X39.365Y0.409
X39.522Y0.407
X39.694Y0.408
X39.78Y0.409
X39.865Y0.411
X39.95Y0.412
X40.034Y0.415
X40.117Y0.417
X40.2Y0.42
X40.282Y0.423
X40.363Y0.427
X40.444Y0.431
X40.524Y0.436
X40.604Y0.441
X40.683Y0.446
X40.762Y0.451
X40.839Y0.458
X40.917Y0.464
X40.993Y0.471
X41.069Y0.478
X41.145Y0.486
X41.22Y0.494
X41.295Y0.502
X41.369Y0.511
X41.442Y0.52
X41.515Y0.529
X41.588Y0.539
X41.66Y0.55
X41.731Y0.56
X41.802Y0.571
X41.873Y0.583
X41.943Y0.595
X42.013Y0.607
X42.082Y0.62
X42.151Y0.633
X42.22Y0.646
X42.288Y0.66
X42.355Y0.674
X42.423Y0.689
X42.49Y0.703
X42.556Y0.719
X42.622Y0.735
X42.688Y0.751
X42.754Y0.767
X42.819Y0.784
X42.884Y0.801
X42.949Y0.819
X43.013Y0.837
X43.077Y0.856
X43.141Y0.874
X43.204Y0.894
X43.267Y0.913
X43.33Y0.933
X43.393Y0.954
X43.456Y0.975
X43.518Y0.996
X43.58Y1.018
X43.642Y1.04
X43.704Y1.062
X43.765Y1.085
X43.827Y1.108
X43.888Y1.132
X43.949Y1.156
X44.01Y1.181
X44.071Y1.206
X44.132Y1.231
X44.192Y1.257
X44.253Y1.283
X44.313Y1.31
X44.374Y1.337
X44.434Y1.364
X44.494Y1.392
X44.554Y1.421
X44.615Y1.449
X44.675Y1.479
X44.735Y1.508
X44.855Y1.569
X44.975Y1.631
X45.095Y1.696
X45.216Y1.762
X45.336Y1.83
X45.457Y1.899
X45.578Y1.971
X45.7Y2.044
X45.822Y2.12
X45.904Y2.171
X45.909Y3.837
X45.801Y3.777
X45.671Y3.707
X45.54Y3.639
X45.41Y3.572
X45.279Y3.506
X45.147Y3.441
X45.016Y3.379
X44.885Y3.318
X44.753Y3.258
X44.622Y3.2
X44.489Y3.143
X44.357Y3.089
X44.224Y3.035
X44.092Y2.984
X43.959Y2.934
X43.826Y2.886
X43.759Y2.862
X43.692Y2.839
X43.625Y2.816
X43.558Y2.794
X43.491Y2.772
X43.424Y2.751
X43.357Y2.73
X43.29Y2.709
X43.222Y2.689
X43.155Y2.67
X43.088Y2.651
X43.02Y2.632
X42.953Y2.614
X42.885Y2.596
X42.817Y2.578
X42.749Y2.561
X42.681Y2.545
X42.614Y2.529
X42.545Y2.513
X42.477Y2.498
X42.409Y2.484
X42.341Y2.47
X42.273Y2.456
X42.204Y2.443
X42.136Y2.43
X42.067Y2.418
X41.998Y2.406
X41.93Y2.395
X41.861Y2.384
X41.792Y2.373
X41.723Y2.364
X41.654Y2.354
X41.585Y2.345
X41.515Y2.337
X41.446Y2.329
X41.377Y2.322
X41.307Y2.315
X41.238Y2.309
X41.168Y2.303
X41.099Y2.297
X41.029Y2.292
X40.959Y2.288
X40.889Y2.284
X40.819Y2.281
X40.749Y2.278
X40.679Y2.276
X40.609Y2.274
X40.538Y2.273
X40.468Y2.272
X40.397
X40.286
X40.175Y2.274
X40.066Y2.277
X39.957Y2.281
X39.848Y2.287
X39.741Y2.293
X39.634Y2.301
X39.528Y2.31
X39.422Y2.321
X39.318Y2.332
X39.214Y2.345
X39.111Y2.359
X39.008Y2.374
X38.906Y2.391
X38.805Y2.408
X38.705Y2.427
X38.606Y2.448
X38.507Y2.469
X38.409Y2.492
X38.311Y2.516
X38.215Y2.541
X38.119Y2.568
X38.024Y2.596
X37.93Y2.625
X37.837Y2.655
X37.744Y2.687
X37.652Y2.72
X37.561Y2.754
X37.471Y2.79
X37.382Y2.827
X37.293Y2.865
X37.205Y2.905
X37.119Y2.946
X37.033Y2.988
X36.948Y3.031
X36.863Y3.076
X36.78Y3.122
X36.698Y3.169
X36.616Y3.218
X36.536Y3.268
X36.456Y3.319
X36.378Y3.371
X36.3Y3.425
X36.223Y3.48
X36.147Y3.536
X36.073Y3.593
X35.999Y3.652
X35.926Y3.712
X35.855Y3.773
X35.784Y3.836
X35.714Y3.899
X35.645Y3.964
X35.578Y4.03
X35.511Y4.097
X35.446Y4.165
X35.381Y4.235
X35.318Y4.306
X35.256Y4.377
X35.195Y4.45
X35.134Y4.524
X35.075Y4.6
X35.017Y4.676
X34.961Y4.753
X34.905Y4.832
X34.85Y4.911
X34.796Y4.992
X34.744Y5.074
X34.692Y5.156
X34.642Y5.24
X34.593Y5.325
X34.544Y5.411
X34.497Y5.498
X34.451Y5.586
X34.406Y5.674
X34.362Y5.764
X34.319Y5.855
X34.277Y5.947
X34.237Y6.04
X34.197Y6.133
X34.158Y6.229
X34.121Y6.324
X34.084Y6.421
X34.049Y6.519
X34.014Y6.617
X33.981Y6.717
X33.948Y6.817
X33.917Y6.919
X33.887Y7.021
X33.857Y7.124
X33.829Y7.229
X33.802Y7.334
X33.775Y7.44
X33.75Y7.547
X33.726Y7.655
X33.702Y7.764
X33.68Y7.874
X33.659Y7.985
X33.638Y8.097
X33.62Y8.204
X34.219Y10.063
X34.149Y10.088
X34.082Y10.119
X34.018Y10.157
X33.958Y10.201
X33.902Y10.25
X33.851Y10.305
X33.806Y10.364
X33.767Y10.427
X33.734Y10.494
X33.708Y10.564
X33.689Y10.635
X33.676Y10.709
X33.671Y10.783
X33.673Y10.857
X33.681Y10.919
X33.699Y11.022
X33.716Y11.113
X33.733Y11.204
X33.752Y11.294
X33.771Y11.383
X33.791Y11.472
X33.811Y11.56
X33.833Y11.648
X33.855Y11.734
X33.879Y11.82
X33.902Y11.905
X33.927Y11.99
X33.953Y12.074
X33.979Y12.157
X34.007Y12.24
X34.035Y12.322
X34.063Y12.403
X34.093Y12.484
X34.124Y12.563
X34.155Y12.642
X34.187Y12.721
X34.221Y12.798
X34.255Y12.875
X34.289Y12.951
X34.325Y13.027
X34.362Y13.102
X34.399Y13.175
X34.437Y13.249
X34.476Y13.321
X34.516Y13.393
X34.557Y13.463
X34.599Y13.533
X34.641Y13.603
X34.685Y13.671
X34.729Y13.739
X34.774Y13.806
X34.82Y13.872
X34.867Y13.937
X34.915Y14.001
X34.964Y14.064
X35.013Y14.127
X35.064Y14.189
X35.115Y14.249
X35.168Y14.309
X35.221Y14.368
X35.275Y14.426
X35.329Y14.483
X35.385Y14.54
X35.442Y14.595
X35.499Y14.649
X35.557Y14.702
X35.616Y14.755
X35.676Y14.806
X35.737Y14.856
X35.798Y14.906
X35.861Y14.954
X35.924Y15.001
X35.988Y15.048
X36.053Y15.093
X36.118Y15.137
X36.184Y15.18
X36.252Y15.222
X36.319Y15.263
X36.388Y15.303
X36.457Y15.342
X36.527Y15.379
X36.598Y15.416
X36.669Y15.452
X36.742Y15.486
X36.814Y15.519
X36.888Y15.552
X36.962Y15.583
X37.037Y15.613
X37.112Y15.642
X37.189Y15.67
X37.265Y15.696
X37.343Y15.722
X37.421Y15.746
X37.499Y15.77
X37.579Y15.792
X37.658Y15.813
X37.739Y15.833
X37.82Y15.852
X37.902Y15.87
X37.984Y15.887
X38.067Y15.903
X38.15Y15.917
X38.234Y15.931
X38.318Y15.943
X38.403Y15.954
X38.489Y15.964
X38.575Y15.973
X38.661Y15.981
X38.749Y15.988
X38.836Y15.994
X38.924Y15.999
X39.013Y16.003
X39.102Y16.005
X39.192Y16.007
X39.283
X39.369
X39.454Y16.005
X39.539Y16.002
X39.624Y15.998
X39.708Y15.992
X39.791Y15.986
X39.874Y15.978
X39.957Y15.969
X40.039Y15.959
X40.12Y15.948
X40.201Y15.936
X40.282Y15.922
X40.362Y15.907
X40.441Y15.891
X40.52Y15.874
X40.598Y15.856
X40.676Y15.836
X40.753Y15.816
X40.829Y15.794
X40.905Y15.771
X40.98Y15.747
X41.055Y15.721
X41.129Y15.695
X41.202Y15.667
X41.275Y15.638
X41.347Y15.608
X41.418Y15.577
X41.489Y15.545
X41.558Y15.511
X41.628Y15.477
X41.696Y15.441
X41.764Y15.404
X41.831Y15.367
X41.897Y15.328
X41.962Y15.288
X42.027Y15.246
X42.091Y15.204
X42.154Y15.161
X42.216Y15.116
X42.277Y15.071
X42.338Y15.024
X42.398Y14.977
X42.456Y14.928
X42.514Y14.879
X42.571Y14.828
X42.628Y14.777
X42.683Y14.724
X42.737Y14.671
X42.791Y14.616
X42.843Y14.561
X42.895Y14.504
X42.946Y14.447
X42.996Y14.389
X43.044Y14.33
X43.092Y14.27
X43.139Y14.209
X43.185Y14.148
X43.23Y14.085
X43.275Y14.022
X43.318Y13.958
X43.36Y13.893
X43.401Y13.827
X43.441Y13.761
X43.48Y13.693
X43.519Y13.625
X43.556Y13.557
X43.592Y13.487
X43.628Y13.417
X43.662Y13.346
X43.696Y13.274
X43.728Y13.202
X43.759Y13.129
X43.79Y13.055
X43.819Y12.98
X43.848Y12.905
X43.875Y12.83
X43.902Y12.753
X43.928Y12.676
X43.952Y12.598
X43.976Y12.52
X43.999Y12.441
X44.02Y12.361
X44.041Y12.281
X44.061Y12.201
X44.08Y12.119
X44.098Y12.037
X44.115Y11.955
X44.131Y11.871
X44.146Y11.788
X44.16Y11.703
X44.173Y11.619
X44.185Y11.533
X44.196Y11.447
X44.206Y11.361
X44.215Y11.274
X44.223Y11.186
X44.231Y11.098
X44.237Y11.009
X44.242Y10.92
X44.247Y10.826
Y10.764
X44.24Y10.691
X44.227Y10.619
X44.206Y10.549
X44.179Y10.481
X44.145Y10.416
X44.106Y10.354
X44.061Y10.297
X44.01Y10.244
X43.955Y10.196
X43.895Y10.153
X43.832Y10.117
X43.765Y10.086
X43.685Y10.058
X43.553Y10.033
X34.427Y10.032
X34.365Y10.035
X34.292Y10.045
X34.219Y10.063
G0Z10
X52.687Y1.767
G1Z-1F500
X52.712F1000
Y25.512
X52.687
Y1.767
X51.687Y0.767
X53.712
Y26.512
X51.687
Y0.767
G0Z10
X61.447Y1.767
G1Z-1F500
X61.472F1000
Y25.512
X61.447
Y1.767
X60.447Y0.767
X62.472
Y26.512
X60.447
Y0.767
G0Z10
X69.87Y5.45
G1Z-1F500
X69.923Y5.345F1000
X69.978Y5.24
X69.999Y5.201
X69.955Y5.294
X69.904Y5.407
X69.855Y5.519
X69.807Y5.634
X69.761Y5.749
X69.717Y5.865
X69.674Y5.982
X69.633Y6.1
X69.594Y6.218
X69.556Y6.338
X69.52Y6.459
X69.486Y6.581
X69.454Y6.702
X69.423Y6.825
X69.393Y6.949
X69.366Y7.074
X69.34Y7.2
X69.315Y7.326
X69.293Y7.454
X69.272Y7.58
X69.253Y7.709
X69.235Y7.837
X69.219Y7.969
X69.205Y8.098
X69.192Y8.229
X69.181Y8.361
X69.172Y8.495
X69.165Y8.626
X69.159Y8.761
X69.155Y8.896
X69.152Y9.03
Y9.167
X69.153Y9.296
X69.155Y9.421
X69.16Y9.549
X69.167Y9.677
X69.175Y9.802
X69.185Y9.929
X69.196Y10.052
X69.21Y10.178
X69.226Y10.302
X69.243Y10.425
X69.262Y10.548
X69.283Y10.67
X69.305Y10.792
X69.329Y10.912
X69.355Y11.032
X69.383Y11.152
X69.412Y11.271
X69.443Y11.388
X69.477Y11.507
X69.511Y11.622
X69.547Y11.738
X69.585Y11.853
X69.625Y11.967
X69.666Y12.08
X69.71Y12.194
X69.754Y12.303
X69.8Y12.415
X69.848Y12.525
X69.875Y12.584
X69.827Y12.489
X69.776Y12.387
X69.727Y12.283
X69.679Y12.179
X69.633Y12.073
X69.589Y11.967
X69.546Y11.86
X69.505Y11.752
X69.465Y11.643
X69.428Y11.533
X69.391Y11.422
X69.357Y11.31
X69.324Y11.198
X69.294Y11.084
X69.264Y10.97
X69.237Y10.855
X69.211Y10.739
X69.188Y10.623
X69.166Y10.505
X69.145Y10.387
X69.127Y10.268
X69.111Y10.148
X69.096Y10.027
X69.083Y9.905
X69.072Y9.783
X69.063Y9.66
X69.057Y9.536
X69.052Y9.411
X69.049Y9.286
X69.048Y9.159
X69.049Y9.02
X69.051Y8.881
X69.056Y8.743
X69.063Y8.607
X69.072Y8.471
X69.083Y8.337
X69.096Y8.204
X69.11Y8.072
X69.127Y7.94
X69.145Y7.81
X69.165Y7.681
X69.187Y7.554
X69.21Y7.427
X69.236Y7.301
X69.263Y7.177
X69.292Y7.054
X69.323Y6.932
X69.355Y6.811
X69.389Y6.691
X69.425Y6.572
X69.462Y6.454
X69.501Y6.338
X69.542Y6.223
X69.584Y6.109
X69.628Y5.996
X69.673Y5.885
X69.72Y5.774
X69.768Y5.665
X69.818Y5.557
X69.87Y5.45
G0Z10
X83.708Y5.05
G1Z-1F500
X83.721Y5.073F1000
X83.777Y5.175
X83.832Y5.279
X83.885Y5.384
X83.937Y5.491
X83.987Y5.598
X84.035Y5.707
X84.083Y5.818
X84.128Y5.93
X84.172Y6.043
X84.214Y6.157
X84.255Y6.273
X84.294Y6.39
X84.332Y6.509
X84.368Y6.628
X84.402Y6.75
X84.434Y6.872
X84.465Y6.996
X84.494Y7.121
X84.522Y7.248
X84.547Y7.376
X84.571Y7.505
X84.593Y7.635
X84.613Y7.767
X84.632Y7.901
X84.648Y8.035
X84.663Y8.171
X84.676Y8.308
X84.687Y8.447
X84.695Y8.587
X84.702Y8.728
X84.707Y8.871
X84.711Y9.014
X84.712Y9.159
X84.71Y9.291
X84.707Y9.422
X84.702Y9.552
X84.695Y9.681
X84.687Y9.809
X84.676Y9.936
X84.663Y10.062
X84.648Y10.186
X84.632Y10.31
X84.613Y10.433
X84.593Y10.554
X84.571Y10.675
X84.547Y10.794
X84.522Y10.912
X84.494Y11.03
X84.465Y11.146
X84.434Y11.261
X84.402Y11.375
X84.367Y11.488
X84.331Y11.6
X84.294Y11.711
X84.254Y11.821
X84.213Y11.93
X84.171Y12.037
X84.127Y12.144
X84.081Y12.25
X84.033Y12.354
X83.984Y12.457
X83.934Y12.559
X83.881Y12.661
X83.828Y12.761
X83.772Y12.86
X83.716Y12.957
X83.657Y13.054
X83.597Y13.15
X83.536Y13.244
X83.473Y13.338
X83.409Y13.43
X83.343Y13.521
X83.276Y13.611
X83.207Y13.7
X83.136Y13.788
X83.081Y13.855
X83.144Y13.77
X83.213Y13.674
X83.282Y13.574
X83.349Y13.473
X83.414Y13.372
X83.478Y13.269
X83.54Y13.166
X83.601Y13.06
X83.659Y12.955
X83.717Y12.847
X83.772Y12.74
X83.826Y12.63
X83.878Y12.52
X83.929Y12.41
X83.977Y12.298
X84.024Y12.184
X84.069Y12.071
X84.113Y11.956
X84.155Y11.84
X84.194Y11.724
X84.232Y11.607
X84.269Y11.488
X84.303Y11.369
X84.336Y11.25
X84.367Y11.128
X84.396Y11.009
X84.423Y10.884
X84.448Y10.763
X84.472Y10.639
X84.494Y10.515
X84.513Y10.391
X84.531Y10.265
X84.547Y10.14
X84.562Y10.012
X84.574Y9.886
X84.584Y9.758
X84.593Y9.63
X84.599Y9.501
X84.604Y9.372
X84.607Y9.242
Y9.113
Y8.975
X84.604Y8.839
X84.6Y8.704
X84.594Y8.566
X84.586Y8.432
X84.577Y8.298
X84.566Y8.164
X84.553Y8.03
X84.538Y7.9
X84.522Y7.766
X84.504Y7.636
X84.485Y7.507
X84.463Y7.376
X84.44Y7.249
X84.415Y7.122
X84.389Y6.994
X84.361Y6.868
X84.33Y6.743
X84.298Y6.618
X84.265Y6.495
X84.23Y6.372
X84.193Y6.25
X84.154Y6.13
X84.113Y6.009
X84.071Y5.89
X84.027Y5.772
X83.981Y5.655
X83.933Y5.539
X83.884Y5.423
X83.833Y5.31
X83.78Y5.196
X83.725Y5.085
X83.708Y5.05
X82.832Y5.534
X82.783Y5.438
X82.733Y5.343
X82.681Y5.249
X82.628Y5.156
X82.573Y5.065
X82.517Y4.974
X82.459Y4.885
X82.4Y4.797
X82.34Y4.71
X82.279Y4.625
X82.215Y4.54
X82.151Y4.457
X82.085Y4.375
X82.018Y4.294
X81.949Y4.215
X81.879Y4.137
X81.808Y4.06
X81.736Y3.985
X81.662Y3.91
X81.587Y3.838
X81.51Y3.766
X81.432Y3.696
X81.354Y3.627
X81.273Y3.56
X81.192Y3.494
X81.109Y3.429
X81.025Y3.366
X80.94Y3.305
X80.854Y3.244
X80.767Y3.186
X80.678Y3.128
X80.588Y3.072
X80.498Y3.018
X80.406Y2.965
X80.313Y2.914
X80.219Y2.864
X80.124Y2.815
X80.027Y2.768
X79.93Y2.723
X79.832Y2.679
X79.733Y2.636
X79.633Y2.595
X79.531Y2.556
X79.429Y2.518
X79.326Y2.482
X79.222Y2.447
X79.117Y2.414
X79.011Y2.382
X78.904Y2.352
X78.797Y2.323
X78.688Y2.296
X78.579Y2.27
X78.468Y2.246
X78.357Y2.224
X78.245Y2.203
X78.132Y2.183
X78.019Y2.165
X77.904Y2.149
X77.789Y2.134
X77.673Y2.121
X77.556Y2.109
X77.438Y2.099
X77.32Y2.091
X77.201Y2.084
X77.081Y2.078
X76.96Y2.075
X76.838Y2.072
X76.716
X76.602
X76.488Y2.075
X76.375Y2.079
X76.262Y2.085
X76.151Y2.093
X76.039Y2.102
X75.929Y2.113
X75.819Y2.125
X75.71Y2.14
X75.601Y2.155
X75.493Y2.173
X75.386Y2.192
X75.279Y2.213
X75.173Y2.235
X75.068Y2.259
X74.964Y2.284
X74.86Y2.312
X74.758Y2.34
X74.656Y2.371
X74.554Y2.403
X74.454Y2.436
X74.355Y2.471
X74.256Y2.508
X74.158Y2.546
X74.061Y2.586
X73.965Y2.627
X73.87Y2.67
X73.776Y2.715
X73.682Y2.761
X73.59Y2.808
X73.498Y2.857
X73.408Y2.907
X73.318Y2.959
X73.23Y3.013
X73.143Y3.067
X73.056Y3.124
X72.971Y3.181
X72.886Y3.241
X72.803Y3.301
X72.721Y3.363
X72.64Y3.426
X72.56Y3.491
X72.481Y3.557
X72.404Y3.625
X72.327Y3.693
X72.252Y3.763
X72.178Y3.835
X72.105Y3.907
X72.033Y3.982
X71.962Y4.057
X71.893Y4.133
X71.825Y4.211
X71.758Y4.29
X71.692Y4.37
X71.628Y4.452
X71.565Y4.535
X71.503Y4.619
X71.442Y4.703
X71.383Y4.79
X71.325Y4.877
X71.269Y4.965
X71.213Y5.055
X71.159Y5.146
X71.106Y5.237
X71.055Y5.33
X71.005Y5.424
X70.957Y5.519
X70.909Y5.615
X70.864Y5.712
X70.819Y5.81
X70.776Y5.909
X70.734Y6.009
X70.694Y6.11
X70.655Y6.212
X70.617Y6.314
X70.581Y6.418
X70.547Y6.523
X70.513Y6.629
X70.482Y6.735
X70.451Y6.843
X70.422Y6.951
X70.395Y7.06
X70.369Y7.17
X70.344Y7.281
X70.321Y7.393
X70.299Y7.505
X70.279Y7.619
X70.26Y7.733
X70.243Y7.848
X70.227Y7.963
X70.213Y8.08
X70.2Y8.197
X70.189Y8.316
X70.179Y8.434
X70.17Y8.554
X70.164Y8.674
X70.158Y8.795
X70.155Y8.917
X70.152Y9.039
Y9.163
Y9.277
X70.155Y9.39
X70.159Y9.503
X70.165Y9.616
X70.172Y9.727
X70.181Y9.839
X70.191Y9.948
X70.203Y10.059
X70.217Y10.168
X70.232Y10.277
X70.248Y10.385
X70.267Y10.493
X70.286Y10.599
X70.308Y10.705
X70.33Y10.811
X70.355Y10.916
X70.38Y11.02
X70.408Y11.123
X70.436Y11.226
X70.467Y11.328
X70.498Y11.429
X70.531Y11.529
X70.566Y11.628
X70.602Y11.727
X70.64Y11.825
X70.678Y11.922
X70.719Y12.019
X70.76Y12.114
X70.803Y12.209
X70.848Y12.302
X70.894Y12.395
X70.941Y12.486
X70.989Y12.577
X71.039Y12.667
X71.09Y12.756
X71.143Y12.844
X71.197Y12.932
X71.252Y13.017
X71.309Y13.103
X71.366Y13.186
X71.425Y13.269
X71.486Y13.352
X71.547Y13.432
X71.61Y13.512
X71.674Y13.591
X71.739Y13.668
X71.805Y13.745
X71.873Y13.82
X71.942Y13.895
X72.012Y13.968
X72.083Y14.04
X72.155Y14.11
X72.228Y14.18
X72.303Y14.248
X72.379Y14.315
X72.456Y14.381
X72.533Y14.446
X72.612Y14.509
X72.692Y14.571
X72.773Y14.632
X72.855Y14.692
X72.938Y14.75
X73.022Y14.807
X73.108Y14.863
X73.194Y14.917
X73.281Y14.97
X73.369Y15.021
X73.458Y15.072
X73.548Y15.12
X73.639Y15.168
X73.73Y15.214
X73.823Y15.258
X73.917Y15.301
X74.011Y15.343
X74.106Y15.383
X74.202Y15.422
X74.299Y15.459
X74.397Y15.495
X74.495Y15.529
X74.595Y15.562
X74.695Y15.593
X74.795Y15.623
X74.897Y15.651
X74.999Y15.678
X75.102Y15.703
X75.206Y15.727
X75.31Y15.749
X75.415Y15.769
X75.521Y15.788
X75.627Y15.805
X75.734Y15.821
X75.842Y15.835
X75.95Y15.847
X76.059Y15.858
X76.168Y15.867
X76.278Y15.874
X76.389Y15.88
X76.5Y15.884
X76.605Y15.887
X76.723
X76.841
X76.957Y15.884
X77.074Y15.88
X77.189Y15.874
X77.304Y15.867
X77.419Y15.857
X77.533Y15.847
X77.646Y15.834
X77.759Y15.82
X77.871Y15.805
X77.982Y15.788
X78.093Y15.769
X78.202Y15.749
X78.312Y15.727
X78.42Y15.703
X78.528Y15.678
X78.635Y15.652
X78.741Y15.624
X78.846Y15.594
X78.951Y15.563
X79.055Y15.53
X79.158Y15.496
X79.26Y15.46
X79.361Y15.423
X79.462Y15.385
X79.562Y15.345
X79.66Y15.303
X79.758Y15.26
X79.855Y15.216
X79.951Y15.17
X80.046Y15.123
X80.14Y15.074
X80.233Y15.024
X80.325Y14.973
X80.417Y14.92
X80.507Y14.866
X80.596Y14.81
X80.684Y14.753
X80.771Y14.695
X80.857Y14.635
X80.942Y14.575
X81.026Y14.512
X81.108Y14.449
X81.19Y14.384
X81.27Y14.318
X81.35Y14.251
X81.428Y14.182
X81.505Y14.113
X81.581Y14.042
X81.656Y13.969
X81.729Y13.896
X81.801Y13.822
X81.872Y13.746
X81.942Y13.669
X82.01Y13.591
X82.077Y13.512
X82.143Y13.432
X82.208Y13.35
X82.271Y13.268
X82.333Y13.184
X82.394Y13.1
X82.453Y13.014
X82.511Y12.927
X82.568Y12.84
X82.623Y12.751
X82.677Y12.661
X82.729Y12.57
X82.78Y12.479
X82.83Y12.386
X82.878Y12.293
X82.925Y12.198
X82.97Y12.103
X83.014Y12.006
X83.056Y11.909
X83.097Y11.811
X83.136Y11.712
X83.174Y11.612
X83.21Y11.512
X83.245Y11.41
X83.278Y11.308
X83.31Y11.205
X83.34Y11.101
X83.368Y10.997
X83.396Y10.891
X83.421Y10.786
X83.445Y10.678
X83.467Y10.571
X83.488Y10.463
X83.507Y10.354
X83.524Y10.245
X83.54Y10.134
X83.554Y10.024
X83.567Y9.912
X83.577Y9.8
X83.587Y9.687
X83.594Y9.574
X83.6Y9.46
X83.604Y9.346
X83.607Y9.231
Y9.116
Y8.991
X83.604Y8.866
X83.6Y8.743
X83.595Y8.619
X83.588Y8.497
X83.58Y8.376
X83.57Y8.255
X83.558Y8.135
X83.545Y8.017
X83.531Y7.899
X83.515Y7.782
X83.497Y7.666
X83.478Y7.549
X83.458Y7.435
X83.436Y7.322
X83.412Y7.209
X83.387Y7.097
X83.36Y6.986
X83.332Y6.876
X83.303Y6.767
X83.272Y6.658
X83.239Y6.551
X83.205Y6.445
X83.169Y6.339
X83.132Y6.235
X83.094Y6.132
X83.054Y6.03
X83.012Y5.928
X82.969Y5.828
X82.925Y5.729
X82.879Y5.631
X82.832Y5.534
X84.593Y4.584
X84.658Y4.701
X84.72Y4.82
X84.781Y4.94
X84.84Y5.061
X84.897Y5.184
X84.952Y5.308
X85.006Y5.433
X85.057Y5.56
X85.107Y5.688
X85.155Y5.817
X85.201Y5.948
X85.245Y6.081
X85.288Y6.214
X85.328Y6.349
X85.366Y6.486
X85.403Y6.623
X85.438Y6.762
X85.47Y6.902
X85.501Y7.044
X85.529Y7.187
X85.556Y7.331
X85.58Y7.477
X85.603Y7.623
X85.623Y7.771
X85.642Y7.921
X85.658Y8.071
X85.672Y8.223
X85.684Y8.376
X85.694Y8.53
X85.702Y8.686
X85.707Y8.842
X85.71Y9
X85.712Y9.159
X85.71Y9.307
X85.707Y9.453
X85.701Y9.599
X85.694Y9.743
X85.684Y9.887
X85.671Y10.029
X85.657Y10.17
X85.64Y10.311
X85.622Y10.45
X85.601Y10.589
X85.578Y10.726
X85.553Y10.862
X85.526Y10.998
X85.497Y11.132
X85.466Y11.265
X85.433Y11.397
X85.398Y11.528
X85.361Y11.658
X85.322Y11.786
X85.281Y11.914
X85.238Y12.041
X85.193Y12.166
X85.146Y12.29
X85.098Y12.413
X85.047Y12.535
X84.995Y12.656
X84.94Y12.775
X84.884Y12.893
X84.826Y13.011
X84.766Y13.126
X84.705Y13.241
X84.641Y13.355
X84.576Y13.467
X84.509Y13.578
X84.441Y13.688
X84.37Y13.796
X84.298Y13.903
X84.224Y14.009
X84.149Y14.114
X84.071Y14.217
X83.992Y14.319
X83.912Y14.42
X83.829Y14.519
X83.745Y14.617
X83.66Y14.713
X83.573Y14.809
X83.484Y14.902
X83.394Y14.995
X83.302Y15.086
X83.208Y15.175
X83.113Y15.264
X83.016Y15.35
X82.918Y15.436
X82.818Y15.52
X82.717Y15.602
X82.614Y15.683
X82.509Y15.762
X82.404Y15.84
X82.296Y15.916
X82.188Y15.991
X82.077Y16.064
X81.966Y16.136
X81.852Y16.206
X81.738Y16.274
X81.622Y16.341
X81.505Y16.406
X81.386Y16.47
X81.266Y16.532
X81.144Y16.592
X81.021Y16.651
X80.897Y16.708
X80.771Y16.763
X80.644Y16.816
X80.516Y16.868
X80.387Y16.918
X80.256Y16.966
X80.124Y17.012
X79.99Y17.057
X79.856Y17.1
X79.72Y17.141
X79.583Y17.18
X79.445Y17.217
X79.305Y17.252
X79.164Y17.286
X79.022Y17.317
X78.879Y17.347
X78.735Y17.375
X78.59Y17.401
X78.443Y17.424
X78.295Y17.446
X78.147Y17.466
X77.997Y17.484
X77.846Y17.5
X77.694Y17.513
X77.541Y17.525
X77.386Y17.534
X77.231Y17.542
X77.075Y17.547
X76.918Y17.55
X76.76Y17.552
X76.611Y17.55
X76.462Y17.547
X76.315Y17.542
X76.168Y17.534
X76.023Y17.524
X75.878Y17.512
X75.734Y17.498
X75.591Y17.482
X75.448Y17.463
X75.307Y17.443
X75.166Y17.421
X75.027Y17.396
X74.888Y17.37
X74.75Y17.341
X74.614Y17.311
X74.478Y17.278
X74.343Y17.244
X74.209Y17.208
X74.076Y17.169
X73.945Y17.129
X73.814Y17.087
X73.684Y17.043
X73.556Y16.998
X73.428Y16.95
X73.302Y16.901
X73.177Y16.85
X73.053Y16.797
X72.93Y16.742
X72.808Y16.685
X72.687Y16.627
X72.568Y16.567
X72.449Y16.506
X72.332Y16.442
X72.217Y16.377
X72.102Y16.311
X71.989Y16.242
X71.877Y16.172
X71.766Y16.101
X71.657Y16.028
X71.549Y15.953
X71.442Y15.877
X71.336Y15.799
X71.232Y15.719
X71.13Y15.639
X71.028Y15.556
X70.929Y15.472
X70.83Y15.387
X70.733Y15.3
X70.638Y15.212
X70.544Y15.123
X70.451Y15.032
X70.36Y14.939
X70.27Y14.845
X70.182Y14.75
X70.096Y14.654
X70.011Y14.556
X69.927Y14.457
X69.846Y14.357
X69.766Y14.255
X69.687Y14.152
X69.61Y14.048
X69.535Y13.942
X69.461Y13.836
X69.389Y13.728
X69.319Y13.619
X69.251Y13.509
X69.184Y13.397
X69.119Y13.285
X69.055Y13.171
X68.994Y13.056
X68.934Y12.94
X68.876Y12.823
X68.82Y12.705
X68.766Y12.586
X68.713Y12.466
X68.663Y12.345
X68.614Y12.223
X68.567Y12.099
X68.522Y11.975
X68.479Y11.85
X68.438Y11.724
X68.399Y11.597
X68.362Y11.469
X68.327Y11.34
X68.293Y11.21
X68.262Y11.079
X68.233Y10.947
X68.206Y10.815
X68.181Y10.681
X68.158Y10.547
X68.137Y10.412
X68.119Y10.276
X68.102Y10.139
X68.088Y10.001
X68.076Y9.863
X68.065Y9.724
X68.058Y9.584
X68.052Y9.443
X68.049Y9.302
X68.047Y9.159
X68.049Y9.005
X68.052Y8.852
X68.057Y8.7
X68.065Y8.549
X68.075Y8.399
X68.087Y8.25
X68.101Y8.102
X68.117Y7.955
X68.135Y7.809
X68.156Y7.664
X68.178Y7.52
X68.202Y7.377
X68.229Y7.236
X68.257Y7.095
X68.288Y6.956
X68.32Y6.818
X68.354Y6.681
X68.391Y6.545
X68.429Y6.41
X68.469Y6.277
X68.511Y6.144
X68.555Y6.013
X68.601Y5.883
X68.649Y5.754
X68.698Y5.627
X68.75Y5.501
X68.803Y5.376
X68.858Y5.252
X68.914Y5.129
X68.973Y5.008
X69.033Y4.888
X69.095Y4.77
X69.159Y4.653
X69.224Y4.537
X69.291Y4.422
X69.36Y4.309
X69.431Y4.197
X69.503Y4.086
X69.577Y3.977
X69.652Y3.869
X69.729Y3.763
X69.808Y3.658
X69.888Y3.555
X69.97Y3.453
X70.054Y3.352
X70.139Y3.253
X70.225Y3.155
X70.313Y3.059
X70.403Y2.964
X70.494Y2.871
X70.587Y2.779
X70.681Y2.689
X70.777Y2.6
X70.874Y2.513
X70.972Y2.428
X71.072Y2.344
X71.174Y2.261
X71.277Y2.181
X71.381Y2.101
X71.487Y2.024
X71.594Y1.948
X71.703Y1.873
X71.813Y1.801
X71.924Y1.73
X72.037Y1.661
X72.151Y1.593
X72.266Y1.527
X72.383Y1.463
X72.501Y1.401
X72.62Y1.34
X72.741Y1.281
X72.863Y1.224
X72.986Y1.169
X73.11Y1.115
X73.236Y1.063
X73.363Y1.013
X73.491Y0.965
X73.621Y0.919
X73.751Y0.875
X73.883Y0.833
X74.016Y0.792
X74.15Y0.754
X74.286Y0.717
X74.422Y0.682
X74.56Y0.65
X74.699Y0.619
X74.839Y0.59
X74.98Y0.564
X75.123Y0.539
X75.266Y0.517
X75.411Y0.496
X75.556Y0.478
X75.703Y0.461
X75.851Y0.447
X76Y0.435
X76.15Y0.425
X76.301Y0.417
X76.453Y0.412
X76.606Y0.409
X76.76Y0.407
X76.921Y0.409
X77.082Y0.412
X77.242Y0.417
X77.4Y0.425
X77.558Y0.434
X77.714Y0.446
X77.869Y0.46
X78.022Y0.476
X78.174Y0.493
X78.326Y0.513
X78.475Y0.535
X78.624Y0.559
X78.771Y0.585
X78.917Y0.613
X79.062Y0.643
X79.205Y0.675
X79.347Y0.708
X79.488Y0.744
X79.628Y0.782
X79.766Y0.821
X79.902Y0.862
X80.038Y0.906
X80.172Y0.951
X80.304Y0.997
X80.436Y1.046
X80.565Y1.097
X80.694Y1.149
X80.821Y1.203
X80.946Y1.259
X81.071Y1.316
X81.193Y1.376
X81.315Y1.437
X81.434Y1.5
X81.553Y1.564
X81.67Y1.63
X81.785Y1.698
X81.899Y1.768
X82.012Y1.839
X82.123Y1.912
X82.232Y1.986
X82.34Y2.062
X82.447Y2.14
X82.551Y2.219
X82.655Y2.3
X82.757Y2.383
X82.857Y2.467
X82.956Y2.553
X83.053Y2.64
X83.149Y2.729
X83.243Y2.819
X83.335Y2.911
X83.426Y3.004
X83.516Y3.099
X83.603Y3.196
X83.69Y3.294
X83.774Y3.393
X83.857Y3.494
X83.938Y3.596
X84.018Y3.7
X84.095Y3.806
X84.172Y3.913
X84.246Y4.021
X84.319Y4.131
X84.39Y4.242
X84.46Y4.355
X84.527Y4.469
X84.593Y4.584
G0Z10
 
