(Created with grbl post processor 2025/04/16 20:52)
G21
(G-code Generated with Fabex and NC library)
G17G90
S12000M03
G00 Z10.0

G0X3.1Y0.1Z10
G1Z-0.373F500
X3.267Y0.267Z-0.899
Z-1
Y27.012F1000
X6.652
Y15.393
X6.653Y15.373
X6.655Y15.354
X6.66Y15.334
X6.665Y15.315
X6.672Y15.297
X6.68Y15.279
X6.69Y15.262
X6.7Y15.245
X6.712Y15.23
X6.725Y15.215
X6.74Y15.201
X6.755Y15.188
X6.771Y15.177
X6.787Y15.166
X6.805Y15.157
X6.823Y15.15
X6.842Y15.143
X6.861Y15.138
X6.88Y15.134
X6.9Y15.132
X6.92
X22.206
X22.226Y15.133
X22.245Y15.135
X22.265Y15.14
X22.284Y15.145
X22.302Y15.152
X22.32Y15.16
X22.337Y15.17
X22.354Y15.18
X22.369Y15.192
X22.384Y15.205
X22.398Y15.22
X22.411Y15.235
X22.422Y15.251
X22.433Y15.267
X22.442Y15.285
X22.449Y15.303
X22.456Y15.322
X22.461Y15.341
X22.465Y15.36
X22.467Y15.38
Y15.4
Y27.012
X25.852
Y0.267
X22.467
Y11.886
X22.466Y11.906
X22.464Y11.925
X22.459Y11.945
X22.454Y11.964
X22.447Y11.982
X22.439Y12
X22.429Y12.017
X22.419Y12.034
X22.407Y12.049
X22.394Y12.064
X22.379Y12.078
X22.364Y12.091
X22.348Y12.102
X22.332Y12.113
X22.314Y12.122
X22.296Y12.129
X22.277Y12.136
X22.258Y12.141
X22.239Y12.145
X22.219Y12.147
X22.2
X6.913
X6.893Y12.146
X6.874Y12.144
X6.854Y12.139
X6.835Y12.134
X6.817Y12.127
X6.799Y12.119
X6.782Y12.109
X6.765Y12.099
X6.75Y12.087
X6.735Y12.074
X6.721Y12.059
X6.708Y12.044
X6.697Y12.028
X6.686Y12.012
X6.677Y11.994
X6.67Y11.976
X6.663Y11.957
X6.658Y11.938
X6.654Y11.919
X6.652Y11.899
Y11.88
Y0.267
X3.267
G0Z10
X6.652
G1Z-0.899F500
X6.82Y0.1Z-0.373F1000
G0Z10
X22.299
G1Z-0.373F500
X22.467Y0.267Z-0.899
G0Z10
X25.852
G1Z-0.899
X26.02Y0.1Z-0.373F1000
G0Z10
X32.417Y3.946
G1Z-1F500
X32.35Y4.065F1000
X32.284Y4.184
X32.22Y4.304
X32.158Y4.426
X32.097Y4.549
X32.039Y4.672
X31.981Y4.797
X31.926Y4.923
X31.872Y5.05
X31.82Y5.178
X31.769Y5.307
X31.721Y5.437
X31.674Y5.567
X31.628Y5.699
X31.585Y5.831
X31.543Y5.964
X31.503Y6.098
X31.465Y6.233
X31.428Y6.369
X31.393Y6.505
X31.36Y6.642
X31.328Y6.78
X31.299Y6.918
X31.271Y7.057
X31.245Y7.197
X31.221Y7.337
X31.198Y7.477
X31.177Y7.619
X31.158Y7.76
X31.141Y7.903
X31.126Y8.045
X31.112Y8.188
X31.1Y8.332
X31.09Y8.476
X31.082Y8.62
X31.076Y8.764
X31.071Y8.909
X31.068Y9.054
X31.067Y9.199
X31.068Y9.359
X31.071Y9.517
X31.077Y9.674
X31.084Y9.83
X31.092Y9.985
X31.103Y10.139
X31.116Y10.291
X31.131Y10.442
X31.148Y10.593
X31.166Y10.742
X31.187Y10.89
X31.209Y11.036
X31.234Y11.182
X31.26Y11.326
X31.288Y11.469
X31.318Y11.611
X31.349Y11.751
X31.383Y11.89
X31.418Y12.028
X31.455Y12.165
X31.494Y12.3
X31.534Y12.434
X31.577Y12.567
X31.621Y12.699
X31.667Y12.829
X31.714Y12.957
X31.763Y13.085
X31.814Y13.211
X31.867Y13.335
X31.921Y13.459
X31.977Y13.581
X32.034Y13.701
X32.093Y13.82
X32.154Y13.938
X32.216Y14.054
X32.28Y14.169
X32.346Y14.282
X32.413Y14.394
X32.482Y14.504
X32.552Y14.613
X32.624Y14.72
X32.697Y14.826
X32.772Y14.93
X32.848Y15.033
X32.926Y15.134
X33.005Y15.234
X33.085Y15.332
X33.168Y15.429
X33.251Y15.524
X33.336Y15.618
X33.423Y15.709
X33.511Y15.8
X33.6Y15.888
X33.69Y15.975
X33.783Y16.061
X33.876Y16.145
X33.971Y16.227
X34.067Y16.307
X34.164Y16.386
X34.263Y16.463
X34.363Y16.539
X34.465Y16.613
X34.567Y16.685
X34.671Y16.755
X34.777Y16.824
X34.883Y16.891
X34.991Y16.956
X35.1Y17.019
X35.211Y17.081
X35.322Y17.141
X35.435Y17.199
X35.549Y17.255
X35.664Y17.309
X35.781Y17.362
X35.899Y17.413
X36.017Y17.462
X36.137Y17.509
X36.259Y17.554
X36.381Y17.597
X36.504Y17.639
X36.629Y17.678
X36.755Y17.716
X36.882Y17.751
X37.01Y17.785
X37.139Y17.817
X37.269Y17.847
X37.4Y17.875
X37.532Y17.9
X37.666Y17.924
X37.8Y17.946
X37.935Y17.966
X38.072Y17.984
X38.209Y18
X38.348Y18.013
X38.487Y18.025
X38.628Y18.034
X38.769Y18.042
X38.912Y18.047
X39.055Y18.05
X39.2Y18.052
X39.338Y18.051
X39.476Y18.048
X39.612Y18.043
X39.747Y18.036
X39.882Y18.028
X40.015Y18.017
X40.147Y18.005
X40.277Y17.991
X40.407Y17.975
X40.535Y17.957
X40.663Y17.937
X40.789Y17.916
X40.914Y17.892
X41.038Y17.867
X41.161Y17.839
X41.282Y17.81
X41.402Y17.779
X41.521Y17.746
X41.639Y17.711
X41.756Y17.675
X41.871Y17.636
X41.986Y17.596
X42.099Y17.553
X42.211Y17.509
X42.321Y17.463
X42.431Y17.415
X42.539Y17.365
X42.646Y17.314
X42.751Y17.26
X42.856Y17.205
X42.959Y17.148
X43.061Y17.088
X43.161Y17.027
X43.261Y16.965
X43.359Y16.9
X43.456Y16.833
X43.552Y16.764
X43.646Y16.694
X43.739Y16.622
X43.831Y16.547
X43.921Y16.471
X44.011Y16.393
X44.099Y16.313
X44.185Y16.231
X44.271Y16.147
X44.355Y16.061
X44.438Y15.974
X44.519Y15.884
X44.599Y15.792
X44.678Y15.699
X44.755Y15.603
X44.832Y15.506
X44.906Y15.406
X44.98Y15.305
X45.052Y15.201
X45.122Y15.096
X45.192Y14.989
X45.26Y14.879
X45.326Y14.768
X45.391Y14.654
X45.455Y14.539
X45.517Y14.421
X45.578Y14.302
X45.637Y14.18
X45.695Y14.057
X45.752Y13.931
X45.807Y13.804
X45.86Y13.674
X45.912Y13.543
X45.963Y13.409
X46.012Y13.273
X46.06Y13.135
X46.105Y12.996
X46.15Y12.854
X46.193Y12.71
X46.234Y12.564
X46.274Y12.416
X46.312Y12.266
X46.349Y12.113
X46.384Y11.959
X46.417Y11.803
X46.449Y11.645
X46.479Y11.484
X46.507Y11.322
X46.534Y11.157
X46.559Y10.99
X46.583Y10.822
X46.604Y10.651
X46.625Y10.478
X46.643Y10.303
X46.66Y10.126
X46.675Y9.947
X46.688Y9.766
X46.699Y9.583
X46.709Y9.397
X46.717Y9.21
X46.723Y9.02
X46.728Y8.829
X46.73Y8.707
X34.353
X34.333Y8.706
X34.314Y8.704
X34.295Y8.7
X34.276Y8.694
X34.258Y8.687
X34.24Y8.679
X34.223Y8.67
X34.206Y8.659
X34.19Y8.647
X34.176Y8.634
X34.162Y8.62
X34.149Y8.606
X34.138Y8.59
X34.127Y8.573
X34.118Y8.556
X34.11Y8.538
X34.104Y8.519
X34.099Y8.5
X34.095Y8.481
X34.092Y8.462
Y8.442
Y8.423
X34.094Y8.403
X34.113Y8.288
X34.131Y8.18
X34.151Y8.073
X34.171Y7.967
X34.193Y7.862
X34.215Y7.758
X34.238Y7.656
X34.262Y7.554
X34.287Y7.453
X34.313Y7.353
X34.34Y7.254
X34.368Y7.156
X34.397Y7.059
X34.427Y6.963
X34.457Y6.869
X34.489Y6.775
X34.521Y6.682
X34.555Y6.59
X34.589Y6.499
X34.624Y6.41
X34.661Y6.321
X34.698Y6.233
X34.736Y6.146
X34.775Y6.061
X34.815Y5.976
X34.856Y5.892
X34.898Y5.81
X34.941Y5.728
X34.985Y5.648
X35.029Y5.568
X35.075Y5.49
X35.122Y5.413
X35.169Y5.336
X35.218Y5.261
X35.267Y5.187
X35.318Y5.114
X35.369Y5.042
X35.421Y4.971
X35.475Y4.901
X35.529Y4.832
X35.584Y4.764
X35.64Y4.697
X35.697Y4.632
X35.755Y4.567
X35.814Y4.504
X35.874Y4.442
X35.935Y4.38
X35.996Y4.32
X36.059Y4.261
X36.122Y4.203
X36.187Y4.147
X36.252Y4.091
X36.318Y4.037
X36.386Y3.983
X36.454Y3.931
X36.523Y3.88
X36.593Y3.83
X36.663Y3.781
X36.735Y3.734
X36.808Y3.687
X36.881Y3.642
X36.956Y3.598
X37.031Y3.554
X37.107Y3.513
X37.184Y3.472
X37.262Y3.432
X37.34Y3.394
X37.42Y3.356
X37.5Y3.32
X37.582Y3.285
X37.664Y3.252
X37.747Y3.219
X37.83Y3.187
X37.915Y3.157
X38Y3.128
X38.087Y3.1
X38.174Y3.073
X38.262Y3.047
X38.35Y3.023
X38.44Y2.999
X38.53Y2.977
X38.622Y2.956
X38.714Y2.936
X38.806Y2.917
X38.9Y2.899
X38.994Y2.883
X39.09Y2.867
X39.186Y2.853
X39.283Y2.84
X39.38Y2.828
X39.479Y2.817
X39.578Y2.808
X39.678Y2.799
X39.779Y2.792
X39.881Y2.786
X39.983Y2.781
X40.086Y2.777
X40.19Y2.774
X40.295Y2.772
X40.4
X40.467
X40.534Y2.773
X40.601Y2.774
X40.667Y2.776
X40.734Y2.778
X40.8Y2.78
X40.866Y2.784
X40.932Y2.787
X40.999Y2.791
X41.065Y2.796
X41.131Y2.801
X41.197Y2.807
X41.263Y2.813
X41.328Y2.819
X41.394Y2.826
X41.46Y2.834
X41.526Y2.842
X41.591Y2.85
X41.657Y2.859
X41.722Y2.869
X41.788Y2.878
X41.853Y2.889
X41.918Y2.899
X41.983Y2.911
X42.049Y2.922
X42.114Y2.934
X42.179Y2.947
X42.244Y2.96
X42.309Y2.973
X42.373Y2.987
X42.438Y3.002
X42.503Y3.017
X42.568Y3.032
X42.632Y3.048
X42.697Y3.064
X42.761Y3.08
X42.826Y3.097
X42.89Y3.115
X42.955Y3.133
X43.019Y3.151
X43.083Y3.17
X43.148Y3.189
X43.212Y3.208
X43.276Y3.228
X43.34Y3.249
X43.404Y3.27
X43.468Y3.291
X43.596Y3.335
X43.724Y3.38
X43.852Y3.427
X43.979Y3.476
X44.106Y3.526
X44.234Y3.578
X44.361Y3.632
X44.488Y3.687
X44.615Y3.744
X44.741Y3.802
X44.868Y3.862
X44.995Y3.923
X45.121Y3.986
X45.248Y4.05
X45.374Y4.116
X45.5Y4.183
X45.627Y4.252
X45.753Y4.322
X45.879Y4.394
X46.006Y4.467
X46.132Y4.541
X46.258Y4.617
X46.412Y4.711
Y1.904
X46.276Y1.816
X46.15Y1.735
X46.024Y1.656
X45.898Y1.58
X45.772Y1.504
X45.647Y1.431
X45.521Y1.36
X45.396Y1.29
X45.271Y1.222
X45.208Y1.189
X45.146Y1.156
X45.083Y1.124
X45.02Y1.092
X44.958Y1.061
X44.895Y1.03
X44.832Y0.999
X44.769Y0.969
X44.706Y0.939
X44.643Y0.91
X44.58Y0.881
X44.517Y0.853
X44.453Y0.825
X44.39Y0.797
X44.326Y0.77
X44.262Y0.744
X44.198Y0.717
X44.134Y0.692
X44.07Y0.666
X44.006Y0.641
X43.941Y0.617
X43.876Y0.593
X43.811Y0.569
X43.746Y0.546
X43.681Y0.523
X43.615Y0.501
X43.55Y0.479
X43.484Y0.457
X43.417Y0.436
X43.351Y0.416
X43.284Y0.395
X43.217Y0.376
X43.15Y0.356
X43.082Y0.337
X43.014Y0.319
X42.946Y0.3
X42.877Y0.283
X42.809Y0.265
X42.739Y0.248
X42.67Y0.232
X42.6Y0.216
X42.53Y0.2
X42.459Y0.185
X42.388Y0.17
X42.317Y0.156
X42.245Y0.142
X42.173Y0.128
X42.101Y0.115
X42.028Y0.102
X41.955Y0.09
X41.881Y0.078
X41.807Y0.066
X41.732Y0.055
X41.657Y0.044
X41.581Y0.034
X41.505Y0.024
X41.429Y0.014
X41.352Y0.005
X41.275Y-0.002
X41.197Y-0.011
X41.118Y-0.019
X41.039Y-0.026
X40.96Y-0.033
X40.879Y-0.04
X40.799Y-0.046
X40.718Y-0.052
X40.636Y-0.057
X40.554Y-0.062
X40.471Y-0.067
X40.387Y-0.071
X40.303Y-0.075
X40.219Y-0.079
X40.134Y-0.082
X40.048Y-0.084
X39.961Y-0.087
X39.874Y-0.088
X39.787Y-0.09
X39.698Y-0.091
X39.609
X39.52Y-0.092
X39.357Y-0.09
X39.195Y-0.086
X39.036Y-0.08
X38.877Y-0.07
X38.721Y-0.059
X38.565Y-0.044
X38.412Y-0.027
X38.26Y-0.008
X38.109Y0.013
X37.96Y0.037
X37.812Y0.064
X37.667Y0.093
X37.522Y0.125
X37.379Y0.159
X37.238Y0.195
X37.098Y0.233
X36.96Y0.274
X36.823Y0.317
X36.688Y0.362
X36.554Y0.409
X36.422Y0.459
X36.291Y0.511
X36.162Y0.564
X36.035Y0.62
X35.909Y0.678
X35.784Y0.738
X35.661Y0.8
X35.54Y0.864
X35.42Y0.93
X35.302Y0.998
X35.185Y1.068
X35.07Y1.14
X34.956Y1.213
X34.844Y1.289
X34.734Y1.366
X34.625Y1.446
X34.518Y1.526
X34.412Y1.609
X34.308Y1.694
X34.205Y1.78
X34.104Y1.868
X34.004Y1.957
X33.906Y2.049
X33.81Y2.141
X33.715Y2.236
X33.622Y2.332
X33.53Y2.429
X33.44Y2.529
X33.352Y2.629
X33.265Y2.731
X33.18Y2.835
X33.096Y2.94
X33.014Y3.046
X32.934Y3.154
X32.855Y3.264
X32.778Y3.374
X32.703Y3.486
X32.629Y3.599
X32.557Y3.714
X32.486Y3.829
X32.417Y3.946
G0Z10
X34.362Y10.543
G1Z-1F500
X34.381Y10.538F1000
X34.4Y10.534
X34.42Y10.532
X34.44
X43.486
X43.506Y10.533
X43.525Y10.535
X43.545Y10.54
X43.564Y10.545
X43.582Y10.552
X43.6Y10.56
X43.617Y10.57
X43.634Y10.58
X43.65Y10.592
X43.664Y10.605
X43.678Y10.62
X43.691Y10.635
X43.702Y10.651
X43.713Y10.667
X43.722Y10.685
X43.73Y10.703
X43.736Y10.722
X43.741Y10.741
X43.745Y10.76
X43.747Y10.78
Y10.8
Y10.813
X43.743Y10.897
X43.738Y10.981
X43.732Y11.064
X43.725Y11.146
X43.717Y11.228
X43.709Y11.31
X43.699Y11.39
X43.689Y11.47
X43.677Y11.55
X43.665Y11.629
X43.652Y11.707
X43.638Y11.785
X43.623Y11.862
X43.608Y11.938
X43.591Y12.014
X43.574Y12.089
X43.555Y12.164
X43.536Y12.238
X43.516Y12.311
X43.495Y12.383
X43.473Y12.455
X43.451Y12.526
X43.427Y12.597
X43.403Y12.667
X43.377Y12.736
X43.351Y12.805
X43.324Y12.872
X43.297Y12.939
X43.268Y13.006
X43.238Y13.071
X43.208Y13.136
X43.177Y13.201
X43.145Y13.264
X43.112Y13.327
X43.078Y13.389
X43.044Y13.45
X43.008Y13.51
X42.972Y13.57
X42.935Y13.629
X42.897Y13.687
X42.859Y13.745
X42.819Y13.801
X42.779Y13.857
X42.738Y13.912
X42.696Y13.966
X42.653Y14.019
X42.609Y14.072
X42.565Y14.123
X42.52Y14.174
X42.474Y14.224
X42.427Y14.273
X42.379Y14.322
X42.331Y14.369
X42.282Y14.415
X42.232Y14.461
X42.181Y14.506
X42.13Y14.549
X42.078Y14.592
X42.025Y14.634
X41.971Y14.675
X41.917Y14.716
X41.862Y14.755
X41.806Y14.793
X41.749Y14.83
X41.692Y14.867
X41.634Y14.902
X41.575Y14.937
X41.516Y14.97
X41.456Y15.003
X41.395Y15.034
X41.333Y15.065
X41.271Y15.095
X41.208Y15.123
X41.145Y15.151
X41.081Y15.177
X41.016Y15.203
X40.95Y15.228
X40.884Y15.251
X40.817Y15.274
X40.75Y15.295
X40.682Y15.316
X40.613Y15.335
X40.544Y15.354
X40.474Y15.371
X40.404Y15.388
X40.333Y15.403
X40.261Y15.417
X40.189Y15.431
X40.116Y15.443
X40.043Y15.454
X39.969Y15.464
X39.894Y15.473
X39.819Y15.481
X39.743Y15.488
X39.667Y15.494
X39.59Y15.499
X39.513Y15.503
X39.435Y15.505
X39.357Y15.507
X39.278
X39.193
X39.11Y15.505
X39.026Y15.503
X38.944Y15.499
X38.862Y15.495
X38.78Y15.489
X38.699Y15.483
X38.619Y15.475
X38.54Y15.467
X38.461Y15.457
X38.382Y15.447
X38.305Y15.436
X38.227Y15.423
X38.151Y15.41
X38.075Y15.395
X38Y15.38
X37.925Y15.363
X37.851Y15.346
X37.778Y15.328
X37.705Y15.308
X37.633Y15.288
X37.562Y15.267
X37.491Y15.244
X37.421Y15.221
X37.351Y15.197
X37.282Y15.171
X37.214Y15.145
X37.147Y15.118
X37.08Y15.09
X37.014Y15.061
X36.948Y15.031
X36.883Y15
X36.819Y14.968
X36.755Y14.935
X36.693Y14.901
X36.631Y14.866
X36.569Y14.83
X36.508Y14.793
X36.448Y14.755
X36.389Y14.717
X36.33Y14.677
X36.273Y14.636
X36.215Y14.595
X36.159Y14.553
X36.103Y14.509
X36.048Y14.465
X35.994Y14.42
X35.94Y14.374
X35.887Y14.327
X35.835Y14.279
X35.784Y14.23
X35.733Y14.181
X35.683Y14.13
X35.634Y14.079
X35.586Y14.027
X35.538Y13.973
X35.491Y13.919
X35.445Y13.865
X35.399Y13.809
X35.355Y13.752
X35.311Y13.695
X35.267Y13.637
X35.225Y13.578
X35.183Y13.518
X35.142Y13.457
X35.102Y13.396
X35.062Y13.333
X35.024Y13.27
X34.986Y13.206
X34.948Y13.141
X34.912Y13.076
X34.876Y13.01
X34.841Y12.942
X34.807Y12.874
X34.773Y12.806
X34.741Y12.736
X34.709Y12.666
X34.677Y12.595
X34.647Y12.523
X34.617Y12.451
X34.588Y12.377
X34.56Y12.303
X34.532Y12.228
X34.505Y12.153
X34.479Y12.076
X34.454Y11.999
X34.429Y11.922
X34.405Y11.843
X34.382Y11.764
X34.359Y11.684
X34.338Y11.603
X34.317Y11.521
X34.297Y11.439
X34.277Y11.356
X34.258Y11.272
X34.24Y11.188
X34.223Y11.103
X34.206Y11.017
X34.19Y10.93
X34.174Y10.839
X34.172Y10.819
Y10.8
Y10.78
X34.174Y10.76
X34.178Y10.741
X34.183Y10.722
X34.189Y10.703
X34.197Y10.685
X34.206Y10.667
X34.217Y10.651
X34.228Y10.635
X34.241Y10.62
X34.255Y10.605
X34.269Y10.592
X34.285Y10.58
X34.302Y10.57
X34.319Y10.56
X34.337Y10.552
X34.355Y10.545
X34.362Y10.543
G0Z10
X46.73Y8.709
G1Z-0.925F500
X46.9Y8.538Z-0.368F1000
G0Z10
X46.412Y4.694
G1Z-0.985F500
X46.416Y4.7Z-0.983F1000
X46.419Y4.709Z-0.973
X46.454Y4.792Z-0.829
X46.499Y4.861Z-0.674
X46.536Y4.9Z-0.536
X46.541Y4.933Z-0.516
X46.576Y5.016Z-0.364
X46.629Y5.072Z-0.187
G0Z10
X46.412Y1.909
G1Z-0.892F500
X46.455Y1.889Z-0.838F1000
X46.566Y1.86Z-0.421
G0Z10
X51.02Y0.1
G1Z-0.373F500
X51.187Y0.267Z-0.899
Z-1
Y27.012F1000
X54.212
Y0.267
X51.187
G0Z10
X54.212
G1Z-0.899F500
X54.38Y0.1Z-0.373F1000
G0Z10
X59.78
G1Z-0.373F500
X59.947Y0.267Z-0.899
Z-1
Y27.012F1000
X62.972
Y0.267
X59.947
G0Z10
X62.972
G1Z-0.899F500
X63.139Y0.1Z-0.373F1000
G0Z10
X69.01Y3.927
G1Z-1F500
X68.935Y4.046F1000
X68.862Y4.166
X68.791Y4.287
X68.721Y4.41
X68.654Y4.535
X68.588Y4.66
X68.524Y4.787
X68.462Y4.916
X68.402Y5.045
X68.344Y5.176
X68.288Y5.309
X68.234Y5.442
X68.181Y5.577
X68.131Y5.713
X68.082Y5.851
X68.036Y5.989
X67.992Y6.129
X67.949Y6.27
X67.909Y6.412
X67.87Y6.555
X67.834Y6.7
X67.8Y6.846
X67.768Y6.992
X67.738Y7.14
X67.71Y7.289
X67.685Y7.44
X67.661Y7.591
X67.64Y7.743
X67.62Y7.896
X67.603Y8.051
X67.589Y8.206
X67.576Y8.363
X67.566Y8.52
X67.558Y8.678
X67.552Y8.838
X67.549Y8.998
X67.547Y9.159
X67.549Y9.31
X67.552Y9.459
X67.558Y9.608
X67.566Y9.756
X67.577Y9.903
X67.59Y10.049
X67.605Y10.195
X67.623Y10.34
X67.643Y10.484
X67.665Y10.627
X67.689Y10.769
X67.715Y10.911
X67.744Y11.051
X67.775Y11.191
X67.808Y11.329
X67.843Y11.467
X67.88Y11.604
X67.92Y11.74
X67.961Y11.875
X68.005Y12.009
X68.051Y12.141
X68.098Y12.273
X68.148Y12.404
X68.2Y12.534
X68.253Y12.662
X68.309Y12.79
X68.367Y12.916
X68.426Y13.042
X68.488Y13.166
X68.551Y13.289
X68.617Y13.411
X68.684Y13.531
X68.753Y13.651
X68.824Y13.769
X68.897Y13.886
X68.971Y14.002
X69.047Y14.116
X69.126Y14.23
X69.205Y14.342
X69.287Y14.452
X69.37Y14.561
X69.456Y14.669
X69.542Y14.776
X69.631Y14.881
X69.721Y14.985
X69.813Y15.087
X69.906Y15.188
X70.001Y15.287
X70.098Y15.385
X70.196Y15.482
X70.296Y15.577
X70.397Y15.67
X70.5Y15.762
X70.604Y15.853
X70.71Y15.942
X70.817Y16.029
X70.926Y16.115
X71.036Y16.199
X71.148Y16.281
X71.261Y16.362
X71.376Y16.441
X71.491Y16.519
X71.609Y16.594
X71.727Y16.668
X71.847Y16.741
X71.969Y16.811
X72.091Y16.88
X72.215Y16.947
X72.34Y17.012
X72.466Y17.076
X72.594Y17.137
X72.723Y17.197
X72.853Y17.255
X72.984Y17.311
X73.116Y17.365
X73.25Y17.417
X73.385Y17.467
X73.52Y17.516
X73.657Y17.562
X73.795Y17.607
X73.934Y17.649
X74.075Y17.689
X74.216Y17.728
X74.358Y17.764
X74.501Y17.798
X74.645Y17.83
X74.791Y17.86
X74.937Y17.888
X75.084Y17.914
X75.232Y17.937
X75.381Y17.959
X75.531Y17.978
X75.681Y17.995
X75.833Y18.01
X75.985Y18.023
X76.138Y18.033
X76.293Y18.041
X76.447Y18.047
X76.603Y18.05
X76.76Y18.052
X76.925Y18.05
X77.089Y18.047
X77.252Y18.041
X77.414Y18.034
X77.575Y18.024
X77.735Y18.012
X77.894Y17.997
X78.052Y17.981
X78.209Y17.962
X78.365Y17.941
X78.52Y17.918
X78.673Y17.894
X78.826Y17.866
X78.977Y17.837
X79.127Y17.806
X79.276Y17.773
X79.424Y17.738
X79.571Y17.701
X79.716Y17.662
X79.861Y17.62
X80.004Y17.577
X80.145Y17.532
X80.286Y17.485
X80.425Y17.436
X80.563Y17.386
X80.7Y17.333
X80.835Y17.278
X80.969Y17.222
X81.102Y17.164
X81.233Y17.104
X81.363Y17.042
X81.491Y16.978
X81.618Y16.913
X81.744Y16.845
X81.868Y16.776
X81.991Y16.706
X82.112Y16.633
X82.232Y16.559
X82.351Y16.483
X82.467Y16.405
X82.583Y16.326
X82.697Y16.245
X82.809Y16.162
X82.92Y16.078
X83.029Y15.992
X83.136Y15.905
X83.242Y15.816
X83.347Y15.725
X83.45Y15.633
X83.551Y15.539
X83.65Y15.444
X83.748Y15.347
X83.844Y15.249
X83.939Y15.149
X84.031Y15.048
X84.122Y14.945
X84.212Y14.841
X84.299Y14.735
X84.385Y14.628
X84.469Y14.52
X84.551Y14.41
X84.632Y14.299
X84.71Y14.186
X84.787Y14.072
X84.862Y13.956
X84.935Y13.84
X85.007Y13.721
X85.076Y13.602
X85.143Y13.481
X85.209Y13.359
X85.272Y13.236
X85.334Y13.112
X85.394Y12.986
X85.452Y12.859
X85.507Y12.73
X85.561Y12.601
X85.613Y12.47
X85.662Y12.338
X85.71Y12.205
X85.756Y12.071
X85.799Y11.936
X85.841Y11.799
X85.88Y11.661
X85.917Y11.523
X85.952Y11.383
X85.985Y11.242
X86.016Y11.1
X86.044Y10.956
X86.071Y10.812
X86.095Y10.667
X86.117Y10.521
X86.137Y10.373
X86.154Y10.225
X86.169Y10.076
X86.182Y9.925
X86.193Y9.774
X86.201Y9.622
X86.207Y9.469
X86.21Y9.315
X86.212Y9.159
X86.21Y8.993
X86.207Y8.828
X86.201Y8.665
X86.193Y8.502
X86.183Y8.341
X86.17Y8.18
X86.155Y8.021
X86.138Y7.863
X86.119Y7.707
X86.098Y7.551
X86.074Y7.397
X86.048Y7.244
X86.02Y7.093
X85.99Y6.942
X85.958Y6.793
X85.924Y6.645
X85.887Y6.499
X85.849Y6.354
X85.808Y6.21
X85.766Y6.067
X85.721Y5.926
X85.674Y5.786
X85.625Y5.648
X85.575Y5.511
X85.522Y5.375
X85.467Y5.241
X85.41Y5.108
X85.352Y4.976
X85.291Y4.846
X85.229Y4.717
X85.164Y4.59
X85.098Y4.464
X85.03Y4.34
X84.959Y4.217
X84.888Y4.096
X84.814Y3.976
X84.738Y3.858
X84.661Y3.741
X84.581Y3.626
X84.5Y3.512
X84.417Y3.4
X84.333Y3.289
X84.246Y3.18
X84.158Y3.073
X84.068Y2.967
X83.976Y2.862
X83.883Y2.76
X83.788Y2.659
X83.691Y2.559
X83.592Y2.461
X83.492Y2.365
X83.39Y2.27
X83.287Y2.178
X83.182Y2.086
X83.075Y1.997
X82.966Y1.909
X82.856Y1.823
X82.745Y1.739
X82.632Y1.656
X82.517Y1.575
X82.4Y1.496
X82.282Y1.418
X82.163Y1.343
X82.042Y1.269
X81.92Y1.197
X81.795Y1.127
X81.67Y1.059
X81.543Y0.992
X81.414Y0.927
X81.285Y0.864
X81.153Y0.804
X81.02Y0.744
X80.886Y0.687
X80.75Y0.632
X80.613Y0.579
X80.475Y0.527
X80.335Y0.478
X80.193Y0.43
X80.051Y0.385
X79.907Y0.341
X79.761Y0.3
X79.615Y0.26
X79.467Y0.223
X79.317Y0.187
X79.167Y0.154
X79.015Y0.123
X78.862Y0.093
X78.707Y0.066
X78.551Y0.041
X78.394Y0.018
X78.236Y-0.002
X78.077Y-0.02
X77.916Y-0.037
X77.755Y-0.051
X77.592Y-0.064
X77.427Y-0.074
X77.262Y-0.081
X77.096Y-0.087
X76.928Y-0.09
X76.76Y-0.092
X76.598Y-0.09
X76.438Y-0.087
X76.279Y-0.081
X76.12Y-0.073
X75.963Y-0.063
X75.807Y-0.05
X75.652Y-0.035
X75.497Y-0.018
X75.344Y0
X75.192Y0.022
X75.041Y0.046
X74.891Y0.072
X74.743Y0.1
X74.595Y0.13
X74.449Y0.162
X74.303Y0.197
X74.159Y0.233
X74.016Y0.272
X73.874Y0.313
X73.734Y0.355
X73.594Y0.4
X73.456Y0.447
X73.319Y0.496
X73.184Y0.547
X73.049Y0.599
X72.916Y0.654
X72.785Y0.711
X72.654Y0.769
X72.525Y0.83
X72.397Y0.892
X72.27Y0.957
X72.145Y1.023
X72.022Y1.091
X71.899Y1.161
X71.778Y1.233
X71.659Y1.306
X71.54Y1.381
X71.424Y1.459
X71.308Y1.537
X71.195Y1.618
X71.082Y1.701
X70.971Y1.785
X70.862Y1.871
X70.754Y1.958
X70.648Y2.047
X70.543Y2.138
X70.44Y2.231
X70.338Y2.325
X70.238Y2.421
X70.14Y2.518
X70.043Y2.618
X69.947Y2.718
X69.854Y2.82
X69.762Y2.924
X69.671Y3.03
X69.583Y3.137
X69.496Y3.245
X69.41Y3.355
X69.327Y3.466
X69.245Y3.579
X69.165Y3.694
X69.086Y3.81
X69.01Y3.927
G0Z10
X71.592Y5.396
G1Z-1F500
X71.644Y5.309F1000
X71.695Y5.226
X71.747Y5.145
X71.801Y5.064
X71.855Y4.985
X71.911Y4.907
X71.968Y4.83
X72.026Y4.754
X72.086Y4.679
X72.146Y4.605
X72.208Y4.533
X72.27Y4.461
X72.334Y4.391
X72.399Y4.322
X72.465Y4.254
X72.532Y4.188
X72.6Y4.122
X72.669Y4.058
X72.739Y3.995
X72.811Y3.933
X72.883Y3.873
X72.956Y3.814
X73.031Y3.756
X73.106Y3.699
X73.182Y3.644
X73.26Y3.59
X73.338Y3.537
X73.417Y3.485
X73.497Y3.435
X73.578Y3.386
X73.661Y3.339
X73.744Y3.293
X73.827Y3.248
X73.912Y3.205
X73.998Y3.162
X74.085Y3.122
X74.172Y3.083
X74.26Y3.045
X74.35Y3.008
X74.44Y2.973
X74.531Y2.939
X74.622Y2.907
X74.715Y2.876
X74.808Y2.847
X74.902Y2.819
X74.997Y2.793
X75.093Y2.768
X75.189Y2.744
X75.287Y2.722
X75.384Y2.701
X75.483Y2.682
X75.583Y2.665
X75.683Y2.649
X75.784Y2.634
X75.885Y2.621
X75.987Y2.609
X76.09Y2.599
X76.194Y2.591
X76.298Y2.584
X76.403Y2.579
X76.508Y2.575
X76.615Y2.572
X76.721
X76.837
X76.952Y2.575
X77.066Y2.578
X77.18Y2.583
X77.292Y2.59
X77.404Y2.598
X77.515Y2.608
X77.625Y2.619
X77.734Y2.631
X77.842Y2.645
X77.95Y2.661
X78.057Y2.678
X78.162Y2.696
X78.267Y2.715
X78.371Y2.737
X78.474Y2.759
X78.576Y2.783
X78.677Y2.809
X78.778Y2.835
X78.877Y2.864
X78.975Y2.893
X79.073Y2.924
X79.169Y2.957
X79.265Y2.99
X79.359Y3.026
X79.453Y3.062
X79.546Y3.1
X79.637Y3.139
X79.728Y3.18
X79.817Y3.222
X79.906Y3.265
X79.993Y3.31
X80.08Y3.356
X80.165Y3.404
X80.25Y3.452
X80.333Y3.502
X80.415Y3.554
X80.497Y3.606
X80.577Y3.661
X80.656Y3.716
X80.733Y3.772
X80.81Y3.83
X80.886Y3.89
X80.96Y3.95
X81.034Y4.012
X81.106Y4.075
X81.177Y4.139
X81.247Y4.204
X81.315Y4.271
X81.383Y4.339
X81.449Y4.408
X81.514Y4.478
X81.578Y4.55
X81.641Y4.623
X81.702Y4.697
X81.762Y4.772
X81.821Y4.848
X81.879Y4.926
X81.936Y5.004
X81.991Y5.084
X82.045Y5.165
X82.098Y5.247
X82.149Y5.33
X82.199Y5.414
X82.248Y5.5
X82.296Y5.586
X82.342Y5.674
X82.387Y5.762
X82.431Y5.852
X82.473Y5.943
X82.514Y6.034
X82.554Y6.127
X82.592Y6.221
X82.629Y6.316
X82.665Y6.412
X82.699Y6.509
X82.732Y6.607
X82.763Y6.706
X82.794Y6.806
X82.823Y6.906
X82.85Y7.008
X82.876Y7.111
X82.901Y7.215
X82.925Y7.32
X82.947Y7.426
X82.967Y7.532
X82.986Y7.64
X83.004Y7.748
X83.021Y7.858
X83.036Y7.968
X83.049Y8.08
X83.061Y8.192
X83.072Y8.305
X83.082Y8.419
X83.089Y8.534
X83.096Y8.649
X83.101Y8.766
X83.105Y8.884
X83.107Y9.002
Y9.121
Y9.23
X83.104Y9.337
X83.1Y9.444
X83.095Y9.55
X83.088Y9.656
X83.079Y9.761
X83.069Y9.866
X83.057Y9.97
X83.044Y10.073
X83.029Y10.175
X83.013Y10.277
X82.995Y10.379
X82.975Y10.479
X82.955Y10.579
X82.933Y10.678
X82.909Y10.777
X82.884Y10.874
X82.857Y10.971
X82.829Y11.067
X82.8Y11.163
X82.769Y11.257
X82.736Y11.351
X82.703Y11.444
X82.668Y11.537
X82.631Y11.628
X82.593Y11.719
X82.554Y11.809
X82.514Y11.898
X82.472Y11.986
X82.429Y12.073
X82.384Y12.159
X82.338Y12.245
X82.291Y12.329
X82.243Y12.413
X82.193Y12.496
X82.142Y12.577
X82.09Y12.658
X82.036Y12.738
X81.982Y12.817
X81.926Y12.895
X81.868Y12.972
X81.81Y13.047
X81.75Y13.122
X81.69Y13.196
X81.628Y13.269
X81.565Y13.341
X81.5Y13.412
X81.435Y13.481
X81.368Y13.55
X81.301Y13.617
X81.232Y13.684
X81.162Y13.749
X81.091Y13.813
X81.019Y13.876
X80.946Y13.938
X80.871Y13.999
X80.796Y14.058
X80.72Y14.117
X80.642Y14.174
X80.564Y14.23
X80.485Y14.285
X80.404Y14.339
X80.323Y14.391
X80.241Y14.442
X80.157Y14.492
X80.073Y14.541
X79.988Y14.588
X79.902Y14.635
X79.815Y14.679
X79.727Y14.723
X79.638Y14.765
X79.548Y14.806
X79.457Y14.846
X79.366Y14.885
X79.274Y14.922
X79.18Y14.957
X79.086Y14.992
X78.991Y15.025
X78.896Y15.056
X78.799Y15.086
X78.702Y15.115
X78.604Y15.143
X78.505Y15.169
X78.406Y15.193
X78.305Y15.217
X78.204Y15.238
X78.102Y15.259
X78Y15.278
X77.897Y15.295
X77.793Y15.311
X77.688Y15.325
X77.583Y15.338
X77.477Y15.35
X77.37Y15.36
X77.263Y15.368
X77.155Y15.375
X77.047Y15.381
X76.938Y15.384
X76.828Y15.387
X76.717
X76.613
X76.509Y15.384
X76.405Y15.38
X76.303Y15.375
X76.2Y15.368
X76.099Y15.359
X75.997Y15.349
X75.897Y15.338
X75.797Y15.325
X75.698Y15.31
X75.599Y15.294
X75.501Y15.276
X75.404Y15.257
X75.307Y15.237
X75.211Y15.215
X75.116Y15.192
X75.021Y15.167
X74.927Y15.141
X74.834Y15.113
X74.742Y15.084
X74.65Y15.054
X74.559Y15.022
X74.469Y14.989
X74.38Y14.955
X74.291Y14.919
X74.204Y14.882
X74.117Y14.843
X74.031Y14.803
X73.945Y14.762
X73.861Y14.72
X73.777Y14.676
X73.695Y14.631
X73.613Y14.585
X73.532Y14.537
X73.452Y14.489
X73.373Y14.439
X73.294Y14.387
X73.217Y14.335
X73.141Y14.281
X73.065Y14.226
X72.991Y14.17
X72.917Y14.113
X72.845Y14.055
X72.773Y13.995
X72.703Y13.935
X72.633Y13.873
X72.565Y13.81
X72.498Y13.746
X72.431Y13.681
X72.366Y13.615
X72.302Y13.547
X72.238Y13.479
X72.176Y13.41
X72.115Y13.339
X72.055Y13.268
X71.996Y13.195
X71.939Y13.122
X71.882Y13.047
X71.827Y12.972
X71.773Y12.895
X71.719Y12.818
X71.667Y12.739
X71.617Y12.66
X71.567Y12.58
X71.519Y12.498
X71.472Y12.416
X71.426Y12.333
X71.381Y12.249
X71.337Y12.164
X71.295Y12.079
X71.254Y11.992
X71.214Y11.905
X71.176Y11.816
X71.139Y11.727
X71.103Y11.638
X71.068Y11.547
X71.035Y11.455
X71.003Y11.363
X70.972Y11.27
X70.943Y11.176
X70.915Y11.082
X70.889Y10.987
X70.863Y10.891
X70.84Y10.794
X70.817Y10.696
X70.796Y10.598
X70.776Y10.499
X70.758Y10.4
X70.741Y10.3
X70.726Y10.199
X70.712Y10.098
X70.699Y9.996
X70.688Y9.893
X70.678Y9.79
X70.67Y9.686
X70.663Y9.581
X70.658Y9.476
X70.655Y9.37
X70.652Y9.264
Y9.158
Y9.041
X70.654Y8.925
X70.658Y8.809
X70.663Y8.694
X70.67Y8.581
X70.678Y8.467
X70.687Y8.355
X70.698Y8.243
X70.71Y8.133
X70.724Y8.023
X70.739Y7.914
X70.755Y7.805
X70.773Y7.698
X70.792Y7.591
X70.812Y7.486
X70.834Y7.381
X70.857Y7.277
X70.882Y7.174
X70.907Y7.071
X70.935Y6.97
X70.963Y6.869
X70.993Y6.77
X71.024Y6.671
X71.057Y6.574
X71.09Y6.477
X71.125Y6.381
X71.162Y6.286
X71.199Y6.192
X71.238Y6.1
X71.278Y6.008
X71.32Y5.917
X71.362Y5.827
X71.406Y5.738
X71.451Y5.65
X71.497Y5.563
X71.545Y5.477
X71.592Y5.396
G0Z10
X62.972Y27.012
G1Z-0.899F500
X63.139Y27.18Z-0.373F1000
G0Z10
X59.78
G1Z-0.373F500
X59.947Y27.012Z-0.899
G0Z10
X54.212
G1Z-0.899
X54.38Y27.18Z-0.373F1000
G0Z10
X51.02
G1Z-0.373F500
X51.187Y27.012Z-0.899
G0Z10
X25.852
G1Z-0.899
X26.02Y27.18Z-0.373F1000
G0Z10
X22.299
G1Z-0.373F500
X22.467Y27.012Z-0.899
G0Z10
X6.652
G1Z-0.899
X6.82Y27.18Z-0.373F1000
G0Z10
X3.1
G1Z-0.373F500
X3.267Y27.012Z-0.899
G0Z10
 
