(Created with grbl post processor 2025/04/16 21:12)
G21
(G-code Generated with Fabex and NC library)
G17G90
(Tool: D = 6.0 mm  type END flutes 2)
S12000M03
G00 Z10.0

G0X1Y1.999Z10
G1Z-5F500
Y1F1000
X-1
Y-1
X4
Y4
X-4
Y-4
X7
Y7
X-7
Y-7
X10
Y10
X-10
Y-10
X13
Y13
X-13Y12.999
X-12.999Y-13
X16
Y16
X-16Y15.999
X-15.999Y-16
X19
Y19
X-19Y18.999
X-18.999Y-19
X22
Y22
X-22
Y-22
X25
Y25
X-25Y24.999
X-24.999Y-25
X28
Y28
X-28Y27.999
X-27.999Y-28
X31
Y31
X-31Y30.999
X-30.999Y-31
X34
Y34
X-34Y33.999
X-33.999Y-34
X37
Y37
X-37
Y-37
X39.999
Y39.999
X-39.999
Y-39.999
X43
Y43
X-43Y42.999
X-42.999Y-43
X46
Y46
X-46
Y-46
X48.599
Z0
X49
Y-45.599
Z-5F500
Y45.599F1000
Z0
Y49
X45.599
Z-5F500
X-45.599F1000
Z0
X-49Y48.999
Y45.599
Z-5F500
Y-45.599F1000
Z0
X-48.999Y-49
X-45.599
Z-5F500
X45.599F1000
Z0
X52
Y-42.199
Z-5F500
Y42.199F1000
Z0
Y52
X42.199
Z-5F500
X-42.199F1000
Z0
X-52Y51.999
Y42.199
Z-5F500
Y-42.199F1000
Z0
X-51.999Y-52
X-42.199
Z-5F500
X42.199F1000
Z0
X55
Y-38.199
Z-5F500
Y38.199F1000
Z0
Y55
X38.199
Z-5F500
X-38.199F1000
Z0
X-55
Y38.199
Z-5F500
Y-38.199F1000
Z0
Y-55
X-38.199
Z-5F500
X38.199F1000
Z0
X58
Y-33.399
Z-5F500
Y33.399F1000
Z0
Y58
X33.399
Z-5F500
X-33.399F1000
Z0
X-58Y57.999
Y33.399
Z-5F500
Y-33.399F1000
Z0
X-57.999Y-58
X-33.399
Z-5F500
X33.399F1000
Z0
X61
Y-27.6
Z-5F500
Y27.6F1000
Z0
Y61
X27.6
Z-5F500
X-27.6F1000
Z0
X-61Y60.999
Y27.6
Z-5F500
Y-27.6F1000
Z0
X-60.999Y-61
X-27.6
Z-5F500
X27.6F1000
Z0
X64
Y-19.6
Z-5F500
Y19.6F1000
Z0
Y64
X19.6
Z-5F500
X-19.6F1000
Z0
X-64Y63.999
Y19.6
Z-5F500
Y-19.6F1000
Z0
X-63.999Y-64
X-19.6
Z-5F500
X19.6F1000
Z0
X67
Y67
X-67
Y-67
X70
Y70
X-70
Y-70
X72.999
Y72.999
X-72.999
Y-72.999
X76
Y76
X-76Y75.999
X-75.999Y-76
X79
Y79
X-79Y78.999
X-78.999Y-79
X82
Y82
X-82Y81.999
X-81.999Y-82
X85
Y85
X-85
Y-85
X88
Y88
X-88
Y-88
X90.999
Y90.999
X-90.999
Y-90.999
X94
Y94
X-94Y93.999
X-93.999Y-94
X96.999
G0Z10
X1Y1.999
G1Z-6.912F500
Y1F1000
X-1
Y-1
X4
Y4
X-4
Y-4
X7
Y7
X-7
Y-7
X10
Y10
X-10
Y-10
X13
Y13
X-13Y12.999
X-12.999Y-13
X16
Y16
X-16Y15.999
X-15.999Y-16
X19
Y19
X-19Y18.999
X-18.999Y-19
X22
Y22
X-22
Y-22
X25
Y25
X-25Y24.999
X-24.999Y-25
X28
Y28
X-28Y27.999
X-27.999Y-28
X31
Y31
X-31Y30.999
X-30.999Y-31
X34
Y34
X-34Y33.999
X-33.999Y-34
X37
Y37
X-37
Y-37
X39.999
Y39.999
X-39.999
Y-39.999
X43
Y43
X-43Y42.999
X-42.999Y-43
X46
Y46
X-46
Y-46
X48.599
Z-5
G0X49Y-45.599Z10
G1Z-5F500
Y45.599Z-6.912F1000
Z-5
G0X45.599Y49Z10
G1Z-5F500
X-45.599Z-6.912F1000
Z-5
G0X-49Y45.599Z10
G1Z-5F500
Y-45.599Z-6.912F1000
Z-5
G0X-45.599Y-49Z10
G1Z-5F500
X45.599Z-6.912F1000
Z-5
G0X52Y-42.199Z10
G1Z-5F500
Y42.199Z-6.912F1000
Z-5
G0X42.199Y52Z10
G1Z-5F500
X-42.199Z-6.912F1000
Z-5
G0X-52Y42.199Z10
G1Z-5F500
Y-42.199Z-6.912F1000
Z-5
G0X-42.199Y-52Z10
G1Z-5F500
X42.199Z-6.912F1000
Z-5
G0X55Y-38.199Z10
G1Z-5F500
Y38.199Z-6.912F1000
Z-5
G0X38.199Y55Z10
G1Z-5F500
X-38.199Z-6.912F1000
Z-5
G0X-55Y38.199Z10
G1Z-5F500
Y-38.199Z-6.912F1000
Z-5
G0X-38.199Y-55Z10
G1Z-5F500
X38.199Z-6.912F1000
Z-5
G0X58Y-33.399Z10
G1Z-5F500
Y33.399Z-6.912F1000
Z-5
G0X33.399Y58Z10
G1Z-5F500
X-33.399Z-6.912F1000
Z-5
G0X-58Y33.399Z10
G1Z-5F500
Y-33.399Z-6.912F1000
Z-5
G0X-33.399Y-58Z10
G1Z-5F500
X33.399Z-6.912F1000
Z-5
G0X61Y-27.6Z10
G1Z-5F500
Y27.6Z-6.912F1000
Z-5
G0X27.6Y61Z10
G1Z-5F500
X-27.6Z-6.912F1000
Z-5
G0X-61Y27.6Z10
G1Z-5F500
Y-27.6Z-6.912F1000
Z-5
G0X-27.6Y-61Z10
G1Z-5F500
X27.6Z-6.912F1000
Z-5
G0X64Y-19.6Z10
G1Z-5F500
Y19.6Z-6.912F1000
Z-5
G0X19.6Y64Z10
G1Z-5F500
X-19.6Z-6.912F1000
Z-5
G0X-64Y19.6Z10
G1Z-5F500
Y-19.6Z-6.912F1000
Z-5
G0X-19.6Y-64Z10
G1Z-5F500
X19.6Z-6.912F1000
Z-5
 
