(Created with grbl post processor 2025/04/18 10:36)
G21
(G-code Generated with Fabex and NC library)
G17G90
(Tool: D = 6.0 mm  type END flutes 2)
S12000M03
G00 Z10.0

G0X24.957Y1.083Z10
G1Z-1.943F500
Y1.916F1000
X-24.957
Y-1.916
X27.957
Y4.916
X-27.957
Y-4.916
X30.957
Y7.916
X-30.957
Y-7.916
X33.957
Y10.916
X-33.957
Y-10.916
X36.957
Y13.916
X-36.957
Y-13.916
X39.957
Y16.916
X-39.957
Y-16.916
X42.957
Y19.916
X-42.957
Y-19.916
X45.957
Y22.916
X-45.957
Y-22.916
X48.957
Y25.916
X-48.957
Y-25.916
X51.957
Y28.916
X-51.957
Y-28.916
X54.957
Y31.599
Y31.799Z-2.1F500
Y31.916Z-2.331
X54.6Z-1.943F1000
X-54.8
X-54.957Z-2.331F500
Y31.799Z-2.1F1000
Y31.599Z-1.943
Y-31.599
Y-31.799Z-2.1F500
Y-31.916Z-2.331
X-54.8Z-1.943F1000
X54.8
X55Z-2.463F500
X57.2Z-9.772
X57.334Z-10
X57.957F1000
Y-30.573
Y-30.399Z-9.806
Y-25.799Z-2.197
Y-25.599Z-1.943
Y25.599
Y25.799Z-2.197F500
Y30.399Z-9.806
Y30.573Z-10
Y34.916F1000
X55.459
X55.399Z-9.938
X52.999Z-2.475
X52.8Z-1.943
X-52.8
X-52.999Z-2.475F500
X-55.399Z-9.938
X-55.459Z-10
X-57.957F1000
Y30.573
Y30.399Z-9.806
Y25.799Z-2.197
Y25.599Z-1.943
Y-25.599
Y-25.799Z-2.197F500
Y-30.399Z-9.806
Y-30.573Z-10
Y-34.916F1000
X-55.459
X-55.399Z-9.938
X-52.999Z-2.475
X-52.8Z-1.943
X52.8
X52.999Z-2.475F500
X55.399Z-9.938
X55.459Z-10
X60.957F1000
Y-24.18
Y-24Z-9.847
Y-17.6Z-2.153
Y-17.4Z-1.943
Y17.4
Y17.6Z-2.153F500
Y24Z-9.847
Y24.18Z-10
Y37.916F1000
X53.448
X53.399Z-9.952
X50.999Z-2.489
X50.799Z-1.943
X-50.799
X-50.999Z-2.489F500
X-53.399Z-9.952
X-53.448Z-10
X-60.957F1000
Y24.18
Y24Z-9.847
Y17.6Z-2.153
Y17.4Z-1.943
Y-17.4
Y-17.6Z-2.153F500
Y-24Z-9.847
Y-24.18Z-10
Y-37.916F1000
X-53.448
X-53.399Z-9.952
X-50.999Z-2.489
X-50.799Z-1.943
X50.799
X50.999Z-2.489F500
X53.399Z-9.952
X53.448Z-10
X63.957F1000
Y-14.164
Y-14Z-9.932
Y-8.599Z-5.992
Y-8.4Z-5.876
Y-0.2Z-3.85
Y0Z-3.825
Y0.2Z-3.85
Y8.2Z-5.807
Y8.4Z-5.876
Y8.599Z-5.992F500
Y14Z-9.932
Y14.164Z-10F1000
Y40.916
X51.228
X51.199Z-9.977
X48.4Z-2.104
X48.2Z-1.943
X-48.2
X-48.4Z-2.104F500
X-51.199Z-9.977
X-51.228Z-10
X-63.957F1000
Y14.164
Y14Z-9.932
Y8.599Z-5.992
Y8.4Z-5.876
Y0.2Z-3.85
Y0Z-3.825
Y-0.2Z-3.85
Y-8.2Z-5.807
Y-8.4Z-5.876
Y-8.599Z-5.992F500
Y-14Z-9.932
Y-14.164Z-10F1000
Y-40.916
X-51.228
X-51.199Z-9.977
X-48.4Z-2.104
X-48.2Z-1.943
X48.2
X48.4Z-2.104F500
X51.199Z-9.977
X51.228Z-10
X66.957F1000
Y43.916
X48.595
X45.8Z-2.191
X45.599Z-1.943
X-45.599
X-45.8Z-2.191F500
X-48.4Z-9.502
X-48.599Z-10
X-66.957F1000
Y-43.916
X-48.595
X-45.8Z-2.191
X-45.599Z-1.943
X45.599
X45.8Z-2.191F500
X48.4Z-9.502
X48.599Z-10
X69.957F1000
Y46.916
X45.834
X45.8Z-9.975
X42.599Z-2.083
X42.399Z-1.943
X-42.399
X-42.599Z-2.083F500
X-45.8Z-9.975
X-45.834Z-10
X-69.957F1000
Y-46.916
X-45.834
X-45.8Z-9.975
X-42.599Z-2.083
X-42.399Z-1.943
X42.399
X42.599Z-2.083F500
X45.8Z-9.975
X45.834Z-10
X72.957F1000
Y49.916
X42.399
X39.2Z-2.135
X39Z-1.943
X-39
X-39.2Z-2.135F500
X-42.399Z-10
X-72.957F1000
Y-49.916
X-42.399
X-39.2Z-2.135
X-39Z-1.943
X39
X39.2Z-2.135F500
X42.399Z-10
X75.957F1000
Y52.916
X38.73
X38.599Z-9.869
X34.8Z-1.973
X34.6Z-1.943
X-34.6
X-34.8Z-1.973
X-38.599Z-9.869F500
X-38.73Z-10
X-75.957F1000
Y-52.916
X-38.73
X-38.599Z-9.869
X-34.8Z-1.973
X-34.6Z-1.943
X34.6
X34.8Z-1.973
X38.599Z-9.869F500
X38.73Z-10
X77.638F1000
X77.799Z-9.684
X78.957Z-6.084
Y-51.199Z-9.65F500
Y-50.999Z-10
Y51.006F1000
Y51.199Z-9.65
Y54.8Z-2.169
Y55Z-1.943
Y55.916
X78.4
X78.199Z-2.207F500
X75.8Z-9.67
X75.635Z-10
X34.195F1000
X33.999Z-9.64
X32.4Z-6.321
X29.8Z-1.965
X29.6Z-1.943
X-29.6
X-29.8Z-1.965
X-32.199Z-5.944F500
X-33.999Z-9.64
X-34.199Z-10
X-75.635F1000
X-75.8Z-9.67
X-78.199Z-2.207
X-78.4Z-1.943
X-78.957
Y55
Y54.8Z-2.169F500
Y51.199Z-9.65
Y50.999Z-10
Y-51.006F1000
Y-51.199Z-9.65
Y-54.8Z-2.169
Y-55Z-1.943
Y-55.916
X-78.4
X-78.199Z-2.207F500
X-75.8Z-9.67
X-75.635Z-10
X-34.195F1000
X-33.999Z-9.64
X-32.4Z-6.321
X-29.8Z-1.965
X-29.6Z-1.943
X29.6
X29.8Z-1.965
X32.199Z-5.944F500
X33.999Z-9.64
X34.199Z-10
X75.635F1000
X75.8Z-9.67
X78.199Z-2.207
X78.4Z-1.943
X81.957
Y-50.6
Y-50.4Z-1.983
Y-47.399Z-8.216F500
Y-46.399Z-9.905
Y-46.275Z-10
Y46.275F1000
Y46.399Z-9.905
Y47.199Z-8.582
Y47.399Z-8.216
Y50.4Z-1.983
Y50.6Z-1.943
Y58.916
X76.399
X76.2Z-2.02
X73.399Z-9.893F500
X73.304Z-10
X28.596F1000
X28.4Z-9.712
X24.599Z-3.426
X24.4Z-3.12
X23.599Z-2.135
X23.399Z-1.943
X-23.399
X-23.599Z-2.135F500
X-24.2Z-2.857
X-24.4Z-3.12
X-28.4Z-9.712
X-28.6Z-10
X-73.304F1000
X-73.399Z-9.893
X-76.2Z-2.02
X-76.399Z-1.943
X-81.957
Y50.6
Y50.4Z-1.983
Y47.399Z-8.216F500
Y46.399Z-9.905
Y46.275Z-10
Y-46.275F1000
Y-46.399Z-9.905
Y-47.199Z-8.582
Y-47.399Z-8.216
Y-50.4Z-1.983
Y-50.6Z-1.943
Y-58.916
X-76.399
X-76.2Z-2.02
X-73.399Z-9.893F500
X-73.304Z-10
X-28.596F1000
X-28.4Z-9.712
X-24.599Z-3.426
X-24.4Z-3.12
X-23.599Z-2.135
X-23.399Z-1.943
X23.399
X23.599Z-2.135F500
X24.2Z-2.857
X24.4Z-3.12
X28.4Z-9.712
X28.6Z-10
X73.304F1000
X73.399Z-9.893
X76.2Z-2.02
X76.399Z-1.943
X84.957
Y-45.199
Y-44.999Z-2.158F500
Y-40.399Z-9.767
Y-40.215Z-10
Y40.215F1000
Y40.399Z-9.767
Y44.999Z-2.158
Y45.199Z-1.943
Y61.916
X73.6
X70.799Z-9.806F500
X70.664Z-10
X21.367F1000
X21.199Z-9.875
X16.799Z-4.585
X16.6Z-4.367
X16.4Z-4.194
X13.4Z-2.005
X13.2Z-1.943
X-13.2
X-13.4Z-2.005
X-16.4Z-4.194F500
X-16.6Z-4.367
X-21.199Z-9.875
X-21.367Z-10
X-70.664F1000
X-70.799Z-9.806
X-73.6Z-1.943
X-84.957
Y45.199
Y44.999Z-2.158F500
Y40.399Z-9.767
Y40.215Z-10
Y-40.215F1000
Y-40.399Z-9.767
Y-44.999Z-2.158
Y-45.199Z-1.943
Y-61.916
X-73.6
X-70.799Z-9.806F500
X-70.664Z-10
X-21.367F1000
X-21.199Z-9.875
X-16.799Z-4.585
X-16.6Z-4.367
X-16.4Z-4.194
X-13.4Z-2.005
X-13.2Z-1.943
X13.2
X13.4Z-2.005
X16.4Z-4.194F500
X16.6Z-4.367
X21.199Z-9.875
X21.367Z-10
X70.664F1000
X70.799Z-9.806
X73.6Z-1.943
X87.957
Y-39.2
Y-39Z-2.02
Y-36.399Z-6.306F500
Y-33.399Z-9.912
Y-33.256Z-10
Y33.256F1000
Y33.399Z-9.912
Y36.399Z-6.306
Y39Z-2.02
Y39.2Z-1.943
Y64.916
X70.999
X70.799Z-2.408F500
X68.2Z-9.719
X68.039Z-10
X9.35F1000
X9.2Z-9.945
X8.599Z-9.52
X8.4Z-9.434
X0.2Z-7.427
X0Z-7.402
X-0.2Z-7.427
X-8.4Z-9.434
X-8.599Z-9.52
X-9.2Z-9.945F500
X-9.35Z-10F1000
X-68.039
X-68.2Z-9.719
X-70.799Z-2.408
X-70.999Z-1.943
X-87.957
Y39.2
Y39Z-2.02
Y36.399Z-6.306F500
Y33.399Z-9.912
Y33.256Z-10
Y-33.256F1000
Y-33.399Z-9.912
Y-36.399Z-6.306
Y-39Z-2.02
Y-39.2Z-1.943
Y-64.916
X-70.999
X-70.799Z-2.408F500
X-68.2Z-9.719
X-68.039Z-10
X-9.35F1000
X-9.2Z-9.945
X-8.599Z-9.52
X-8.4Z-9.434
X-0.2Z-7.427
X0Z-7.402
X0.2Z-7.427
X8.4Z-9.434
X8.599Z-9.52
X9.2Z-9.945F500
X9.35Z-10F1000
X68.039
X68.2Z-9.719
X70.799Z-2.408
X70.999Z-1.943
X90.957
Y-31.199
Y-24.599Z-9.867F500
Y-24.428Z-10
Y24.428F1000
Y24.599Z-9.867
Y31.199Z-1.943
Y67.916
X68.399
X68.2Z-2.321F500
X67.8Z-3.406
X65.2Z-9.817
X65.059Z-10
X-65.059F1000
X-65.2Z-9.817
X-67.8Z-3.406
X-68.2Z-2.321
X-68.399Z-1.943
X-90.957
Y31.199
Y24.599Z-9.867F500
Y24.428Z-10
Y-24.428F1000
Y-24.599Z-9.867
Y-31.199Z-1.943
Y-67.916
X-68.399
X-68.2Z-2.321F500
X-67.8Z-3.406
X-65.2Z-9.817
X-65.059Z-10
X65.059F1000
X65.2Z-9.817
X67.8Z-3.406
X68.2Z-2.321
X68.399Z-1.943
X93.957
Y-20.6
Y-20.399Z-2.035
Y-12.399Z-7.872F500
Y-3.8Z-9.99F1000
Y3.8
Y12.2Z-7.935
Y12.399Z-7.872
Y20.399Z-2.035
Y20.6Z-1.943
Y70.916
X64.999
X64.8Z-2.368F500
X61.799Z-9.766
X61.642Z-10
X-61.642F1000
X-61.799Z-9.766
X-64.8Z-2.368
X-64.999Z-1.943
X-93.957
Y20.6
Y20.399Z-2.035
Y12.399Z-7.872F500
Y3.8Z-9.99F1000
Y-3.8
Y-12.2Z-7.935
Y-12.399Z-7.872
Y-20.399Z-2.035
Y-20.6Z-1.943
Y-70.916
X-64.999
X-64.8Z-2.368F500
X-61.799Z-9.766
X-61.642Z-10
X61.642F1000
X61.799Z-9.766
X64.8Z-2.368
X64.999Z-1.943
X96.957
Y73.916
X61.6
X61.4Z-2.317F500
X58.399Z-9.715
X58.229Z-10
X-58.229F1000
X-58.399Z-9.715
X-61.4Z-2.317
X-61.6Z-1.943
X-96.957
Y-73.916
X-61.6
X-61.4Z-2.317F500
X-58.399Z-9.715
X-58.229Z-10
X58.229F1000
X58.399Z-9.715
X61.4Z-2.317
X61.6Z-1.943
X99.957
Y76.916
X57.999
X57.799Z-2.285F500
X54.199Z-9.765
X54.03Z-10
X-54.03F1000
X-54.199Z-9.765
X-57.799Z-2.285
X-57.999Z-1.943
X-99.957
Y-76.916
X-57.999
X-57.799Z-2.285F500
X-54.199Z-9.765
X-54.03Z-10
X54.03F1000
X54.199Z-9.765
X57.799Z-2.285
X57.999Z-1.943
X102.957
Y79.916
X53.599
X53.399Z-2.098F500
X49.585Z-10
X-49.599Z-9.991F1000
X-53.399Z-2.098
X-53.599Z-1.943
X-102.957
Y-79.916
X-53.599
X-53.399Z-2.098F500
X-49.585Z-10
X49.599Z-9.991F1000
X53.399Z-2.098
X53.599Z-1.943
X105.957
Y82.916
X48.999
X47.799Z-4.375F500
X44.384Z-10
X-44.399Z-9.993F1000
X-47.799Z-4.375
X-48.999Z-1.943
X-105.957
Y-82.916
X-48.999
X-47.799Z-4.375F500
X-44.384Z-10
X44.399Z-9.993F1000
X47.799Z-4.375
X48.999Z-1.943
X108.957
Y85.916
X43.199
X38.399Z-9.861F500
X38.248Z-10
X-38.248F1000
X-38.399Z-9.861
X-42.999Z-2.252
X-43.199Z-1.943
X-108.957
Y-85.916
X-43.199
X-38.399Z-9.861F500
X-38.248Z-10
X38.248F1000
X38.399Z-9.861
X42.999Z-2.252
X43.199Z-1.943
X111.957
Y88.916
X37.2
X37Z-2.114F500
X36.8Z-2.431
X30.599Z-9.885
X30.437Z-10
X-30.437F1000
X-30.599Z-9.885
X-36.8Z-2.431
X-37Z-2.114
X-37.2Z-1.943
X-111.957
Y-88.916
X-37.2
X-37Z-2.114F500
X-36.8Z-2.431
X-30.599Z-9.885
X-30.437Z-10
X30.437F1000
X30.599Z-9.884
X36.8Z-2.431
X37Z-2.114
X37.2Z-1.943
X114.957
Y91.916
X28.4
X28.199Z-2.145F500
X24.599Z-6.459
X19.8Z-9.962
X19.674Z-10F1000
X-19.674
X-19.8Z-9.962
X-24.599Z-6.459
X-28.199Z-2.145
X-28.4Z-1.943
X-114.957
Y-91.916
X-28.4
X-28.199Z-2.145F500
X-24.599Z-6.459
X-19.8Z-9.962
X-19.674Z-10F1000
X19.674
X19.8Z-9.962
X24.599Z-6.459
X28.199Z-2.145
X28.4Z-1.943
X117.957
Y94.916
X15.799
X15.6Z-2.022
X12.6Z-4.211F500
X12.399Z-4.31F1000
X0Z-7.343
X-12.399Z-4.31
X-12.6Z-4.211
X-15.6Z-2.022
X-15.799Z-1.943
X-117.957
Y-94.916
X-15.799
X-15.6Z-2.022
X-12.6Z-4.211F500
X-12.399Z-4.31F1000
X0Z-7.343
X12.399Z-4.31
X12.6Z-4.211
X15.6Z-2.022
X15.799Z-1.943
X120.957
Y97.916
X-120.957
Y-97.916
X123.957
Y100.916
X-123.957
Y-100.916
X126.957
Y103.916
X-126.957
Y-103.916
X129.957
Y106.916
X-129.957
Y-106.916
X132.957
Y109.916
X-132.957
Y-109.916
X135.957
Y112.916
X-135.957
Y-112.916
X138.799
G0Z10
X57.334Y-31.916
G1Z-10F500
X57.399Z-10.112
X57.957Z-10.613
Y-30.599Z-10.03F1000
Y-30.573Z-10
G0Z10
Y30.573
G1Z-10F500
Y30.599Z-10.03
Y33.399Z-11.274F1000
Y34.916Z-12.108
X55.599Z-10.143
X55.459Z-10
G0Z10
X-55.459
G1Z-10F500
X-55.599Z-10.143
X-57.957Z-12.108
Y33.399Z-11.274F1000
Y30.599Z-10.03
Y30.573Z-10
G0Z10
Y-30.573
G1Z-10F500
Y-30.599Z-10.03
Y-33.399Z-11.274F1000
Y-34.916Z-12.108
X-55.599Z-10.143
X-55.459Z-10
G0Z10
X55.459
G1Z-10F500
X55.599Z-10.143
X60.957Z-14.639
Y-25.2Z-10.342F1000
Y-24.18Z-10
G0Z10
Y24.18
G1Z-10F500
Y25.4Z-10.422F1000
Y35.2Z-14.772
Y37.916Z-16.278
X53.599Z-10.147
X53.448Z-10
G0Z10
X-53.448
G1Z-10F500
X-60.957Z-16.278
Y35.2Z-14.772F1000
Y25.2Z-10.342
Y24.18Z-10
G0Z10
Y-24.18
G1Z-10F500
Y-25.4Z-10.422F1000
Y-35.2Z-14.772
Y-37.916Z-16.278
X-53.599Z-10.147
X-53.448Z-10
G0Z10
X53.448
G1Z-10F500
X62.199Z-17.304
X63.957Z-17.697F1000
Y-34.8Z-17.284
Y-26.6Z-13.651
Y-17.199Z-10.611
Y-14.164Z-10
G0Z10
Y14.164
G1Z-10F500
Y17.199Z-10.611F1000
Y26.4Z-13.574
Y34.8Z-17.284
Y40.916Z-18.144
X60.199Z-17.305
X52.999Z-11.343
X51.228Z-10
G0Z10
X-51.228
G1Z-10F500
X-60.199Z-17.305
X-63.957Z-18.144F1000
Y34.8Z-17.284
Y26.6Z-13.651
Y17.199Z-10.611
Y14.164Z-10
G0Z10
Y-14.164
G1Z-10F500
Y-17.199Z-10.611F1000
Y-26.4Z-13.574
Y-34.8Z-17.284
Y-40.916Z-18.144
X-60.199Z-17.305
X-52.999Z-11.343
X-51.228Z-10
G0Z10
X51.228
G1Z-10F500
X60.199Z-17.305
X66.957Z-18.814F1000
Y-28.8Z-17.307
Y-27.6Z-16.806
Y-17.999Z-13.716
Y-8.8Z-11.914
Y0Z-11.338
Y8.8Z-11.914
Y17.999Z-13.716
Y27.799Z-16.881
Y28.6Z-17.232
Y28.8Z-17.307
Y43.199Z-19.155
Y43.399Z-19.161
Y43.916Z-19.084
X66.599Z-19.164
X58.199Z-17.306
X48.595Z-10
G0Z10
X-48.595
G1Z-10F500
X-57.399Z-16.655
X-58.199Z-17.306
X-66.399Z-19.137F1000
X-66.599Z-19.164
X-66.957Z-19.084
Y43.399Z-19.161
Y43.199Z-19.155
Y28.8Z-17.307
Y27.6Z-16.806
Y17.999Z-13.716
Y8.8Z-11.914
Y0Z-11.338
Y-8.8Z-11.914
Y-17.999Z-13.716
Y-27.799Z-16.881
Y-28.6Z-17.232
Y-28.8Z-17.307
Y-43.199Z-19.155
Y-43.399Z-19.161
Y-43.916Z-19.084
X-66.599Z-19.164
X-58.199Z-17.306
X-48.595Z-10
G0Z10
X48.595
G1Z-10F500
X57.399Z-16.655
X58.199Z-17.306
X66.399Z-19.137F1000
X66.599Z-19.164
X69.957Z-18.414
Y-38.599Z-19.153
Y-38.399Z-19.169
Y-20.399Z-17.31
Y-20.199Z-17.269
Y-18.8Z-16.821
Y-9.2Z-14.941
Y0Z-14.338
Y9.2Z-14.941
Y18.8Z-16.821
Y20.199Z-17.269
Y20.399Z-17.31
Y38.399Z-19.169
Y46.916Z-17.966
X64.599Z-19.163
X55.799Z-17.332
X55.599Z-17.267
X46.799Z-10.649
X45.834Z-10
G0Z10
X-45.834
G1Z-10F500
X-55.599Z-17.267
X-55.799Z-17.332F1000
X-64.399Z-19.138
X-64.599Z-19.163
X-69.957Z-17.966
Y38.599Z-19.153
Y38.399Z-19.169
Y20.399Z-17.31
Y20.199Z-17.269
Y18.8Z-16.821
Y9.2Z-14.941
Y0Z-14.338
Y-9.2Z-14.941
Y-18.8Z-16.821
Y-20.199Z-17.269
Y-20.399Z-17.31
Y-38.399Z-19.169
Y-46.916Z-17.966
X-64.599Z-19.163
X-55.799Z-17.332
X-55.599Z-17.267
X-46.799Z-10.649
X-45.834Z-10
G0Z10
X45.834
G1Z-10F500
X55.599Z-17.267
X55.799Z-17.332F1000
X64.399Z-19.138
X64.599Z-19.163
X72.799Z-17.332
X72.957Z-17.284
Y-32.4Z-19.166
Y-9.4Z-17.475
Y9.8Z-17.488
Y32.4Z-19.166
Y46.799Z-17.314
Y46.999Z-17.237
Y49.916Z-15.613
X70.999Z-17.245F500
X70.799Z-17.331F1000
X62.399Z-19.15
X62.199Z-19.156
X52.999Z-17.29
X49.799Z-14.892
X42.399Z-10
G0Z10
X-42.399
G1Z-10F500
X-49.999Z-15.032
X-52.999Z-17.29
X-62.199Z-19.156F1000
X-62.399Z-19.15
X-70.799Z-17.331
X-70.999Z-17.245
X-72.957Z-15.613
Y46.999Z-17.237
Y46.799Z-17.314
Y32.4Z-19.166
Y9.4Z-17.475
Y-9.8Z-17.488
Y-32.4Z-19.166
Y-46.799Z-17.314
Y-46.999Z-17.237
Y-49.916Z-15.613
X-70.999Z-17.245F500
X-70.799Z-17.331F1000
X-62.399Z-19.15
X-62.199Z-19.156
X-52.999Z-17.29
X-49.799Z-14.892
X-42.399Z-10
G0Z10
X42.399
G1Z-10F500
X49.999Z-15.032
X52.999Z-17.29
X62.199Z-19.156F1000
X62.399Z-19.15
X70.799Z-17.331
X70.999Z-17.245
X75.957Z-13.114
Y-43.8Z-16.513
Y-41.999Z-17.304
Y-24.4Z-19.165
Y0Z-18.115
Y24.4Z-19.165
Y41.999Z-17.304
Y43.8Z-16.513
Y52.916Z-11.443
X68.999Z-17.241F500
X68.799Z-17.326F1000
X59.799Z-19.143
X59.599Z-19.162
X50.2Z-17.332
X49.999Z-17.282
X40.599Z-11.078
X38.799Z-10.069
X38.73Z-10
G0Z10
X-38.73
G1Z-10F500
X-38.799Z-10.069
X-40.599Z-11.078F1000
X-49.999Z-17.282F500
X-59.599Z-19.162F1000
X-59.799Z-19.143
X-68.799Z-17.326
X-68.999Z-17.241
X-75.957Z-11.443
Y43.8Z-16.513
Y41.999Z-17.304
Y24.4Z-19.165
Y0Z-18.115
Y-24.4Z-19.165
Y-41.999Z-17.304
Y-43.8Z-16.513
Y-52.916Z-11.443
X-68.999Z-17.241F500
X-68.799Z-17.326F1000
X-59.799Z-19.143
X-59.599Z-19.162
X-50.2Z-17.332
X-49.999Z-17.282
X-40.599Z-11.078
X-38.799Z-10.069
X-38.73Z-10
G0Z10
X38.73
G1Z-10F500
X38.799Z-10.069
X40.599Z-11.078F1000
X49.999Z-17.282F500
X59.599Z-19.162F1000
X59.799Z-19.143
X68.799Z-17.326
X68.999Z-17.241
X77.599Z-10.075
X77.638Z-10
G0Z10
X78.957Y-51.006
G1Z-10F500
Y-45.599Z-13.017F1000
Y-35.999Z-17.274
Y-11.8Z-19.172
Y10.6Z-19.11
Y11.8Z-19.172
Y35.799Z-17.318
Y35.999Z-17.274
Y45.599Z-13.017
Y51.006Z-10
G0Z10
X75.635Y55.916
G1Z-10F500
X75.599Z-10.071
X72.799Z-12.399
X66.399Z-17.221
X66.199Z-17.32F1000
X57Z-19.168
X46.599Z-17.296
X42.799Z-14.798
X34.195Z-10
G0Z10
X-34.195
G1Z-10F500
X-42.999Z-14.92F1000
X-46.599Z-17.296F500
X-57Z-19.168F1000
X-66.199Z-17.32
X-66.399Z-17.221
X-72.999Z-12.238
X-75.599Z-10.071
X-75.635Z-10
G0Z10
X-78.957Y51.006
G1Z-10F500
Y45.599Z-13.017F1000
Y35.999Z-17.274
Y11.8Z-19.172
Y-10.6Z-19.11
Y-11.8Z-19.172
Y-35.799Z-17.318
Y-35.999Z-17.274
Y-45.599Z-13.017
Y-51.006Z-10
G0Z10
X-75.635Y-55.916
G1Z-10F500
X-75.599Z-10.071
X-72.799Z-12.399
X-66.399Z-17.221
X-66.199Z-17.32F1000
X-57Z-19.168
X-46.599Z-17.296
X-42.799Z-14.798
X-34.195Z-10
G0Z10
X34.195
G1Z-10F500
X42.999Z-14.92F1000
X46.599Z-17.296F500
X57Z-19.168F1000
X66.199Z-17.32
X66.399Z-17.221
X72.999Z-12.238
X75.599Z-10.071
X75.635Z-10
G0Z10
X81.957Y-46.275
G1Z-10F500
Y-46.2Z-10.056
Y-33.999Z-15.464F1000
Y-28.4Z-17.274
Y0Z-18.624
Y22Z-17.846
Y28.199Z-17.311
Y28.4Z-17.274
Y33.999Z-15.464
Y46.2Z-10.056
Y46.275Z-10
G0Z10
X73.304Y58.916
G1Z-10F500
X73.199Z-10.115
X63.8Z-17.197
X63.599Z-17.314
X53.799Z-19.165F1000
X42.799Z-17.296
X33.999Z-12.404
X28.596Z-10
G0Z10
X-28.596
G1Z-10F500
X-33.999Z-12.404F1000
X-42.799Z-17.296
X-53.599Z-19.145
X-53.799Z-19.165
X-63.599Z-17.314
X-63.8Z-17.197
X-73.199Z-10.115
X-73.304Z-10
G0Z10
X-81.957Y46.275
G1Z-10F500
Y46.2Z-10.056
Y33.999Z-15.464F1000
Y28.4Z-17.274
Y0Z-18.624
Y-22Z-17.846
Y-28.199Z-17.311
Y-28.4Z-17.274
Y-33.999Z-15.464
Y-46.2Z-10.056
Y-46.275Z-10
G0Z10
X-73.304Y-58.916
G1Z-10F500
X-73.199Z-10.115
X-63.8Z-17.197
X-63.599Z-17.314
X-53.799Z-19.165F1000
X-42.799Z-17.296
X-33.999Z-12.404
X-28.596Z-10
G0Z10
X28.596
G1Z-10F500
X33.999Z-12.404F1000
X42.799Z-17.296
X53.599Z-19.145
X53.799Z-19.165
X63.599Z-17.314
X63.8Z-17.197
X73.199Z-10.115
X73.304Z-10
G0Z10
X84.957Y-40.215
G1Z-10F500
Y-40.199Z-10.019
Y-35.2Z-12.235F1000
Y-22.799Z-16.231
Y-17.4Z-17.291
Y11.2Z-17.623
Y17.4Z-17.291
Y22.799Z-16.231
Y35.2Z-12.235
Y40.199Z-10.019
Y40.215Z-10
G0Z10
X70.664Y61.916
G1Z-10F500
X70.599Z-10.092
X61.799Z-16.711
X60.999Z-17.24
X60.799Z-17.32F1000
X50.4Z-19.162
X50.2Z-19.149
X38.399Z-17.313
X38.199Z-17.234
X35.799Z-15.902
X25.599Z-11.381
X21.399Z-10.024
X21.367Z-10
G0Z10
X-21.367
G1Z-10F500
X-21.399Z-10.024
X-25.599Z-11.381F1000
X-35.799Z-15.902
X-38.199Z-17.234
X-38.399Z-17.313
X-50.2Z-19.149
X-50.4Z-19.162
X-60.799Z-17.32
X-60.999Z-17.24
X-61.999Z-16.571
X-70.599Z-10.092
X-70.664Z-10
G0Z10
X-84.957Y40.215
G1Z-10F500
Y40.199Z-10.019
Y35.2Z-12.235F1000
Y22.799Z-16.231
Y17.4Z-17.291
Y-11.2Z-17.623
Y-17.4Z-17.291
Y-22.799Z-16.231
Y-35.2Z-12.235
Y-40.199Z-10.019
Y-40.215Z-10
G0Z10
X-70.664Y-61.916
G1Z-10F500
X-70.599Z-10.092
X-61.799Z-16.711
X-60.999Z-17.24
X-60.799Z-17.32F1000
X-50.4Z-19.162
X-50.2Z-19.149
X-38.399Z-17.313
X-38.199Z-17.234
X-35.799Z-15.902
X-25.599Z-11.381
X-21.399Z-10.024
X-21.367Z-10
G0Z10
X21.367
G1Z-10F500
X21.399Z-10.024
X25.599Z-11.381F1000
X35.799Z-15.902
X38.199Z-17.234
X38.399Z-17.313
X50.2Z-19.149
X50.4Z-19.162
X60.799Z-17.32
X60.999Z-17.24
X61.999Z-16.571
X70.599Z-10.092
X70.664Z-10
G0Z10
X87.957Y-33.256
G1Z-10F500
Y-33.199Z-10.034
Y-23.599Z-13.126F1000
Y-11.6Z-15.476
Y0Z-16.239
Y11.6Z-15.476
Y23.599Z-13.126
Y33.199Z-10.034
Y33.256Z-10
G0Z10
X68.039Y64.916
G1Z-10F500
X67.999Z-10.068
X64.8Z-12.469
X57.599Z-17.226
X57.399Z-17.317F1000
X46.399Z-19.169
X33Z-17.314
X32.8Z-17.259
X26.999Z-14.69
X17.4Z-11.588
X9.35Z-10
G0Z10
X-9.35
G1Z-10F500
X-17.4Z-11.588F1000
X-26.799Z-14.612
X-32.8Z-17.259
X-33Z-17.314
X-46.399Z-19.169
X-57.399Z-17.317
X-57.599Z-17.226
X-64.999Z-12.329
X-67.999Z-10.068
X-68.039Z-10
G0Z10
X-87.957Y33.256
G1Z-10F500
Y33.199Z-10.034
Y23.599Z-13.126F1000
Y11.6Z-15.476
Y0Z-16.239
Y-11.6Z-15.476
Y-23.599Z-13.126
Y-33.199Z-10.034
Y-33.256Z-10
G0Z10
X-68.039Y-64.916
G1Z-10F500
X-67.999Z-10.068
X-64.8Z-12.469
X-57.599Z-17.226
X-57.399Z-17.317F1000
X-46.399Z-19.169
X-33Z-17.314
X-32.8Z-17.259
X-26.999Z-14.69
X-17.4Z-11.588
X-9.35Z-10
G0Z10
X9.35
G1Z-10F500
X17.4Z-11.588F1000
X26.799Z-14.612
X32.8Z-17.259
X33Z-17.314
X46.399Z-19.169
X57.399Z-17.317
X57.599Z-17.226
X64.999Z-12.329
X67.999Z-10.068
X68.039Z-10
G0Z10
X90.957Y-24.428
G1Z-10F500
Y-24.4Z-10.022
Y-12Z-12.45F1000
Y0Z-13.239
Y12Z-12.45
Y24.4Z-10.022
Y24.428Z-10
G0Z10
X65.059Y67.916
G1Z-10F500
X64.999Z-10.076
X54.199Z-17.212
X53.999Z-17.313F1000
X41.999Z-19.156
X41.8Z-19.16
X26.4Z-17.309
X18.199Z-14.693
X9Z-12.891
X0Z-12.297
X-8.8Z-12.868
X-18.199Z-14.693
X-26.2Z-17.264
X-26.4Z-17.309
X-41.8Z-19.16
X-41.999Z-19.156
X-53.999Z-17.313
X-54.199Z-17.212
X-64.999Z-10.076
X-65.059Z-10
G0Z10
X-90.957Y24.428
G1Z-10F500
Y24.4Z-10.022
Y12Z-12.45F1000
Y0Z-13.239
Y-12Z-12.45
Y-24.4Z-10.022
Y-24.428Z-10
G0Z10
X-65.059Y-67.916
G1Z-10F500
X-64.999Z-10.076
X-54.199Z-17.212
X-53.999Z-17.313F1000
X-41.999Z-19.156
X-41.8Z-19.16
X-26.4Z-17.309
X-18.199Z-14.693
X-9Z-12.891
X0Z-12.297
X8.8Z-12.868
X18.199Z-14.693
X26.2Z-17.264
X26.4Z-17.309
X41.8Z-19.16
X41.999Z-19.156
X53.999Z-17.313
X54.199Z-17.212
X64.999Z-10.076
X65.059Z-10
G0Z10
X93.957Y-3.659
G1Z-10F500
Y0Z-10.239F1000
Y3.659Z-10
G0Z10
X61.642Y70.916
G1Z-10F500
X61.6Z-10.062
X54.399Z-14.818
X49.999Z-17.268F1000
X49.799Z-17.322
X36.599Z-19.159
X36.399Z-19.162
X16.4Z-17.283
X9.4Z-15.918
X0Z-15.297
X-9.2Z-15.894
X-16.4Z-17.283
X-36.399Z-19.162
X-36.599Z-19.159
X-49.799Z-17.322
X-49.999Z-17.268
X-54.399Z-14.818
X-61.6Z-10.062
X-61.642Z-10
G0Z10
X-93.957Y3.659
G1Z-10F500
Y0Z-10.239F1000
Y-3.659Z-10
G0Z10
X-61.642Y-70.916
G1Z-10F500
X-61.6Z-10.062
X-54.399Z-14.818
X-49.999Z-17.268F1000
X-49.799Z-17.322
X-36.599Z-19.159
X-36.399Z-19.162
X-16.4Z-17.283
X-9.4Z-15.918
X0Z-15.297
X9.2Z-15.894
X16.4Z-17.283
X36.399Z-19.162
X36.599Z-19.159
X49.799Z-17.322
X49.999Z-17.268
X54.399Z-14.818
X61.6Z-10.062
X61.642Z-10
G0Z10
X58.229Y73.916
G1Z-10F500
X58.199Z-10.049
X56.599Z-11.094
X45.599Z-17.218F1000
X45.399Z-17.309
X30.399Z-19.166
X9.4Z-17.731
X-10Z-17.751
X-30.399Z-19.166
X-45.399Z-17.309
X-56.8Z-10.974
X-58.199Z-10.049
X-58.229Z-10
G0Z10
Y-73.916
G1Z-10F500
X-58.199Z-10.049
X-56.599Z-11.094
X-45.599Z-17.218F1000
X-45.399Z-17.309
X-30.399Z-19.166
X-9.4Z-17.731
X10Z-17.751
X30.399Z-19.166
X45.399Z-17.309
X56.8Z-10.974
X58.199Z-10.049
X58.229Z-10
G0Z10
X54.03Y76.916
G1Z-10F500
X53.999Z-10.041
X44.399Z-15.385F1000
X40.199Z-17.247
X39.999Z-17.311
X21.599Z-19.163
X-0.2Z-18.374
X-21.599Z-19.163
X-39.999Z-17.311
X-40.199Z-17.247
X-44.399Z-15.385
X-53.999Z-10.041
X-54.03Z-10
G0Z10
Y-76.916
G1Z-10F500
X-53.999Z-10.041
X-44.399Z-15.385F1000
X-40.199Z-17.247
X-39.999Z-17.311
X-21.599Z-19.163
X0.2Z-18.374
X21.599Z-19.163
X39.999Z-17.311
X40.199Z-17.247
X44.399Z-15.385
X53.999Z-10.041
X54.03Z-10
G0Z10
X49.585Y79.916
G1Z-10F500
X46.2Z-11.884F1000
X33.999Z-17.299
X10.4Z-18.989
X-10.6Z-18.983
X-33.799Z-17.324
X-33.999Z-17.299
X-46.2Z-11.884
X-49.585Z-10
G0Z10
Y-79.916
G1Z-10F500
X-46.2Z-11.884F1000
X-33.999Z-17.299
X-10.4Z-18.989
X10.6Z-18.983
X33.799Z-17.324
X33.999Z-17.299
X46.2Z-11.884
X49.585Z-10
G0Z10
X44.384Y82.916
G1Z-10F500
X34.399Z-14.425F1000
X25.599Z-17.266
X25.4Z-17.309
X0Z-18.368
X-22.399Z-17.568
X-25.4Z-17.309
X-25.599Z-17.266
X-34.399Z-14.425
X-44.384Z-10
G0Z10
Y-82.916
G1Z-10F500
X-34.399Z-14.425F1000
X-25.599Z-17.266
X-25.4Z-17.309
X0Z-18.368
X22.399Z-17.568
X25.4Z-17.309
X25.599Z-17.266
X34.399Z-14.425
X44.384Z-10
G0Z10
X38.248Y85.916
G1Z-10F500
X38.199Z-10.044
X35.599Z-11.197F1000
X23Z-15.254
X12.6Z-17.288
X-11.399Z-17.361
X-12.6Z-17.288
X-23Z-15.254
X-35.599Z-11.197
X-38.199Z-10.044
X-38.248Z-10
G0Z10
Y-85.916
G1Z-10F500
X-38.199Z-10.044
X-35.599Z-11.197F1000
X-23Z-15.254
X-12.6Z-17.288
X11.399Z-17.361
X12.6Z-17.288
X23Z-15.254
X35.599Z-11.197
X38.199Z-10.044
X38.248Z-10
G0Z10
X30.437Y88.916
G1Z-10F500
X30.399Z-10.026
X23.799Z-12.149F1000
X11.8Z-14.495
X0Z-15.281
X-11.6Z-14.521
X-23.799Z-12.149
X-30.399Z-10.026
X-30.437Z-10
G0Z10
Y-88.916
G1Z-10F500
X-30.399Z-10.026
X-23.799Z-12.149F1000
X-11.8Z-14.495
X0Z-15.281
X11.6Z-14.521
X23.799Z-12.149
X30.399Z-10.026
X30.437Z-10
G0Z10
X19.674Y91.916
G1Z-10F500
X12.2Z-11.469F1000
X0Z-12.281
X-12Z-11.495
X-19.674Z-10
G0Z10
Y-91.916
G1Z-10F500
X-12.2Z-11.469F1000
X0Z-12.281
X12Z-11.495
X19.674Z-10
G0Z10
 
