(Created with grbl post processor 2025/04/18 10:36)
G21
(G-code Generated with Fabex and NC library)
G17G90
(Tool: D = 6.0 mm  type END flutes 2)
S12000M03
G00 Z10.0

G0Z10
G1Z-1.943F500
X-3F1000
X-2.973Y-0.398
X-2.893Y-0.79
X-2.763Y-1.168
X-2.583Y-1.525
X-2.357Y-1.855
X-2.09Y-2.152
X-1.785Y-2.41
X-1.449Y-2.626
X-1.087Y-2.796
X-0.705Y-2.915
X-0.311Y-2.983
X0.087Y-2.998
X0.485Y-2.96
X0.874Y-2.869
X1.248Y-2.727
X1.6Y-2.537
X1.923Y-2.302
X2.212Y-2.026
X2.461Y-1.714
X2.667Y-1.371
X2.826Y-1.004
X2.935Y-0.62
X2.991Y-0.224
X2.994Y0.175
X2.945Y0.571
X2.842Y0.958
X2.69Y1.327
X2.489Y1.673
X2.245Y1.989
X1.96Y2.27
X1.641Y2.51
X1.293Y2.706
X0.922Y2.854
X0.534Y2.952
X0.137Y2.996
X-0.262Y2.988
X-0.657Y2.927
X-1.04Y2.813
X-1.405Y2.65
X-1.745Y2.439
X-2.054Y2.186
X-2.326Y1.893
X-2.557Y1.567
X-2.743Y1.213
X-2.88Y0.838
X-2.966Y0.447
X-3Y0
X-6
X-5.946Y-0.797
X-5.787Y-1.581
X-5.526Y-2.336
X-5.166Y-3.05
X-4.715Y-3.71
X-4.18Y-4.304
X-3.57Y-4.821
X-2.898Y-5.253
X-2.174Y-5.592
X-1.411Y-5.831
X-0.623Y-5.967
X0.175Y-5.997
X0.97Y-5.92
X1.749Y-5.739
X2.496Y-5.455
X3.2Y-5.075
X3.846Y-4.604
X4.424Y-4.052
X4.923Y-3.428
X5.335Y-2.743
X5.653Y-2.009
X5.87Y-1.24
X5.983Y-0.449
X5.989Y0.35
X5.89Y1.143
X5.685Y1.916
X5.38Y2.655
X4.979Y3.346
X4.49Y3.979
X3.921Y4.54
X3.283Y5.021
X2.586Y5.413
X1.843Y5.709
X1.068Y5.904
X0.274Y5.993
X-0.524Y5.976
X-1.314Y5.854
X-2.081Y5.627
X-2.811Y5.3
X-3.49Y4.879
X-4.108Y4.372
X-4.653Y3.787
X-5.115Y3.135
X-5.487Y2.427
X-5.761Y1.676
X-5.932Y0.895
X-5.992Y0.298
X-6Y0
X-9
X-8.944Y-0.997
X-8.778Y-1.983
X-8.504Y-2.944
X-8.125Y-3.869
X-7.646Y-4.746
X-7.072Y-5.565
X-6.412Y-6.315
X-5.672Y-6.987
X-4.862Y-7.573
X-3.993Y-8.065
X-3.074Y-8.458
X-2.117Y-8.747
X-1.134Y-8.928
X-0.137Y-8.998
X0.861Y-8.958
X1.849Y-8.807
X2.814Y-8.548
X3.745Y-8.183
X4.629Y-7.717
X5.456Y-7.157
X6.216Y-6.507
X6.9Y-5.778
X7.498Y-4.977
X8.003Y-4.115
X8.41Y-3.202
X8.714Y-2.25
X8.909Y-1.27
X8.995Y-0.274
X8.97Y0.724
X8.835Y1.715
X8.59Y2.684
X8.239Y3.62
X7.787Y4.511
X7.239Y5.347
X6.601Y6.116
X5.882Y6.811
X5.091Y7.421
X4.236Y7.94
X3.33Y8.361
X2.382Y8.678
X1.405Y8.889
X0.411Y8.99
X-0.588Y8.98
X-1.58Y8.86
X-2.552Y8.63
X-3.494Y8.294
X-4.392Y7.855
X-5.236Y7.32
X-6.015Y6.694
X-6.72Y5.985
X-7.343Y5.203
X-7.874Y4.357
X-8.309Y3.457
X-8.641Y2.514
X-8.867Y1.541
X-8.983Y0.548
X-9Y0
X-12
X-11.918Y-1.396
X-11.674Y-2.774
X-11.272Y-4.114
X-10.716Y-5.398
X-10.015Y-6.609
X-9.178Y-7.73
X-8.215Y-8.746
X-7.141Y-9.643
X-5.97Y-10.409
X-4.718Y-11.033
X-3.402Y-11.507
X-2.039Y-11.825
X-0.649Y-11.982
X0.749Y-11.976
X2.138Y-11.807
X3.498Y-11.478
X4.811Y-10.993
X6.058Y-10.358
X7.222Y-9.582
X8.289Y-8.677
X9.242Y-7.653
X10.07Y-6.525
X10.761Y-5.308
X11.306Y-4.019
X11.697Y-2.676
X11.929Y-1.296
X11.999Y0.1
X11.906Y1.496
X11.651Y2.872
X11.237Y4.209
X10.671Y5.488
X9.959Y6.693
X9.112Y7.807
X8.142Y8.815
X7.06Y9.703
X5.883Y10.458
X4.625Y11.072
X3.305Y11.535
X1.94Y11.842
X0.548Y11.987
X-0.85Y11.969
X-2.238Y11.789
X-3.595Y11.448
X-4.903Y10.952
X-6.145Y10.307
X-7.303Y9.521
X-8.361Y8.607
X-9.306Y7.575
X-10.125Y6.44
X-10.806Y5.218
X-11.34Y3.924
X-11.719Y2.577
X-11.94Y1.196
X-11.993Y0.398
X-12Y0
X-15
X-14.914Y-1.596
X-14.659Y-3.175
X-14.238Y-4.718
X-13.655Y-6.207
X-12.916Y-7.626
X-12.031Y-8.957
X-11.009Y-10.187
X-9.862Y-11.302
X-8.602Y-12.287
X-7.245Y-13.133
X-5.806Y-13.83
X-4.3Y-14.37
X-2.746Y-14.746
X-1.16Y-14.955
X0.437Y-14.993
X2.031Y-14.861
X3.602Y-14.561
X5.132Y-14.094
X6.603Y-13.468
X8Y-12.688
X9.305Y-11.764
X10.505Y-10.707
X11.585Y-9.527
X12.533Y-8.24
X13.339Y-6.859
X13.994Y-5.399
X14.489Y-3.879
X14.82Y-2.314
X14.982Y-0.723
X14.974Y0.875
X14.796Y2.464
X14.449Y4.026
X13.938Y5.541
X13.269Y6.994
X12.449Y8.367
X11.488Y9.645
X10.395Y10.813
X9.185Y11.858
X7.87Y12.769
X6.466Y13.534
X4.988Y14.146
X3.454Y14.596
X1.88Y14.881
X0.285Y14.997
X-1.312Y14.942
X-2.895Y14.717
X-4.446Y14.325
X-5.946Y13.771
X-7.378Y13.059
X-8.727Y12.2
X-9.976Y11.201
X-11.112Y10.075
X-12.121Y8.835
X-12.993Y7.494
X-13.717Y6.068
X-14.285Y4.573
X-14.691Y3.026
X-14.93Y1.445
X-14.998Y0.247
X-15Y0
X-17.999
X-17.888Y-1.995
X-17.557Y-3.967
X-17.009Y-5.889
X-16.251Y-7.739
X-15.292Y-9.493
X-14.145Y-11.13
X-12.824Y-12.63
X-11.344Y-13.974
X-9.725Y-15.146
X-7.985Y-16.131
X-6.148Y-16.917
X-4.234Y-17.494
X-2.268Y-17.856
X-0.274Y-17.997
X1.723Y-17.917
X3.699Y-17.615
X5.629Y-17.096
X7.49Y-16.367
X9.259Y-15.435
X10.913Y-14.313
X12.433Y-13.015
X13.8Y-11.556
X14.996Y-9.955
X16.007Y-8.23
X16.821Y-6.405
X17.428Y-4.5
X17.819Y-2.54
X17.991Y-0.548
X17.941Y1.449
X17.67Y3.43
X17.18Y5.368
X16.479Y7.24
X15.575Y9.022
X14.478Y10.694
X13.203Y12.233
X11.765Y13.622
X10.182Y14.842
X8.473Y15.88
X6.66Y16.722
X4.765Y17.357
X2.811Y17.778
X0.822Y17.981
X-1.176Y17.961
X-3.16Y17.72
X-5.105Y17.26
X-6.988Y16.587
X-8.784Y15.71
X-10.472Y14.639
X-12.031Y13.388
X-13.441Y11.971
X-14.685Y10.407
X-15.749Y8.714
X-16.618Y6.914
X-17.282Y5.029
X-17.733Y3.082
X-17.966Y1.096
X-17.999Y0
X-21
X-20.884Y-2.195
X-20.54Y-4.367
X-19.971Y-6.491
X-19.183Y-8.544
X-18.184Y-10.503
X-16.986Y-12.347
X-15.601Y-14.056
X-14.046Y-15.61
X-12.337Y-16.994
X-10.492Y-18.19
X-8.532Y-19.188
X-6.479Y-19.975
X-4.354Y-20.543
X-2.182Y-20.886
X0.013Y-20.999
X2.209Y-20.883
X4.38Y-20.537
X6.504Y-19.967
X8.556Y-19.177
X10.515Y-18.177
X12.358Y-16.978
X14.066Y-15.592
X15.619Y-14.036
X17.001Y-12.326
X18.197Y-10.48
X19.193Y-8.52
X19.979Y-6.466
X20.546Y-4.341
X20.887Y-2.169
X20.999Y0.026
X20.882Y2.222
X20.535Y4.393
X19.963Y6.517
X19.172Y8.568
X18.17Y10.526
X16.97Y12.369
X15.584Y14.076
X14.026Y15.628
X12.315Y17.009
X10.469Y18.204
X8.508Y19.199
X6.453Y19.983
X4.328Y20.548
X2.156Y20.888
X-0.039Y20.999
X-2.235Y20.88
X-4.406Y20.532
X-6.529Y19.958
X-8.581Y19.166
X-10.538Y18.164
X-12.379Y16.962
X-14.085Y15.575
X-15.637Y14.016
X-17.017Y12.304
X-18.21Y10.457
X-19.204Y8.496
X-19.987Y6.441
X-20.551Y4.315
X-20.89Y2.143
X-20.997Y0.346
X-21Y0
X-24
X-23.859Y-2.594
X-23.438Y-5.159
X-22.743Y-7.663
X-21.781Y-10.077
X-20.564Y-12.373
X-19.105Y-14.524
X-17.423Y-16.505
X-15.536Y-18.292
X-13.467Y-19.864
X-11.241Y-21.204
X-8.882Y-22.295
X-6.419Y-23.125
X-3.881Y-23.683
X-1.298Y-23.964
X1.3
X3.883Y-23.683
X6.421Y-23.124
X8.884Y-22.294
X11.242Y-21.203
X13.469Y-19.863
X15.538Y-18.29
X17.424Y-16.503
X19.106Y-14.522
X20.565Y-12.371
X21.782Y-10.075
X22.743Y-7.661
X23.439Y-5.157
X23.859Y-2.593
X23.999Y0.001
X23.858Y2.596
X23.438Y5.161
X22.742Y7.664
X21.78Y10.079
X20.563Y12.374
X19.104Y14.525
X17.422Y16.506
X15.535Y18.293
X13.466Y19.865
X11.239Y21.205
X8.88Y22.295
X6.418Y23.125
X3.88Y23.683
X1.296Y23.964
X-1.301
X-3.885Y23.682
X-6.423Y23.124
X-8.885Y22.293
X-11.244Y21.202
X-13.47Y19.862
X-15.539Y18.289
X-17.425Y16.502
X-19.107Y14.521
X-20.565Y12.37
X-21.782Y10.074
X-22.744Y7.659
X-23.439Y5.155
X-23.859Y2.591
X-23.996Y0.396
X-24Y0
X-27
X-26.854Y-2.794
X-26.421Y-5.559
X-25.703Y-8.265
X-24.71Y-10.881
X-23.45Y-13.381
X-21.939Y-15.736
X-20.192Y-17.923
X-18.229Y-19.917
X-16.069Y-21.697
X-13.736Y-23.244
X-11.256Y-24.541
X-8.655Y-25.574
X-5.961Y-26.333
X-3.203Y-26.809
X-0.411Y-26.996
X2.385Y-26.894
X5.156Y-26.503
X7.872Y-25.826
X10.503Y-24.873
X13.022Y-23.652
X15.4Y-22.177
X17.613Y-20.463
X19.637Y-18.53
X21.45Y-16.398
X23.032Y-14.089
X24.367Y-11.629
X25.44Y-9.044
X26.239Y-6.362
X26.757Y-3.612
X26.987Y-0.822
X26.927Y1.975
X26.578Y4.752
X25.943Y7.477
X25.03Y10.123
X23.848Y12.66
X22.409Y15.06
X20.729Y17.299
X18.827Y19.352
X16.723Y21.197
X14.439Y22.815
X11.999Y24.187
X9.431Y25.299
X6.761Y26.139
X4.019Y26.699
X1.234Y26.972
X-1.564Y26.954
X-4.346Y26.648
X-7.081Y26.055
X-9.74Y25.181
X-12.295Y24.038
X-14.717Y22.636
X-16.981Y20.991
X-19.063Y19.12
X-20.94Y17.044
X-22.592Y14.785
X-24.001Y12.366
X-25.152Y9.815
X-26.033Y7.159
X-26.635Y4.426
X-26.95Y1.645
X-27Y0
X-30
X-29.829Y-3.193
X-29.319Y-6.351
X-28.477Y-9.436
X-27.31Y-12.415
X-25.833Y-15.252
X-24.062Y-17.915
X-22.018Y-20.375
X-19.724Y-22.604
X-17.205Y-24.575
X-14.491Y-26.267
X-11.612Y-27.661
X-8.601Y-28.74
X-5.492Y-29.492
X-2.321Y-29.909
X0.875Y-29.987
X4.063Y-29.723
X7.204Y-29.121
X10.264Y-28.189
X13.207Y-26.936
X15.999Y-25.377
X18.61Y-23.529
X21.01Y-21.414
X23.17Y-19.055
X25.067Y-16.48
X26.679Y-13.718
X27.988Y-10.799
X28.979Y-7.758
X29.64Y-4.629
X29.964Y-1.447
X29.948Y1.751
X29.592Y4.929
X28.898Y8.052
X27.877Y11.083
X26.539Y13.988
X24.898Y16.734
X22.975Y19.289
X20.791Y21.626
X18.37Y23.716
X15.741Y25.538
X12.933Y27.068
X9.977Y28.291
X6.909Y29.193
X3.761Y29.762
X0.571Y29.994
X-2.624Y29.884
X-5.791Y29.435
X-8.892Y28.651
X-11.892Y27.541
X-14.757Y26.119
X-17.453Y24.399
X-19.952Y22.402
X-22.224Y20.151
X-24.243Y17.67
X-25.986Y14.989
X-27.434Y12.137
X-28.571Y9.147
X-29.382Y6.053
X-29.86Y2.891
X-29.998Y0.295
X-30Y0
X-33
X-32.825Y-3.393
X-32.301Y-6.751
X-31.436Y-10.038
X-30.237Y-13.218
X-28.717Y-16.258
X-26.892Y-19.125
X-24.783Y-21.789
X-22.41Y-24.223
X-19.8Y-26.399
X-16.98Y-28.296
X-13.98Y-29.892
X-10.831Y-31.171
X-7.568Y-32.12
X-4.224Y-32.728
X-0.836Y-32.989
X2.561Y-32.9
X5.931Y-32.462
X9.238Y-31.68
X12.447Y-30.562
X15.525Y-29.119
X18.437Y-27.368
X21.154Y-25.327
X23.647Y-23.017
X25.889Y-20.463
X27.856Y-17.692
X29.528Y-14.733
X30.887Y-11.618
X31.918Y-8.379
X32.61Y-5.052
X32.957Y-1.671
X32.954Y1.726
X32.602Y5.106
X31.904Y8.432
X30.867Y11.669
X29.504Y14.782
X27.827Y17.738
X25.855Y20.506
X23.609Y23.056
X21.112Y25.362
X18.392Y27.399
X15.476Y29.145
X12.397Y30.583
X9.185Y31.695
X5.877Y32.472
X2.506Y32.904
X-0.891Y32.988
X-4.279Y32.721
X-7.621Y32.107
X-10.883Y31.153
X-14.029Y29.869
X-17.027Y28.267
X-19.844Y26.366
X-22.451Y24.185
X-24.819Y21.748
X-26.924Y19.08
X-28.744Y16.21
X-30.259Y13.168
X-31.453Y9.986
X-32.313Y6.698
X-32.83Y3.339
X-32.998Y0.345
X-33Y0
X-35.999
X-35.799Y-3.792
X-35.2Y-7.543
X-34.21Y-11.21
X-32.838Y-14.752
X-31.101Y-18.13
X-29.018Y-21.306
X-26.611Y-24.244
X-23.909Y-26.913
X-20.94Y-29.282
X-17.738Y-31.326
X-14.339Y-33.02
X-10.78Y-34.347
X-7.101Y-35.292
X-3.343Y-35.844
X0.451Y-35.997
X4.241Y-35.749
X7.984Y-35.103
X11.638Y-34.066
X15.162Y-32.65
X18.518Y-30.871
X21.668Y-28.748
X24.576Y-26.305
X27.211Y-23.569
X29.543Y-20.571
X31.546Y-17.344
X33.197Y-13.924
X34.48Y-10.349
X35.378Y-6.658
X35.883Y-2.894
X35.988Y0.902
X35.693Y4.689
X35Y8.423
X33.918Y12.064
X32.458Y15.57
X30.636Y18.904
X28.474Y22.026
X25.995Y24.904
X23.226Y27.504
X20.199Y29.798
X16.947Y31.76
X13.507Y33.369
X9.916Y34.607
X6.214Y35.459
X2.444Y35.916
X-1.353Y35.974
X-5.136Y35.631
X-8.861Y34.891
X-12.488Y33.764
X-15.976Y32.26
X-19.286Y30.397
X-22.381Y28.196
X-25.228Y25.681
X-27.793Y22.88
X-30.049Y19.824
X-31.97Y16.548
X-33.536Y13.087
X-34.728Y9.481
X-35.534Y5.769
X-35.944Y1.993
X-35.999Y0
X-39
X-38.795Y-3.992
X-38.182Y-7.944
X-37.168Y-11.811
X-35.763Y-15.554
X-33.983Y-19.134
X-31.845Y-22.513
X-29.373Y-25.655
X-26.591Y-28.528
X-23.531Y-31.1
X-20.223Y-33.346
X-16.702Y-35.241
X-13.006Y-36.766
X-9.174Y-37.905
X-5.245Y-38.645
X-1.26Y-38.979
X2.736Y-38.903
X6.705Y-38.418
X10.603Y-37.53
X14.39Y-36.247
X18.026Y-34.583
X21.472Y-32.556
X24.692Y-30.186
X27.653Y-27.5
X30.323Y-24.524
X32.675Y-21.29
X34.683Y-17.833
X36.326Y-14.188
X37.588Y-10.394
X38.455Y-6.491
X38.917Y-2.52
X38.971Y1.477
X38.615Y5.459
X37.853Y9.384
X36.693Y13.21
X35.148Y16.898
X33.233Y20.408
X30.969Y23.703
X28.379Y26.749
X25.491Y29.514
X22.335Y31.969
X18.945Y34.088
X15.355Y35.848
X11.604Y37.232
X7.731Y38.225
X3.777Y38.815
X-0.216Y38.998
X-4.208Y38.771
X-8.155Y38.136
X-12.017Y37.101
X-15.753Y35.675
X-19.322Y33.875
X-22.689Y31.719
X-25.818Y29.229
X-28.674Y26.432
X-31.23Y23.357
X-33.457Y20.037
X-35.333Y16.506
X-36.837Y12.802
X-37.954Y8.963
X-38.673Y5.03
X-38.984Y1.044
X-39Y0
X-41.999
X-41.769Y-4.391
X-41.081Y-8.735
X-39.942Y-12.983
X-38.366Y-17.089
X-36.368Y-21.007
X-33.972Y-24.695
X-31.203Y-28.112
X-28.093Y-31.221
X-24.674Y-33.988
X-20.984Y-36.382
X-17.065Y-38.376
X-12.958Y-39.951
X-8.709Y-41.087
X-4.365Y-41.772
X0.026Y-42
X4.418Y-41.767
X8.761Y-41.076
X13.009Y-39.934
X17.113Y-38.355
X21.03Y-36.355
X24.717Y-33.957
X28.132Y-31.186
X31.239Y-28.073
X34.003Y-24.652
X36.395Y-20.961
X38.387Y-17.041
X39.959Y-12.933
X41.092Y-8.683
X41.775Y-4.339
X42Y0.053
X41.764Y4.444
X41.07Y8.787
X39.926Y13.034
X38.344Y17.138
X36.342Y21.053
X33.941Y24.738
X31.168Y28.152
X28.053Y31.257
X24.631Y34.019
X20.938Y36.408
X17.016Y38.398
X12.908Y39.967
X8.657Y41.098
X4.312Y41.778
X-0.079Y42
X-4.471Y41.761
X-8.813Y41.065
X-13.059Y39.918
X-17.162Y38.334
X-21.076Y36.329
X-24.76Y33.926
X-28.172Y31.15
X-31.275Y28.034
X-34.035Y24.609
X-36.422Y20.915
X-38.409Y16.992
X-39.976Y12.882
X-41.104Y8.631
X-41.781Y4.286
X-41.999Y0.293
Y0
X-45
X-44.765Y-4.591
X-44.062Y-9.136
X-42.9Y-13.584
X-41.29Y-17.891
X-39.249Y-22.011
X-36.797Y-25.901
X-33.962Y-29.521
X-30.772Y-32.833
X-27.261Y-35.801
X-23.466Y-38.396
X-19.425Y-40.591
X-15.181Y-42.361
X-10.779Y-43.689
X-6.265Y-44.561
X-1.685Y-44.968
X2.912Y-44.905
X7.479Y-44.373
X11.968Y-43.378
X16.332Y-41.931
X20.525Y-40.045
X24.505Y-37.742
X28.228Y-35.044
X31.657Y-31.98
X34.755Y-28.583
X37.49Y-24.887
X39.834Y-20.931
X41.762Y-16.757
X43.254Y-12.408
X44.295Y-7.929
X44.873Y-3.368
X44.982Y1.228
X44.622Y5.812
X43.796Y10.335
X42.513Y14.75
X40.786Y19.011
X38.633Y23.074
X36.076Y26.896
X33.143Y30.437
X29.864Y33.66
X26.274Y36.532
X22.409Y39.022
X18.31Y41.105
X14.019Y42.759
X9.583Y43.966
X5.046Y44.715
X0.457Y44.996
X-4.136Y44.808
X-8.687Y44.152
X-13.147Y43.035
X-17.47Y41.469
X-21.611Y39.47
X-25.525Y37.058
X-29.174Y34.26
X-32.518Y31.104
X-35.522Y27.623
X-38.155Y23.854
X-40.39Y19.836
X-42.204Y15.611
X-43.576Y11.223
X-44.494Y6.717
X-44.947Y2.142
X-45Y0
X-48
X-47.739Y-4.99
X-46.962Y-9.927
X-45.675Y-14.757
X-43.893Y-19.426
X-41.635Y-23.884
X-38.926Y-28.084
X-35.794Y-31.979
X-32.275Y-35.528
X-28.406Y-38.691
X-24.229Y-41.435
X-19.789Y-43.73
X-15.135Y-45.55
X-10.317Y-46.877
X-5.386Y-47.696
X-0.398Y-47.997
X4.594Y-47.779
X9.537Y-47.042
X14.377Y-45.795
X19.061Y-44.052
X23.538Y-41.831
X27.76Y-39.157
X31.681Y-36.058
X35.259Y-32.569
X38.454Y-28.726
X41.232Y-24.572
X43.564Y-20.151
X45.423Y-15.512
X46.79Y-10.705
X47.649Y-5.782
X47.992Y-0.796
X47.815Y4.198
X47.119Y9.147
X45.912Y13.996
X44.208Y18.694
X42.025Y23.19
X39.386Y27.434
X36.319Y31.38
X32.86Y34.987
X29.044Y38.214
X24.913Y41.027
X20.512Y43.395
X15.888Y45.292
X11.093Y46.699
X6.177Y47.599
X1.194Y47.983
X-3.801Y47.848
X-8.755Y47.193
X-13.615Y46.027
X-18.327Y44.361
X-22.84Y42.215
X-27.106Y39.611
X-31.078Y36.578
X-34.713Y33.149
X-37.971Y29.359
X-40.818Y25.252
X-43.223Y20.871
X-45.159Y16.263
X-46.605Y11.48
X-47.546Y6.571
X-47.971Y1.592
X-48Y0
X-50.999
X-50.735Y-5.19
X-49.943Y-10.328
X-48.632Y-15.357
X-46.816Y-20.228
X-44.514Y-24.888
X-41.75Y-29.289
X-38.552Y-33.387
X-34.953Y-37.138
X-30.992Y-40.502
X-26.708Y-43.447
X-22.147Y-45.939
X-17.356Y-47.955
X-12.385Y-49.473
X-7.285Y-50.476
X-2.11Y-50.956
X3.087Y-50.906
X8.252Y-50.327
X13.332Y-49.226
X18.273Y-47.613
X23.025Y-45.506
X27.537Y-42.926
X31.763Y-39.9
X35.66Y-36.46
X39.185Y-32.641
X42.304Y-28.483
X44.984Y-24.029
X47.196Y-19.326
X48.918Y-14.421
X50.132Y-9.367
X50.825Y-4.216
X50.99Y0.978
X50.626Y6.163
X49.735Y11.284
X48.329Y16.288
X46.42Y21.122
X44.029Y25.737
X41.18Y30.085
X37.904Y34.121
X34.234Y37.801
X30.209Y41.09
X25.87Y43.951
X21.262Y46.356
X16.433Y48.279
X11.433Y49.701
X6.315Y50.607
X1.131Y50.987
X-4.063Y50.837
X-9.217Y50.16
X-14.274Y48.961
X-19.184Y47.254
X-23.894Y45.056
X-28.356Y42.39
X-32.523Y39.283
X-36.353Y35.769
X-39.805Y31.883
X-42.843Y27.666
X-45.437Y23.161
X-47.558Y18.416
X-49.186Y13.48
X-50.302Y8.404
X-50.896Y3.24
X-50.999Y0
X-54
X-53.709Y-5.589
X-52.842Y-11.119
X-51.407Y-16.53
X-49.42Y-21.763
X-46.901Y-26.762
X-43.879Y-31.473
X-40.385Y-35.846
X-36.458Y-39.834
X-32.138Y-43.394
X-27.473Y-46.488
X-22.513Y-49.082
X-17.311Y-51.149
X-11.923Y-52.667
X-6.407Y-53.618
X-0.822Y-53.993
X4.77Y-53.789
X10.313Y-53.006
X15.744Y-51.653
X21.007Y-49.746
X26.044Y-47.304
X30.801Y-44.354
X35.227Y-40.927
X39.274Y-37.061
X42.9Y-32.796
X46.064Y-28.179
X48.734Y-23.259
X50.88Y-18.089
X52.479Y-12.725
X53.514Y-7.224
X53.975Y-1.645
X53.855Y3.95
X53.157Y9.504
X51.887Y14.955
X50.06Y20.246
X47.696Y25.32
X44.818Y30.121
X41.459Y34.599
X37.655Y38.705
X33.446Y42.395
X28.878Y45.629
X23.999Y48.374
X18.862Y50.598
X13.523Y52.279
X8.039Y53.398
X2.468Y53.943
X-3.129Y53.909
X-8.693Y53.296
X-14.163Y52.109
X-19.481Y50.363
X-24.59Y48.076
X-29.435Y45.272
X-33.963Y41.982
X-38.127Y38.24
X-41.88Y34.088
X-45.184Y29.57
X-48.003Y24.733
X-50.305Y19.631
X-52.067Y14.318
X-53.27Y8.851
X-53.9Y3.289
X-54Y0
X-57
X-56.705Y-5.789
X-55.823Y-11.52
X-54.364Y-17.131
X-52.343Y-22.564
X-49.78Y-27.765
X-46.702Y-32.678
X-43.141Y-37.253
X-39.134Y-41.442
X-34.722Y-45.203
X-29.951Y-48.496
X-24.87Y-51.288
X-19.531Y-53.549
X-13.991Y-55.256
X-8.305Y-56.391
X-2.534Y-56.944
X3.262Y-56.906
X9.026Y-56.281
X14.696Y-55.073
X20.215Y-53.295
X25.524Y-50.966
X30.569Y-48.11
X35.298Y-44.756
X39.661Y-40.939
X43.615Y-36.698
X47.117Y-32.078
X50.132Y-27.126
X52.628Y-21.893
X54.58Y-16.434
X55.967Y-10.805
X56.775Y-5.064
X56.996Y0.729
X56.627Y6.515
X55.672Y12.233
X54.142Y17.825
X52.051Y23.232
X49.422Y28.399
X46.281Y33.273
X42.662Y37.802
X38.601Y41.94
X34.141Y45.644
X29.328Y48.876
X24.212Y51.603
X18.845Y53.795
X13.283Y55.431
X7.583Y56.494
X1.805Y56.972
X-3.99Y56.861
X-9.745Y56.161
X-15.4Y54.881
X-20.895Y53.033
X-26.174Y50.636
X-31.182Y47.715
X-35.868Y44.301
X-40.182Y40.428
X-44.081Y36.138
X-47.524Y31.473
X-50.475Y26.483
X-52.904Y21.218
X-54.786Y15.735
X-56.101Y10.088
X-56.836Y4.337
X-57Y0.341
Y0
X-60
X-59.679Y-6.188
X-58.723Y-12.311
X-57.14Y-18.303
X-54.947Y-24.099
X-52.168Y-29.639
X-48.832Y-34.862
X-44.976Y-39.713
X-40.64Y-44.14
X-35.87Y-48.097
X-30.717Y-51.54
X-25.237Y-54.434
X-19.487Y-56.747
X-13.53Y-58.454
X-7.428Y-59.538
X-1.247Y-59.987
X4.946Y-59.796
X11.088Y-58.966
X17.111Y-57.508
X22.952Y-55.436
X28.548Y-52.773
X33.839Y-49.547
X38.769Y-45.792
X43.286Y-41.549
X47.341Y-36.862
X50.784Y-31.952
X53.809Y-26.543
X56.26Y-20.851
X58.111Y-14.936
X59.342Y-8.863
X59.94Y-2.694
X59.898Y3.502
X59.217Y9.662
X57.905Y15.719
X55.974Y21.608
X53.447Y27.266
X50.349Y32.634
X46.715Y37.653
X42.581Y42.271
X37.994Y46.438
X33.001Y50.109
X27.656Y53.246
X22.017Y55.815
X16.142Y57.788
X10.095Y59.145
X3.94Y59.871
X-2.256Y59.958
X-8.428Y59.406
X-14.511Y58.219
X-20.439Y56.412
X-26.149Y54.003
X-31.58Y51.017
X-36.674Y47.488
X-41.377Y43.452
X-45.638Y38.952
X-49.413Y34.036
X-52.66Y28.758
X-55.345Y23.173
X-57.441Y17.34
X-58.923Y11.323
X-59.776Y5.184
X-60Y0.391
Y0
X-63
X-62.675Y-6.388
X-61.703Y-12.712
X-60.096Y-18.904
X-57.869Y-24.901
X-55.045Y-30.641
X-51.654Y-36.065
X-47.73Y-41.118
X-43.314Y-45.746
X-38.452Y-49.903
X-33.192Y-53.545
X-27.591Y-56.635
X-21.705Y-59.141
X-15.596Y-61.038
X-9.325Y-62.305
X-2.959Y-62.929
X3.438Y-62.905
X9.799Y-62.231
X16.06Y-60.917
X22.155Y-58.974
X28.021Y-56.423
X33.599Y-53.29
X38.83Y-49.608
X43.661Y-45.414
X48.041Y-40.752
X51.926Y-35.67
X55.276Y-30.22
X58.056Y-24.459
X60.237Y-18.445
X61.797Y-12.241
X62.72Y-5.911
X62.996Y0.479
X62.622Y6.865
X61.603Y13.181
X59.948Y19.36
X57.676Y25.34
X54.809Y31.058
X51.376Y36.456
X47.414Y41.479
X42.963Y46.073
X38.069Y50.193
X32.783Y53.795
X27.158Y56.842
X21.254Y59.303
X15.13Y61.153
X8.85Y62.372
X2.479Y62.948
X-3.916Y62.874
X-10.272Y62.153
X-16.523Y60.791
X-22.602Y58.802
X-28.449Y56.206
X-34.002Y53.031
X-39.205Y49.309
X-44.004Y45.079
X-48.348Y40.384
X-52.195Y35.273
X-55.503Y29.798
X-58.238Y24.015
X-60.374Y17.985
X-61.886Y11.77
X-62.761Y5.433
X-63Y0
X-63.4
X-63.6Z-2.49F500
X-65.6Z-9.954
X-65.64Z-10
X-66F1000
X-65.649Y-6.787
X-64.644Y-13.308
X-62.932Y-19.886
X-60.553Y-26.253
X-57.532Y-32.341
X-53.901Y-38.087
X-49.698Y-43.429
X-44.968Y-48.31
X-39.76Y-52.678
X-34.132Y-56.488
X-28.141Y-59.699
X-21.852Y-62.277
X-15.331Y-64.194
X-8.647Y-65.431
X-1.872Y-65.973
X4.922Y-65.816
X11.665Y-64.96
X18.285Y-63.416
X24.71Y-61.199
X30.873Y-58.333
X36.709Y-54.849
X42.155Y-50.782
X47.155Y-46.177
X51.654Y-41.083
X55.605Y-35.552
X58.967Y-29.645
X61.703Y-23.423
X63.785Y-16.952
X65.19Y-10.302
X65.893Y-3.743
X65.929Y3.053
X65.265Y9.818
X63.909Y16.478
X61.875Y22.964
X59.186Y29.206
X55.868Y35.138
X51.958Y40.698
X47.496Y45.826
X42.531Y50.468
X37.115Y54.574
X31.306Y58.102
X25.164Y61.014
X18.755Y63.278
X12.148Y64.872
X5.61Y65.761
X-1.182Y65.989
X-7.962Y65.517
X-14.463Y64.395
X-21.01Y62.566
X-27.333Y60.073
X-33.367Y56.944
X-39.046Y53.21
X-44.312Y48.912
X-49.107Y44.095
X-53.382Y38.81
X-57.091Y33.114
X-60.194Y27.067
X-62.658Y20.733
X-64.458Y14.178
X-65.575Y7.474
X-65.996Y0.69
X-66Y0
X-68.999
X-68.645Y-6.988
X-67.584Y-13.904
X-65.829Y-20.677
X-63.396Y-27.237
X-60.312Y-33.518
X-56.607Y-39.454
X-52.32Y-44.984
X-47.495Y-50.051
X-42.182Y-54.604
X-36.435Y-58.596
X-30.314Y-61.985
X-23.88Y-64.736
X-17.201Y-66.822
X-10.345Y-68.22
X-3.383Y-68.917
X3.613Y-68.906
X10.573Y-68.186
X17.424Y-66.764
X24.096Y-64.656
X30.52Y-61.884
X36.631Y-58.474
X42.365Y-54.464
X47.663Y-49.893
X52.471Y-44.81
X56.739Y-39.265
X60.424Y-33.317
X63.488Y-27.026
X65.899Y-20.458
X67.632Y-13.679
X68.67Y-6.759
X69.001Y0.23
X68.623Y7.217
X67.539Y14.129
X65.761Y20.897
X63.307Y27.45
X60.201Y33.72
X56.477Y39.643
X52.171Y45.159
X47.33Y50.211
X42.001Y54.746
X36.241Y58.719
X30.108Y62.087
X23.665Y64.817
X16.979Y66.881
X10.118Y68.256
X3.153Y68.93
X-3.843Y68.895
X-10.801Y68.152
X-17.647Y66.708
X-24.312Y64.578
X-30.728Y61.783
X-36.827Y58.354
X-42.547Y54.324
X-47.83Y49.736
X-52.622Y44.636
X-56.872Y39.077
X-60.537Y33.116
X-63.58Y26.815
X-65.969Y20.238
X-67.679Y13.453
X-68.694Y6.53
X-69.003Y0.339
X-68.999Y0
X-71.999
X-71.62Y-7.386
X-70.484Y-14.695
X-68.604Y-21.849
X-66Y-28.773
X-62.7Y-35.392
X-58.738Y-41.638
X-54.156Y-47.445
X-49.002Y-52.751
X-43.331Y-57.5
X-37.203Y-61.642
X-30.683Y-65.134
X-23.838Y-67.938
X-16.742Y-70.025
X-9.469Y-71.373
X-2.097Y-71.968
X5.297Y-71.804
X12.636Y-70.881
X19.842Y-69.211
X26.838Y-66.81
X33.551Y-63.704
X39.91Y-59.925
X45.847Y-55.514
X51.301Y-50.517
X56.213Y-44.987
X60.532Y-38.983
X64.212Y-32.566
X67.215Y-25.807
X69.508Y-18.774
X71.067Y-11.544
X71.876Y-4.192
X71.927Y3.204
X71.219Y10.566
X69.759Y17.818
X67.563Y24.881
X64.653Y31.681
X61.062Y38.147
X56.826Y44.211
X51.99Y49.808
X46.605Y54.879
X40.729Y59.371
X34.423Y63.236
X27.753Y66.434
X20.791Y68.931
X13.609Y70.7
X6.283Y71.723
X-1.107Y71.99
X-8.289Y71.519
X-15.583Y70.291
X-22.712Y68.322
X-29.602Y65.631
X-36.18Y62.247
X-42.375Y58.207
X-48.123Y53.552
X-53.364Y48.332
X-58.041Y42.602
X-62.105Y36.422
X-65.514Y29.858
X-68.232Y22.979
X-70.23Y15.857
X-71.486Y8.568
X-71.988Y1.189
X-71.999Y0
X-75
X-74.615Y-7.586
X-73.464Y-15.096
X-71.56Y-22.45
X-68.922Y-29.574
X-65.577Y-36.394
X-61.559Y-42.841
X-56.909Y-48.849
X-51.675Y-54.355
X-45.912Y-59.304
X-39.677Y-63.644
X-33.035Y-67.331
X-26.054Y-70.328
X-18.806Y-72.602
X-11.365Y-74.132
X-3.808Y-74.902
X3.788Y-74.903
X11.346Y-74.135
X18.787Y-72.607
X26.036Y-70.334
X33.017Y-67.339
X39.66Y-63.654
X45.896Y-59.315
X51.661Y-54.368
X56.895Y-48.863
X61.546Y-42.857
X65.566Y-36.411
X68.913Y-29.591
X71.553Y-22.468
X73.459Y-15.114
X74.611Y-7.606
X74.997Y-0.019
X74.615Y7.567
X73.466Y15.076
X71.564Y22.431
X68.928Y29.555
X65.584Y36.376
X61.568Y42.824
X56.92Y48.833
X51.688Y54.34
X45.926Y59.29
X39.692Y63.632
X33.051Y67.321
X26.072Y70.319
X18.824Y72.596
X11.384Y74.128
X3.827Y74.899
X-3.769Y74.902
X-11.326Y74.136
X-18.768Y72.61
X-26.017Y70.339
X-32.999Y67.346
X-39.642Y63.662
X-45.879Y59.325
X-51.645Y54.38
X-56.881Y48.876
X-61.534Y42.871
X-65.555Y36.427
X-68.904Y29.608
X-71.545Y22.486
X-73.453Y15.133
X-74.607Y7.625
X-75Y0
X-78
X-77.59Y-7.985
X-76.364Y-15.888
X-74.336Y-23.623
X-71.527Y-31.109
X-67.966Y-38.269
X-63.691Y-45.027
X-58.746Y-51.311
X-53.184Y-57.056
X-47.063Y-62.202
X-40.447Y-66.693
X-33.406Y-70.484
X-26.014Y-73.534
X-18.348Y-75.811
X-10.49Y-77.291
X-2.521Y-77.959
X5.473Y-77.808
X13.213Y-76.873
X21.015Y-75.116
X28.595Y-72.57
X35.875Y-69.261
X42.777Y-65.224
X49.231Y-60.501
X55.166Y-55.143
X60.522Y-49.205
X65.242Y-42.749
X69.276Y-35.845
X72.582Y-28.564
X75.125Y-20.982
X76.879Y-13.18
X77.824Y-5.24
X77.952Y2.755
X77.26Y10.721
X75.757Y18.575
X73.457Y26.234
X70.385Y33.617
X66.573Y40.647
X62.061Y47.249
X56.898Y53.355
X51.136Y58.9
X44.837Y63.826
X38.066Y68.082
X30.896Y71.621
X23.4Y74.408
X15.659Y76.413
X7.753Y77.615
X-0.233Y78.001
X-8.218Y77.567
X-16.117Y76.318
X-23.846Y74.267
X-31.324Y71.435
X-38.474Y67.853
X-45.218Y63.557
X-51.488Y58.593
X-57.217Y53.014
X-62.344Y46.877
X-66.816Y40.248
X-70.585Y33.195
X-73.613Y25.794
X-75.867Y18.121
X-77.324Y10.258
X-77.968Y2.288
X-78Y0
X-81
X-80.585Y-8.186
X-79.345Y-16.288
X-77.293Y-24.223
X-74.449Y-31.91
X-70.843Y-39.271
X-66.511Y-46.23
X-61.499Y-52.715
X-55.856Y-58.66
X-49.642Y-64.005
X-42.919Y-68.694
X-35.757Y-72.68
X-28.229Y-75.921
X-20.412Y-78.386
X-12.385Y-80.047
X-4.232Y-80.889
X3.963Y-80.903
X12.119Y-80.088
X20.151Y-78.453
X27.977Y-76.015
X35.516Y-72.798
X42.691Y-68.836
X49.429Y-64.169
X55.661Y-58.845
X61.323Y-52.919
X66.358Y-46.45
X70.712Y-39.506
X74.343Y-32.158
X77.212Y-24.48
X79.291Y-16.551
X80.558Y-8.453
X81Y-0.269
X80.612Y7.918
X79.399Y16.024
X77.373Y23.966
X74.555Y31.663
X70.973Y39.036
X66.665Y46.009
X61.674Y52.511
X56.051Y58.475
X49.855Y63.84
X43.148Y68.552
X35.999Y72.561
X28.481Y75.828
X20.672Y78.318
X12.651Y80.006
X4.501Y80.875
X-3.695Y80.916
X-11.853Y80.128
X-19.891Y78.52
X-27.724Y76.108
X-35.274Y72.917
X-42.463Y68.978
X-49.216Y64.334
X-55.466Y59.031
X-61.148Y53.123
X-66.203Y46.671
X-70.581Y39.741
X-74.236Y32.405
X-77.131Y24.736
X-79.236Y16.815
X-80.53Y8.721
X-80.999Y0.538
X-81Y0
X-83.999
X-83.56Y-8.584
X-82.285Y-16.884
X-80.128Y-25.205
X-77.133Y-33.262
X-73.329Y-40.971
X-68.758Y-48.251
X-63.466Y-55.026
X-57.51Y-61.224
X-50.952Y-66.781
X-43.86Y-71.639
X-36.308Y-75.746
X-28.377Y-79.06
X-20.148Y-81.546
X-11.708Y-83.178
X-3.146Y-83.939
X5.449Y-83.821
X13.987Y-82.825
X22.379Y-80.962
X30.536Y-78.251
X38.373Y-74.72
X45.809Y-70.407
X52.765Y-65.356
X59.168Y-59.621
X64.952Y-53.262
X70.055Y-46.344
X74.425Y-38.942
X78.015Y-31.132
X80.788Y-22.995
X82.715Y-14.618
X83.776Y-6.088
X83.959Y2.505
X83.264Y11.073
X81.696Y19.525
X79.272Y27.772
X76.019Y35.728
X71.969Y43.311
X67.166Y50.439
X61.659Y57.04
X55.506Y63.043
X48.772Y68.385
X41.528Y73.012
X33.848Y76.874
X25.814Y79.93
X17.706Y82.108
X9.221Y83.488
X0.64Y83.993
X-7.946Y83.619
X-16.451Y82.368
X-24.783Y80.256
X-32.856Y77.302
X-40.584Y73.54
X-47.723Y69.12
X-54.537Y63.881
X-60.781Y57.973
X-66.387Y51.457
X-71.298Y44.402
X-75.463Y36.883
X-78.837Y28.977
X-81.386Y20.768
X-83.082Y12.341
X-83.909Y3.786
X-83.999Y0
X-86.999
X-86.555Y-8.785
X-85.225Y-17.48
X-83.025Y-25.996
X-79.975Y-34.247
X-76.109Y-42.148
X-71.464Y-49.618
X-66.088Y-56.58
X-60.037Y-62.965
X-53.372Y-68.705
X-46.162Y-73.744
X-38.479Y-78.028
X-30.404Y-81.515
X-22.017Y-84.168
X-13.405Y-85.962
X-4.657Y-86.876
X4.139Y-86.902
X12.893Y-86.04
X21.515Y-84.298
X29.917Y-81.695
X38.014Y-78.256
X45.722Y-74.018
X52.962Y-69.023
X59.661Y-63.322
X65.75Y-56.974
X71.168Y-50.044
X75.857Y-42.601
X79.771Y-34.724
X82.87Y-26.491
X85.122Y-17.988
X86.503Y-9.301
X87Y-0.518
X86.608Y8.269
X85.33Y16.972
X83.18Y25.501
X80.18Y33.771
X76.36Y41.694
X71.76Y49.192
X66.426Y56.187
X60.413Y62.607
X53.782Y68.388
X46.602Y73.469
X38.945Y77.799
X30.89Y81.334
X22.519Y84.038
X13.918Y85.882
X5.175Y86.849
X-3.621Y86.927
X-12.38Y86.117
X-21.013Y84.427
X-29.43Y81.874
X-37.548Y78.484
X-45.281Y74.291
X-52.551Y69.339
X-59.284Y63.678
X-65.411Y57.366
X-70.87Y50.468
X-75.604Y43.054
X-79.565Y35.2
X-82.713Y26.985
X-85.015Y18.495
X-86.448Y9.816
X-86.998Y1.037
X-86.999Y0
X-90
X-89.53Y-9.183
X-88.125Y-18.272
X-85.801Y-27.169
X-82.581Y-35.783
X-78.498Y-44.023
X-73.596Y-51.804
X-67.926Y-59.043
X-61.546Y-65.667
X-54.524Y-71.604
X-46.932Y-76.795
X-38.851Y-81.183
X-30.364Y-84.724
X-21.56Y-87.38
X-12.531Y-89.124
X-3.37Y-89.938
X5.824Y-89.813
X14.958Y-88.75
X23.937Y-86.76
X32.665Y-83.865
X41.053Y-80.094
X49.012Y-75.486
X56.459Y-70.091
X63.317Y-63.964
X69.386Y-57.323
X74.874Y-49.943
X79.579Y-42.042
X83.454Y-33.702
X86.458Y-25.01
X88.559Y-16.057
X89.735Y-6.936
X89.975Y2.256
X89.275Y11.426
X87.643Y20.476
X85.161Y29.124
X81.745Y37.662
X77.475Y45.807
X72.396Y53.474
X66.561Y60.582
X60.032Y67.058
X52.876Y72.834
X45.34Y77.749
X37.17Y81.97
X28.611Y85.336
X19.754Y87.81
X10.69Y89.367
X1.515Y89.992
X-7.675Y89.677
X-16.786Y88.426
X-25.722Y86.251
X-34.39Y83.176
X-42.698Y79.233
X-50.56Y74.462
X-57.895Y68.914
X-64.625Y62.646
X-70.681Y55.725
X-75.998Y48.221
X-80.522Y40.215
X-84.135Y31.975
X-86.907Y23.416
X-88.843Y14.425
X-89.851Y5.284
X-90.006Y0.286
X-90Y0
X-93
X-92.525Y-9.383
X-91.106Y-18.672
X-88.756Y-27.769
X-85.501Y-36.583
X-81.373Y-45.024
X-76.415Y-53.005
X-70.676Y-60.445
X-64.217Y-67.268
X-57.101Y-73.404
X-49.403Y-78.792
X-41.2Y-83.374
X-32.577Y-87.106
X-23.622Y-89.949
X-14.425Y-91.873
X-5.081Y-92.86
X4.314Y-92.898
X13.666Y-91.989
X22.878Y-90.14
X31.857Y-87.372
X40.51Y-83.711
X48.75Y-79.196
X56.493Y-73.873
X63.658Y-67.796
X70.174Y-61.026
X75.974Y-53.634
X80.998Y-45.694
X85.195Y-37.288
X88.523Y-28.501
X90.947Y-19.423
X92.442Y-10.147
X92.994Y-0.768
X92.597Y8.619
X91.255Y17.918
X88.981Y27.035
X85.799Y35.875
X81.741Y44.35
X76.849Y52.371
X71.172Y59.858
X64.769Y66.734
X57.704Y72.929
X50.051Y78.379
X41.887Y83.03
X33.295Y86.832
X24.363Y89.749
X15.183Y91.749
X5.848Y92.813
X-3.546Y92.929
X-12.905Y92.097
X-22.132Y90.324
X-31.133Y87.63
X-39.817Y84.041
X-48.093Y79.595
X-55.879Y74.336
X-63.095Y68.318
X-69.666Y61.602
X-75.527Y54.258
X-80.616Y46.36
X-84.882Y37.989
X-88.282Y29.23
X-90.781Y20.173
X-92.354Y10.91
X-92.983Y1.536
X-93Y0
X-94.2Z-9.997
X-96Z-3.299
X-95.964Y-2.599Z-2.794
X-95.859Y-5.197Z-2.553
X-95.683Y-7.791Z-2.575
X-95.437Y-10.379Z-2.86
X-95.174Y-12.563Z-3.29
X-94.799Y-15.136Z-2.789
X-94.354Y-17.698Z-2.551
X-93.84Y-20.246Z-2.576
X-93.258Y-22.78Z-2.865
X-92.763Y-24.718Z-3.266
X-92.711Y-24.911Z-3.281
X-92.003Y-27.413Z-2.784
X-91.227Y-29.894Z-2.549
X-90.384Y-32.354Z-2.577
X-89.474Y-34.789Z-2.869
X-88.73Y-36.646Z-3.273
X-88.654Y-36.83
X-87.624Y-39.218Z-2.778
X-86.53Y-41.576Z-2.547
X-85.372Y-43.904Z-2.579
X-84.152Y-46.2Z-2.874
X-83.171Y-47.943Z-3.281
X-83.071Y-48.116Z-3.264
X-81.738Y-50.348Z-2.773
X-80.344Y-52.543Z-2.545
X-78.892Y-54.7Z-2.581
X-77.382Y-56.816Z-2.879
X-76.181Y-58.416Z-3.288
X-74.445Y-60.613Z-2.768
X-72.777Y-62.606Z-2.543
X-71.055Y-64.554Z-2.582
X-69.28Y-66.455Z-2.885
X-67.881Y-67.884Z-3.295
X-66.018Y-69.697Z-2.791
X-64.106Y-71.459Z-2.549
X-62.148Y-73.169Z-2.572
X-60.143Y-74.825Z-2.857
X-58.413Y-76.184Z-3.286
X-56.329Y-77.738Z-2.785
X-54.203Y-79.235Z-2.548
X-52.037Y-80.673Z-2.573
X-49.834Y-82.053Z-2.862
X-48.113Y-83.073Z-3.263
X-47.94Y-83.173Z-3.278
X-45.67Y-84.441Z-2.78
X-43.367Y-85.647Z-2.546
X-41.032Y-86.79Z-2.574
X-38.666Y-87.869Z-2.867
X-36.828Y-88.656Z-3.27
X-36.643Y-88.732Z-3.269
X-34.226Y-89.692Z-2.775
X-31.785Y-90.586Z-2.544
X-29.32Y-91.414Z-2.576
X-26.834Y-92.174Z-2.871
X-24.908Y-92.713Z-3.278
X-24.715Y-92.765Z-3.26
X-22.194Y-93.4Z-2.77
X-19.656Y-93.967Z-2.542
X-17.104Y-94.465Z-2.578
X-14.54Y-94.893Z-2.876
X-12.56Y-95.176Z-3.285
X-9.779Y-95.502Z-2.764
X-7.189Y-95.732Z-2.54
X-4.594Y-95.891Z-2.579
X-1.996Y-95.98Z-2.882
X0.003Y-96.001Z-3.292
X2.603Y-95.966Z-2.787
X5.201Y-95.86Z-2.546
X7.795Y-95.684Z-2.569
X10.383Y-95.438Z-2.854
X12.567Y-95.175Z-3.283
X15.14Y-94.8Z-2.782
X17.701Y-94.355Z-2.544
X20.25Y-93.841Z-2.57
X22.784Y-93.258Z-2.859
X24.722Y-92.764Z-3.26
X24.915Y-92.712Z-3.274
X27.417Y-92.003Z-2.777
X29.898Y-91.227Z-2.543
X32.357Y-90.384Z-2.572
X34.793Y-89.475Z-2.864
X36.65Y-88.73Z-3.268
X36.834Y-88.654Z-3.266
X39.222Y-87.624Z-2.772
X41.58Y-86.53Z-2.541
X43.908Y-85.372Z-2.573
X46.204Y-84.152Z-2.869
X47.947Y-83.171Z-3.275
X48.12Y-83.071Z-3.257
X50.352Y-81.737Z-2.766
X52.547Y-80.344Z-2.539
X54.704Y-78.891Z-2.575
X56.82Y-77.381Z-2.874
X58.42Y-76.181Z-3.283
X60.616Y-74.444Z-2.761
X62.61Y-72.776Z-2.537
X64.558Y-71.053Z-2.576
X66.458Y-69.279Z-2.879
X67.887Y-67.88Z-3.288
X69.701Y-66.016Z-2.784
X71.463Y-64.105Z-2.543
X73.173Y-62.146Z-2.565
X74.829Y-60.142Z-2.851
X76.187Y-58.411Z-3.279
X77.741Y-56.327Z-2.779
X79.238Y-54.201Z-2.541
X80.677Y-52.035Z-2.567
X82.056Y-49.831Z-2.856
X83.077Y-48.111Z-3.257
X83.177Y-47.938Z-3.271
X84.444Y-45.668Z-2.773
X85.65Y-43.365Z-2.539
X86.793Y-41.029Z-2.568
X87.872Y-38.664Z-2.861
X88.659Y-36.825Z-3.265
X88.735Y-36.64Z-3.262
X89.695Y-34.224Z-2.768
X90.589Y-31.782Z-2.537
X91.416Y-29.317Z-2.57
X92.177Y-26.831Z-2.866
X92.716Y-24.905Z-3.272
X92.767Y-24.712Z-3.253
X93.403Y-22.191Z-2.763
X93.969Y-19.653Z-2.535
X94.467Y-17.101Z-2.571
X94.896Y-14.537Z-2.871
X95.178Y-12.557Z-3.28
X95.504Y-9.776Z-2.757
X95.734Y-7.186Z-2.533
X95.893Y-4.591Z-2.573
X95.982Y-1.992Z-2.876
X96.003Y0.007Z-3.284
X95.967Y2.606Z-2.781
X95.862Y5.204Z-2.54
X95.686Y7.798Z-2.563
X95.439Y10.387Z-2.849
X95.202Y12.373Z-3.247
X95.176Y12.571Z-3.276
X94.801Y15.144Z-2.775
X94.356Y17.705Z-2.538
X93.842Y20.254Z-2.564
X93.259Y22.788Z-2.853
X92.764Y24.726Z-3.255
X92.713Y24.919Z-3.267
X92.004Y27.42Z-2.77
X91.227Y29.902Z-2.536
X90.384Y32.361Z-2.565
X89.475Y34.797Z-2.858
X88.731Y36.654Z-3.262
X88.654Y36.838Z-3.259
X87.624Y39.226Z-2.765
X86.53Y41.584Z-2.534
X85.372Y43.912Z-2.567
X84.151Y46.208Z-2.863
X83.17Y47.951Z-3.27
X83.07Y48.124Z-3.25
X81.737Y50.356Z-2.76
X80.343Y52.551Z-2.532
X78.891Y54.707Z-2.569
X77.38Y56.824Z-2.868
X76.18Y58.423Z-3.278
X74.443Y60.62Z-2.754
X72.775Y62.614Z-2.531
X71.052Y64.562Z-2.57
X69.278Y66.462Z-2.873
X67.878Y67.891Z-3.281
X66.015Y69.704Z-2.777
X64.103Y71.466Z-2.537
X62.144Y73.176Z-2.559
X60.14Y74.832Z-2.845
X58.568Y76.069Z-3.244
X58.409Y76.191Z-3.272
X56.325Y77.745Z-2.772
X54.199Y79.241Z-2.535
X52.033Y80.68Z-2.561
X49.829Y82.06Z-2.85
X48.109Y83.08Z-3.252
X47.936Y83.18Z-3.263
X45.666Y84.447Z-2.767
X43.362Y85.653Z-2.533
X41.027Y86.796Z-2.562
X38.661Y87.875Z-2.855
X36.822Y88.662Z-3.26
X36.637Y88.738Z-3.255
X34.221Y89.698Z-2.761
X31.779Y90.592Z-2.531
X29.314Y91.419Z-2.564
X26.828Y92.179Z-2.86
X24.902Y92.718Z-3.267
X24.709Y92.77Z-3.246
X22.187Y93.405Z-2.756
X19.65Y93.972Z-2.529
X17.098Y94.469Z-2.566
X14.533Y94.898Z-2.865
X12.553Y95.18Z-3.275
X9.772Y95.506Z-2.751
X7.182Y95.735Z-2.527
X4.587Y95.895Z-2.567
X1.989Y95.984Z-2.87
X-0.01Y96.004Z-3.277
X-2.61Y95.969Z-2.774
X-5.208Y95.863Z-2.534
X-7.802Y95.687Z-2.557
X-10.39Y95.44Z-2.843
X-12.376Y95.203Z-3.242
X-12.575Y95.177Z-3.269
X-15.147Y94.802Z-2.769
X-17.709Y94.357Z-2.532
X-20.258Y93.843Z-2.558
X-22.792Y93.26Z-2.848
X-24.73Y92.765Z-3.25
X-24.923Y92.713Z-3.26
X-27.424Y92.004Z-2.764
X-29.906Y91.228Z-2.53
X-32.365Y90.385Z-2.56
X-34.801Y89.475Z-2.853
X-36.657Y88.731Z-3.257
X-36.842Y88.654Z-3.252
X-39.23Y87.624Z-2.758
X-41.588Y86.529Z-2.528
X-43.916Y85.372Z-2.561
X-46.212Y84.151Z-2.858
X-47.955Y83.17Z-3.265
X-48.128Y83.07Z-3.243
X-50.36Y81.736Z-2.753
X-52.555Y80.342Z-2.526
X-54.711Y78.89Z-2.563
X-56.828Y77.379Z-2.863
X-58.427Y76.179Z-3.272
X-60.624Y74.442Z-2.748
X-62.618Y72.773Z-2.525
X-64.566Y71.051Z-2.564
X-66.466Y69.277Z-2.868
X-67.895Y67.877Z-3.274
X-69.708Y66.013Z-2.771
X-71.47Y64.102Z-2.53
X-73.18Y62.143Z-2.554
X-74.836Y60.138Z-2.84
X-76.072Y58.566Z-3.239
X-76.194Y58.408Z-3.265
X-77.748Y56.323Z-2.765
X-79.245Y54.197Z-2.528
X-80.683Y52.031Z-2.555
X-82.063Y49.827Z-2.845
X-83.083Y48.107Z-3.247
X-83.183Y47.933Z-3.257
X-84.451Y45.663Z-2.76
X-85.656Y43.36Z-2.527
X-86.799Y41.024Z-2.557
X-87.878Y38.659Z-2.85
X-88.664Y36.819Z-3.254
X-88.741Y36.635Z-3.248
X-89.701Y34.218Z-2.755
X-90.594Y31.776Z-2.525
X-91.422Y29.312Z-2.558
X-92.182Y26.825Z-2.855
X-92.721Y24.899Z-3.262
X-92.772Y24.706Z-3.239
X-93.407Y22.184Z-2.75
X-93.974Y19.647Z-2.523
X-94.472Y17.095Z-2.56
X-94.9Y14.53Z-2.86
X-95.182Y12.55Z-3.27
X-95.508Y9.769Z-2.744
X-95.737Y7.179Z-2.521
X-95.897Y4.584Z-2.561
X-95.986Y1.985Z-2.865
X-96.005Y0.385Z-3.183
X-96Y0Z-3.299
X-96.2Z-2.552
X-96.4Z-1.943
X-98.999
X-98.495Y-9.983
X-96.986Y-19.864
X-94.489Y-29.543
X-91.028Y-38.92
X-86.64Y-47.901
X-81.368Y-56.394
X-75.266Y-64.311
X-68.398Y-71.573
X-60.832Y-78.106
X-52.646Y-83.842
X-43.923Y-88.723
X-34.752Y-92.7
X-25.227Y-95.732
X-15.445Y-97.788
X-5.506Y-98.847
X4.489Y-98.899
X14.439Y-97.942
X24.242Y-95.987
X33.797Y-93.053
X43.009Y-89.17
X51.781Y-84.379
X60.026Y-78.727
X67.659Y-72.273
X74.602Y-65.082
X80.785Y-57.228
X86.144Y-48.79
X90.625Y-39.854
X94.182Y-30.513
X96.779Y-20.86
X98.389Y-10.995
X98.996Y-1.017
X98.594Y8.97
X97.187Y18.866
X94.789Y28.57
X91.425Y37.983
X87.129Y47.009
X81.945Y55.555
X75.925Y63.535
X69.131Y70.868
X61.633Y77.478
X53.506Y83.298
X44.833Y88.269
X35.704Y92.34
X26.21Y95.47
X16.45Y97.626
X6.521Y98.787
X-3.472Y98.942
X-13.432Y98.087
X-23.254Y96.233
X-32.84Y93.397
X-42.091Y89.61
X-50.912Y84.908
X-59.215Y79.342
X-66.914Y72.966
X-73.931Y65.847
X-80.194Y58.056
X-85.639Y49.674
X-90.212Y40.785
X-93.865Y31.48
X-96.561Y21.854
X-98.273Y12.006
X-98.982Y2.035
X-98.999Y0
X-101.999
X-101.47Y-10.382
X-99.926Y-20.46
X-97.325Y-30.525
X-93.713Y-40.272
X-89.127Y-49.602
X-83.615Y-58.416
X-77.235Y-66.623
X-70.053Y-74.139
X-62.143Y-80.884
X-53.588Y-86.789
X-44.475Y-91.793
X-34.901Y-95.843
X-24.965Y-98.898
X-14.769Y-100.926
X-4.419Y-101.905
X5.975Y-101.826
X16.308Y-100.689
X26.472Y-98.506
X36.361Y-95.3
X45.872Y-91.104
X54.907Y-85.962
X63.371Y-79.927
X71.178Y-73.061
X78.245Y-65.437
X84.499Y-57.133
X89.875Y-48.236
X94.318Y-38.837
X97.782Y-29.035
X100.192Y-19.128
X101.619Y-8.831
X101.99Y1.557
X101.302Y11.93
X99.561Y22.179
X96.787Y32.198
X93.007Y41.882
X88.261Y51.131
X82.598Y59.849
X76.078Y67.946
X68.767Y75.336
X60.742Y81.945
X52.085Y87.702
X42.888Y92.548
X33.435Y96.367
X23.452Y99.27
X13.226Y101.142
X2.863Y101.963
X-7.529Y101.725
X-17.844Y100.43
X-27.974Y98.092
X-37.813Y94.736
X-47.259Y90.395
X-56.215Y85.115
X-64.586Y78.951
X-72.287Y71.967
X-79.237Y64.236
X-85.363Y55.837
X-90.604Y46.859
X-94.903Y37.393
X-98.216Y27.539
X-100.509Y17.4
X-101.758Y7.079
X-102.004Y0.284
X-101.999Y0
X-105
X-104.465Y-10.582
X-102.867Y-21.056
X-100.221Y-31.316
X-96.555Y-41.257
X-91.906Y-50.778
X-86.32Y-59.782
X-79.856Y-68.177
X-72.579Y-75.878
X-64.562Y-82.806
X-55.888Y-88.892
X-46.645Y-94.072
X-36.927Y-98.294
X-26.833Y-101.515
X-16.465Y-103.703
X-5.93Y-104.834
X4.664Y-104.898
X15.213Y-103.894
X25.606Y-101.832
X35.738Y-98.733
X45.507Y-94.629
X54.812Y-89.561
X63.559Y-83.581
X71.659Y-76.75
X79.029Y-69.137
X85.595Y-60.821
X91.289Y-51.885
X96.053Y-42.42
X99.839Y-32.524
X102.609Y-22.297
X104.334Y-11.842
X104.996Y-1.267
X104.59Y9.32
X103.118Y19.814
X100.596Y30.105
X97.05Y40.09
X92.516Y49.667
X87.039Y58.738
X80.676Y67.211
X73.492Y75
X65.559Y82.025
X56.959Y88.214
X47.779Y93.506
X38.112Y97.845
X28.057Y101.188
X17.716Y103.501
X7.195Y104.759
X-3.398Y104.951
X-13.958Y104.075
X-24.376Y102.138
X-34.545Y99.162
X-44.363Y95.175
X-53.729Y90.22
X-62.548Y84.346
X-70.731Y77.612
X-78.192Y70.089
X-84.858Y61.852
X-90.66Y52.985
X-95.538Y43.578
X-99.444Y33.728
X-102.337Y23.534
X-104.188Y13.101
X-104.978Y2.534
X-105.008Y0.334
X-105Y0
X-108
X-107.44Y-10.98
X-105.766Y-21.848
X-102.997Y-32.488
X-99.159Y-42.792
X-94.294Y-52.653
X-88.452Y-61.967
X-81.693Y-70.639
X-74.087Y-78.58
X-65.714Y-85.705
X-56.659Y-91.943
X-47.017Y-97.227
X-37.075Y-101.435
X-26.57Y-104.679
X-15.788Y-106.838
X-4.844Y-107.889
X6.15Y-107.823
X17.081Y-106.638
X27.835Y-104.349
X38.301Y-100.978
X48.369Y-96.56
X57.937Y-91.142
X66.903Y-84.778
X75.176Y-77.537
X82.67Y-69.491
X89.307Y-60.725
X95.019Y-51.33
X99.745Y-41.403
X103.438Y-31.046
X106.021Y-20.565
X107.562Y-9.678
X107.989Y1.307
X107.296Y12.281
X105.491Y23.126
X102.593Y33.732
X98.631Y43.989
X93.647Y53.789
X87.693Y63.032
X80.962Y71.472
X73.275Y79.333
X64.829Y86.373
X55.711Y92.517
X46.016Y97.702
X35.843Y101.874
X25.299Y104.99
X14.493Y107.018
X3.537Y107.937
X-7.455Y107.738
X-18.371Y106.421
X-29.096Y104.002
X-39.52Y100.504
X-49.534Y95.965
X-59.035Y90.431
X-67.923Y83.96
X-76.108Y76.618
X-83.504Y68.483
X-90.034Y59.637
X-95.631Y50.174
X-100.237Y40.191
X-103.804Y29.791
X-106.295Y19.082
X-107.684Y8.175
X-108Y0
X-111
X-110.435Y-11.181
X-108.747Y-22.248
X-105.953Y-33.089
X-102.081Y-43.593
X-97.171Y-53.654
X-91.272Y-63.169
X-84.445Y-72.042
X-76.759Y-80.182
X-68.291Y-87.506
X-59.13Y-93.94
X-49.366Y-99.418
X-39.101Y-103.886
X-28.438Y-107.296
X-17.485Y-109.615
X-6.355Y-110.819
X4.84Y-110.895
X15.985Y-109.844
X26.969Y-107.675
X37.678Y-104.411
X48.003Y-100.084
X57.841Y-94.74
X67.09Y-88.432
X75.656Y-81.224
X83.453Y-73.19
X90.401Y-64.412
X96.43Y-54.978
X101.477Y-44.985
X105.493Y-34.534
X108.435Y-23.732
X110.274Y-12.689
X110.992Y-1.516
X110.58Y9.671
X109.043Y20.76
X106.398Y31.639
X102.669Y42.195
X97.897Y52.322
X92.129Y61.918
X85.423Y70.883
X77.849Y79.127
X69.482Y86.566
X60.409Y93.125
X50.721Y98.737
X40.518Y103.344
X29.902Y106.9
X18.982Y109.368
X7.868Y110.724
X-3.324Y110.953
X-14.483Y110.054
X-25.495Y108.035
X-36.248Y104.918
X-46.632Y100.733
X-56.542Y95.523
X-65.877Y89.342
X-74.541Y82.252
X-82.447Y74.325
X-89.515Y65.642
X-95.672Y56.292
X-100.855Y46.368
X-105.013Y35.973
X-108.103Y25.212
X-110.093Y14.195
X-110.963Y3.033
X-111Y0
X-114
X-113.41Y-11.579
X-111.647Y-23.04
X-108.729Y-34.261
X-104.686Y-45.129
X-99.56Y-55.529
X-93.405Y-65.355
X-86.283Y-74.505
X-78.268Y-82.884
X-69.444Y-90.406
X-59.901Y-96.992
X-49.739Y-102.575
X-39.062Y-107.097
X-27.981Y-110.511
X-16.611Y-112.782
X-5.069Y-113.886
X6.525Y-113.811
X18.052Y-112.559
X29.199Y-110.195
X40.242Y-106.659
X50.868Y-102.019
X60.968Y-96.324
X70.28Y-89.756
X79.033Y-82.153
X86.97Y-73.7
X94.006Y-64.484
X99.974Y-54.777
X105.021Y-44.339
X108.982Y-33.441
X111.815Y-22.198
X113.472Y-10.924
X113.995Y0.658
X113.338Y12.234
X111.509Y23.683
X108.526Y34.888
X104.421Y45.732
X99.235Y56.102
X93.023Y65.892
X85.849Y75
X77.786Y83.333
X68.919Y90.803
X59.339Y97.334
X49.144Y102.858
X38.442Y107.318
X27.342Y110.668
X15.959Y112.873
X4.411Y113.91
X-7.182Y113.769
X-18.701Y112.451
X-30.027Y109.969
X-41.043Y106.35
X-51.633Y101.631
X-61.69Y95.86
X-71.108Y89.098
X-79.791Y81.414
X-87.648Y72.888
X-94.598Y63.607
X-100.57Y53.669
X-105.502Y43.175
X-109.342Y32.235
X-112.051Y20.962
X-113.6Y9.471
X-114Y0
X-116.999
X-116.405Y-11.779
X-114.627Y-23.44
X-111.684Y-34.862
X-107.607Y-45.929
X-102.435Y-56.53
X-96.223Y-66.556
X-89.033Y-75.906
X-80.937Y-84.484
X-72.02Y-92.204
X-62.37Y-98.987
X-52.087Y-104.763
X-41.274Y-109.475
X-30.042Y-113.074
X-18.504Y-115.524
X-15.933Y-115.907
G0Z10
X15.966Y-115.902
G1Z-1.943F500
X27.554Y-113.705F1000
X38.863Y-110.353
X49.776Y-105.879
X60.183Y-100.329
X69.979Y-93.76
X79.063Y-86.237
X87.344Y-77.839
X94.737Y-68.649
X101.167Y-58.761
X106.57Y-48.277
X110.889Y-37.301
X114.081Y-25.947
X116.113Y-14.329
X116.966Y-2.565
X116.63Y9.223
X115.108Y20.919
X112.417Y32.402
X108.583Y43.556
X103.646Y54.267
X97.655Y64.427
X90.672Y73.932
X82.767Y82.685
X74.021Y90.598
X64.523Y97.59
X54.369Y103.591
X43.663Y108.538
X32.513Y112.383
X21.033Y115.085
X15.899Y115.906
G0Z10
X-15.998Y115.892
G1Z-1.943F500
X-27.586Y113.692F1000
X-38.892Y110.337
X-49.804Y105.86
X-60.209Y100.307
X-70.002Y93.735
X-79.084Y86.211
X-87.362Y77.81
X-94.752Y68.618
X-101.179Y58.729
X-106.578Y48.244
X-110.894Y37.268
X-114.083Y25.913
X-116.112Y14.295
X-116.961Y2.532
X-116.999Y0
X-120
X-119.38Y-12.179
X-117.528Y-24.232
X-114.462Y-36.035
X-110.213Y-47.466
X-104.827Y-58.406
X-98.358Y-68.744
X-90.873Y-78.372
X-82.45Y-87.19
X-73.175Y-95.108
X-63.145Y-102.044
X-52.462Y-107.925
X-41.238Y-112.693
X-31.135Y-115.892
G0Z10
X31.144Y-115.89
G1Z-1.943F500
X42.745Y-112.131F1000
X53.905Y-107.213
X64.508Y-101.189
X74.445Y-94.12
X83.613Y-86.078
X91.917Y-77.148
X99.273Y-67.42
X105.603Y-56.997
X110.842Y-45.985
X114.937Y-34.498
X117.845Y-22.655
X119.536Y-10.577
X119.993Y1.608
X119.21Y13.778
X117.196Y25.806
X113.972Y37.567
X109.571Y48.941
X104.038Y59.809
X97.431Y70.059
X89.95Y79.436
X81.423Y88.155
X72.056Y95.964
X61.944Y102.781
X51.193Y108.537
X39.913Y113.173
X31.128Y115.898
G0Z10
X-31.153Y115.891
G1Z-1.943F500
X-42.755Y112.131F1000
X-53.736Y107.303
X-64.18Y101.402
X-74.14Y94.365
X-83.334Y86.353
X-91.668Y77.449
X-99.055Y67.746
X-105.42Y57.343
X-110.695Y46.347
X-114.828Y34.873
X-117.774Y23.039
X-119.505Y10.967
X-120.006Y0.382
X-120Y0
X-123
X-122.375Y-12.379
X-120.508Y-24.632
X-117.417Y-36.635
X-113.134Y-48.266
X-107.702Y-59.407
X-101.176Y-69.945
X-93.623Y-79.773
X-85.119Y-88.79
X-75.751Y-96.906
X-65.613Y-104.038
X-54.81Y-110.113
X-43.449Y-115.071
X-41.196Y-115.896
G0Z10
X41.181Y-115.902
G1Z-1.943F500
X52.637Y-111.169F1000
X63.558Y-105.307
X73.834Y-98.376
X83.36Y-90.446
X92.039Y-81.597
X99.784Y-71.92
X106.516Y-61.512
X112.166Y-50.48
X116.677Y-38.935
X120.003Y-26.994
X122.111Y-14.78
X122.978Y-2.415
X122.597Y9.973
X120.971Y22.261
X118.116Y34.323
X114.062Y46.036
X108.85Y57.282
X102.532Y67.946
X95.173Y77.92
X86.848Y87.103
X77.641Y95.401
X67.645Y102.731
X56.963Y109.018
X45.702Y114.197
X41.212Y115.893
G0Z10
X-41.167Y115.91
G1Z-1.943F500
X-52.623Y111.178F1000
X-63.545Y105.317
X-73.822Y98.387
X-83.35Y90.458
X-92.03Y81.61
X-99.777Y71.934
X-106.51Y61.527
X-112.161Y50.495
X-116.674Y38.95
X-120.002Y27.01
X-122.111Y14.796
X-122.98Y2.431
X-123Y0
X-126
X-125.35Y-12.777
X-123.407Y-25.424
X-120.193Y-37.808
X-115.739Y-49.802
X-110.189Y-61.108
X-103.424Y-71.967
X-95.592Y-82.085
X-86.775Y-91.356
X-77.063Y-99.685
X-66.556Y-106.987
X-55.363Y-113.185
X-49.545Y-115.85
G0Z10
X49.508Y-115.865
G1Z-1.943F500
X61.003Y-110.247F1000
X71.869Y-103.492
X81.994Y-95.67
X91.273Y-86.862
X99.612Y-77.158
X106.923Y-66.658
X113.132Y-55.471
X118.174Y-43.712
X121.998Y-31.502
X124.564Y-18.968
X125.845Y-6.238
X125.828Y6.556
X124.515Y19.283
X121.917Y31.811
X118.063Y44.011
X112.991Y55.757
X106.754Y66.928
X99.416Y77.409
X91.053Y87.092
X81.751Y95.877
X71.607Y103.674
X60.724Y110.401
X49.399Y115.912
G0Z10
X-49.47Y115.881
G1Z-1.943F500
X-60.967Y110.267F1000
X-71.835Y103.515
X-81.962Y95.697
X-91.245Y86.891
X-99.586Y77.19
X-106.901Y66.693
X-113.114Y55.508
X-118.16Y43.75
X-121.988Y31.542
X-124.557Y19.008
X-125.843Y6.278
X-126Y0
X-129
X-128.345Y-12.978
X-126.389Y-25.824
X-123.15Y-38.408
X-118.661Y-50.603
X-112.968Y-62.284
X-106.129Y-73.333
X-98.213Y-83.638
X-89.3Y-93.095
X-79.481Y-101.607
X-68.856Y-109.087
X-57.532Y-115.461
X-56.635Y-115.904
G0Z10
X56.756Y-115.846
G1Z-1.943F500
X68.123Y-109.549F1000
X78.799Y-102.139
X88.675Y-93.694
X97.651Y-84.297
X105.636Y-74.045
X112.55Y-63.042
X118.321Y-51.399
X122.892Y-39.235
X126.216Y-26.672
X128.259Y-13.839
X129.001Y-0.865
X128.434Y12.117
X126.564Y24.976
X123.409Y37.583
X119.002Y49.807
X113.387Y61.527
X106.622Y72.622
X98.775Y82.981
X89.926Y92.497
X80.164Y101.075
X69.588Y108.627
X58.307Y115.077
X56.696Y115.879
G0Z10
X-56.7
G1Z-1.943F500
X-68.07Y109.587F1000
X-78.75Y102.183
X-88.63Y93.742
X-97.612Y84.35
X-105.602Y74.101
X-112.522Y63.101
X-118.299Y51.461
X-122.877Y39.298
X-126.207Y26.737
X-128.257Y13.904
X-129.005Y0.93
X-129Y0
X-131.999
X-131.32Y-13.377
X-129.288Y-26.616
X-125.925Y-39.581
X-121.266Y-52.139
X-115.358Y-64.16
X-108.262Y-75.52
X-100.051Y-86.103
X-90.956Y-95.661
X-80.793Y-104.386
X-69.799Y-112.037
X-63.236Y-115.868
G0Z10
X63.157Y-115.911
G1Z-1.943F500
X74.578Y-108.914F1000
X85.232Y-100.795
X95.008Y-91.639
X103.806Y-81.539
X111.535Y-70.6
X118.115Y-58.933
X123.48Y-46.66
X127.521Y-34.099
X130.288Y-21.198
X131.766Y-7.885
X131.895Y5.308
X130.678Y18.647
X128.116Y31.794
X124.234Y44.614
X119.073Y56.974
X112.686Y68.748
X105.139Y79.814
X96.646Y89.912
X87.037Y99.243
X76.531Y107.553
X65.238Y114.755
X63.316Y115.826
G0Z10
X-63.254Y115.86
G1Z-1.943F500
X-74.67Y108.854F1000
X-85.317Y100.726
X-95.086Y91.562
X-103.875Y81.454
X-111.595Y70.508
X-118.166Y58.836
X-123.521Y46.558
X-127.603Y33.8
X-130.34Y20.893
X-131.786Y7.576
X-132.003Y0.38
X-131.999Y0
X-135
X-134.315Y-13.577
X-132.268Y-27.016
X-128.881Y-40.181
X-124.187Y-52.939
X-118.233Y-65.161
X-111.081Y-76.721
X-102.802Y-87.504
X-93.48Y-97.399
X-83.211Y-106.307
X-72.098Y-114.137
X-69.372Y-115.814
G0Z10
X69.275Y-115.874
G1Z-1.943F500
X80.577Y-108.32F1000
X91.063Y-99.667
X100.625Y-90.004
X109.166Y-79.428
X116.601Y-68.046
X122.854Y-55.975
X127.861Y-43.335
X131.571Y-30.257
X133.947Y-16.871
X134.965Y-3.314
X134.614Y10.275
X132.898Y23.761
X129.834Y37.006
X125.455Y49.876
X119.803Y62.241
X112.936Y73.974
X104.924Y84.957
X95.848Y95.079
X85.8Y104.236
X74.882Y112.337
X69.303Y115.862
G0Z10
X-69.35Y115.836
G1Z-1.943F500
X-80.649Y108.274F1000
X-91.129Y99.614
X-100.686Y89.944
X-109.221Y79.362
X-116.649Y67.976
X-122.894Y55.9
X-127.893Y43.257
X-131.596Y30.175
X-133.963Y16.787
X-134.972Y3.23
X-135.011Y0.23
X-135Y0
X-137.999
X-137.29Y-13.975
X-135.208Y-27.612
X-131.716Y-41.163
X-126.87Y-54.291
X-120.719Y-66.86
X-113.327Y-78.743
X-104.769Y-89.815
X-95.134Y-99.963
X-84.521Y-109.084
X-74.896Y-115.904
G0Z10
X74.945Y-115.869
G1Z-1.943F500
X86.294Y-107.682F1000
X96.756Y-98.389
X106.223Y-88.084
X114.597Y-76.873
X121.793Y-64.872
X127.737Y-52.204
X132.311Y-39.19
X135.599Y-25.589
X137.493Y-11.724
X137.973Y2.26
X137.034Y16.221
X134.686Y30.016
X130.954Y43.502
X125.875Y56.541
X119.501Y68.998
X111.899Y80.746
X103.145Y91.663
X93.332Y101.638
X82.558Y110.567
X75.009Y115.821
G0Z10
X-74.991Y115.829
G1Z-1.943F500
X-86.336Y107.638F1000
X-96.793Y98.341
X-106.255Y88.032
X-114.624Y76.819
X-121.815Y64.815
X-127.752Y52.145
X-132.32Y39.13
X-135.602Y25.528
X-137.49Y11.664
X-137.999Y0
X-138.799
G0Z10
X-138.927Y-24.081
G1Z-1.943F500
X-135.803Y-37.926F1000
X-131.301Y-51.388
X-125.469Y-64.328
X-118.366Y-76.617
X-110.063Y-88.129
X-100.645Y-98.748
X-90.207Y-108.367
X-80.34Y-115.871
G0Z10
X80.368Y-115.849
G1Z-1.943F500
X91.609Y-107.182F1000
X101.92Y-97.429
X111.199Y-86.688
X119.351Y-75.069
X126.294Y-62.689
X131.956Y-49.673
X136.282Y-36.155
X138.931Y-24.045
G0Z10
X138.952Y23.918
G1Z-1.943F500
X135.844Y37.767F1000
X131.358Y51.233
X125.541Y64.18
X118.453Y76.477
X110.163Y87.999
X100.758Y98.628
X90.331Y108.259
X80.309Y115.888
G0Z10
X-80.396Y115.826
G1Z-1.943F500
X-91.633Y107.156F1000
X-101.942Y97.401
X-111.218Y86.658
X-119.367Y75.037
X-126.306Y62.655
X-131.966Y49.639
X-136.288Y36.12
X-138.934Y24.01
G0Z10
X-138.91Y-37.946
G1Z-1.943F500
X-134.428Y-51.625F1000
X-128.512Y-64.966
X-121.385Y-77.471
X-112.92Y-89.359
X-103.296Y-100.33
X-92.61Y-110.27
X-85.542Y-115.839
G0Z10
X85.552Y-115.834
G1Z-1.943F500
X96.837Y-106.58F1000
X107.127Y-96.231
X116.317Y-84.894
X124.313Y-72.685
X131.031Y-59.73
X136.404Y-46.161
X138.916Y-37.937
G0Z10
X138.912Y37.958
G1Z-1.943F500
X134.356Y51.823F1000
X128.421Y65.156
X121.167Y77.819
X112.668Y89.684
X103.012Y100.627
X92.298Y110.537
X85.536Y115.849
G0Z10
X-85.563Y115.831
G1Z-1.943F500
X-96.848Y106.576F1000
X-107.138Y96.227
X-116.327Y84.888
X-124.221Y72.851
X-130.957Y59.904
X-136.347Y46.341
X-138.923Y37.928
G0Z10
X-138.908Y-48.097
G1Z-1.943F500
X-133.37Y-61.815F1000
X-126.481Y-74.907
X-118.312Y-87.24
X-108.944Y-98.69
X-98.472Y-109.14
X-90.511Y-115.827
G0Z10
X90.498Y-115.834
G1Z-1.943F500
X101.682Y-106.151F1000
X111.836Y-95.394
X120.858Y-83.67
X128.655Y-71.098
X135.15Y-57.807
X138.897Y-48.109
G0Z10
X138.906Y48.081
G1Z-1.943F500
X133.37Y61.799F1000
X126.483Y74.891
X118.315Y87.225
X108.948Y98.675
X98.478Y109.125
X90.518Y115.814
G0Z10
X-90.483Y115.838
G1Z-1.943F500
X-101.667Y106.156F1000
X-111.822Y95.4
X-120.844Y83.678
X-128.642Y71.107
X-135.138Y57.817
X-138.952Y47.931
G0Z10
X-138.925Y-56.565
G1Z-1.943F500
X-132.49Y-70.328F1000
X-124.695Y-83.37
X-115.622Y-95.557
X-105.362Y-106.763
X-95.263Y-115.864
G0Z10
X95.232Y-115.887
G1Z-1.943F500
X106.466Y-105.659F1000
X116.609Y-94.347
X125.445Y-82.234
X133.12Y-69.122
X138.908Y-56.6
G0Z10
X138.936Y56.527
G1Z-1.943F500
X132.598Y70.115F1000
X124.825Y83.169
X115.771Y95.37
X105.53Y106.592
X95.29Y115.836
G0Z10
X-95.199Y115.909
G1Z-1.943F500
X-106.436Y105.684F1000
X-116.581Y94.374
X-125.421Y82.264
X-133.099Y69.155
X-138.889Y56.634
G0Z10
X-138.901Y-64.154
G1Z-1.943F500
X-131.751Y-77.786F1000
X-123.269Y-90.632
X-113.538Y-102.56
X-102.658Y-113.449
X-99.96Y-115.833
G0Z10
X99.914Y-115.878
G1Z-1.943F500
X111.052Y-105.252F1000
X121.067Y-93.56
X129.855Y-80.922
X137.33Y-67.464
X138.879Y-64.214
G0Z10
X138.935Y64.099
G1Z-1.943F500
X131.79Y77.735F1000
X123.313Y90.585
X113.586Y102.517
X102.71Y113.412
X100.013Y115.797
G0Z10
X-100.022Y115.794
G1Z-1.943F500
X-111.151Y105.158F1000
X-121.156Y93.457
X-129.934Y80.81
X-137.396Y67.344
X-138.943Y64.093
G0Z10
X-138.956Y-70.899
G1Z-1.943F500
X-131.075Y-84.585F1000
X-121.851Y-97.404
X-111.378Y-109.225
X-104.45Y-115.868
G0Z10
X104.53Y-115.791
G1Z-1.943F500
X115.702Y-104.629F1000
X125.688Y-92.394
X134.284Y-79.384
X138.912Y-70.975
G0Z10
X138.899Y70.995
G1Z-1.943F500
X131.009Y84.675F1000
X121.776Y97.487
X111.295Y109.3
X104.511Y115.804
G0Z10
X-104.46Y115.846
G1Z-1.943F500
X-115.638Y104.69F1000
X-125.63Y92.461
X-134.234Y79.457
X-138.957Y70.873
G0Z10
X-138.908Y-77.367
G1Z-1.943F500
X-130.434Y-90.931F1000
X-120.639Y-103.574
X-109.624Y-115.169
X-108.897Y-115.857
G0Z10
X108.963Y-115.799
G1Z-1.943F500
X120.045Y-104.267F1000
X129.912Y-91.68
X138.466Y-78.166
X138.954Y-77.293
G0Z10
X138.872Y77.446
G1Z-1.943F500
X130.39Y91.006F1000
X120.587Y103.644
X109.565Y115.234
X108.984Y115.784
G0Z10
X-108.885Y115.882
G1Z-1.943F500
X-119.976Y104.357F1000
X-129.853Y91.777
X-138.416Y78.268
X-138.905Y77.396
G0Z10
X-138.887Y-83.392
G1Z-1.943F500
X-129.748Y-97.001F1000
X-119.28Y-109.617
X-113.295Y-115.792
G0Z10
X113.196Y-115.888
G1Z-1.943F500
X124.328Y-103.854F1000
X134.187Y-90.758
X138.916Y-83.338
G0Z10
X138.956Y83.273
G1Z-1.943F500
X129.828Y96.889F1000
X119.371Y109.514
X113.249Y115.833
G0Z10
X-113.238Y115.843
G1Z-1.943F500
X-124.366Y103.805F1000
X-134.219Y90.705
X-138.946Y83.284
G0Z10
X-138.941Y-88.997
G1Z-1.943F500
X-129.3Y-102.502F1000
X-118.351Y-114.971
X-117.512Y-115.828
G0Z10
X117.54Y-115.804
G1Z-1.943F500
X128.577Y-103.413F1000
X138.314Y-89.977
X138.857Y-89.137
G0Z10
X138.926Y89.032
G1Z-1.943F500
X129.282Y102.535F1000
X118.33Y115.001
X117.491Y115.859
G0Z10
X-117.571Y115.782
G1Z-1.943F500
X-128.605Y103.389F1000
X-138.34Y89.949
X-138.882Y89.109
G0Z10
X-138.881Y-94.529
G1Z-1.943F500
X-128.621Y-108.075F1000
X-121.689Y-115.825
G0Z10
X121.696Y-115.814
G1Z-1.943F500
X132.773Y-102.928F1000
X138.886Y-94.517
G0Z10
X138.871Y94.537
G1Z-1.943F500
X128.61Y108.082F1000
X121.677Y115.831
G0Z10
X-121.701Y115.803
G1Z-1.943F500
X-132.777Y102.916F1000
X-138.89Y94.505
G0Z10
X-138.954Y-99.667
G1Z-1.943F500
X-128.244Y-113.117F1000
X-125.834Y-115.792
G0Z10
X125.831Y-115.805
G1Z-1.943F500
X136.824Y-102.585F1000
X138.953Y-99.682
G0Z10
X138.856Y99.828
G1Z-1.943F500
X128.13Y113.267F1000
X125.853Y115.792
G0Z10
X-125.833Y115.824
G1Z-1.943F500
X-136.828Y102.603F1000
X-138.841Y99.863
G0Z10
X-138.941Y-104.744
G1Z-1.943F500
X-129.807Y-115.871F1000
G0Z10
X129.782Y-115.899
G1Z-1.943F500
X138.918Y-104.774F1000
G0Z10
X138.843Y104.874
G1Z-1.943F500
X129.831Y115.843F1000
G0Z10
X-129.89Y115.777
G1Z-1.943F500
X-138.896Y104.803F1000
G0Z10
X-138.852Y-109.764
G1Z-1.943F500
X-133.882Y-115.774F1000
G0Z10
X133.836Y-115.816
G1Z-1.943F500
X138.932Y-109.651F1000
G0Z10
X138.881Y109.708
G1Z-1.943F500
X133.782Y115.871F1000
G0Z10
X-133.787Y115.856
G1Z-1.943F500
X-138.885Y109.692F1000
G0Z10
X-138.953Y-114.424
G1Z-1.943F500
X-137.802Y-115.807F1000
G0Z10
X137.751Y-115.878
G1Z-1.943F500
X138.903Y-114.495F1000
G0Z10
X138.89Y114.518
G1Z-1.943F500
X137.738Y115.902F1000
G0Z10
X-137.833Y115.799
G1Z-1.943F500
X-138.857Y114.569F1000
G0Z10
X-65.64Y0
G1Z-10F500
X-66Z-10.381
X-65.825Y-4.795Z-10.514F1000
X-65.44Y-8.575Z-10.381
X-64.644Y-13.308Z-10.514
X-63.719Y-17.199Z-10.383
X-62.301Y-21.783Z-10.513
X-60.944Y-25.332Z-10.382
X-58.942Y-29.694Z-10.513
X-57.136Y-33.036Z-10.381
X-54.584Y-37.101Z-10.514
X-52.359Y-40.18Z-10.381
X-49.301Y-43.879Z-10.514
X-46.694Y-46.643Z-10.381
X-43.181Y-49.913Z-10.514
X-40.079Y-52.436Z-10.383
X-36.163Y-55.21Z-10.513
X-32.926Y-57.2Z-10.382
X-28.683Y-59.441Z-10.513
X-25.214Y-60.993Z-10.381
X-20.716Y-62.664Z-10.514
X-17.076Y-63.752Z-10.381
X-12.398Y-64.824Z-10.514
X-8.647Y-65.431Z-10.381
X-3.87Y-65.886Z-10.514
X-0.072Y-65.999Z-10.381
X4.922Y-65.816Z-10.513
X8.702Y-65.423Z-10.382
X13.432Y-64.618Z-10.513
X17.129Y-63.738Z-10.381
X21.715Y-62.325Z-10.514
X25.265Y-60.972Z-10.381
X29.629Y-58.975Z-10.514
X32.973Y-57.172Z-10.381
X37.041Y-54.625Z-10.514
X40.123Y-52.403Z-10.381
X43.974Y-49.216Z-10.513
X46.733Y-46.604Z-10.382
X49.996Y-43.085Z-10.513
X52.392Y-40.137Z-10.381
X55.17Y-36.224Z-10.514
X57.163Y-32.989Z-10.381
X59.409Y-28.748Z-10.514
X60.965Y-25.282Z-10.381
X62.641Y-20.785Z-10.514
X63.733Y-17.146Z-10.381
X64.848Y-12.273Z-10.513
X65.447Y-8.521Z-10.382
X65.893Y-3.743Z-10.513
X65.999Y0.054Z-10.381
X65.821Y4.85Z-10.514
X65.433Y8.63Z-10.381
X64.633Y13.361Z-10.514
X63.757Y17.058Z-10.381
X62.349Y21.646Z-10.514
X61Y25.198Z-10.381
X58.918Y29.743Z-10.513
X57.108Y33.084Z-10.382
X54.553Y37.146Z-10.513
X52.325Y40.224Z-10.381
X49.264Y43.92Z-10.514
X46.655Y46.682Z-10.381
X43.14Y49.948Z-10.514
X40.194Y52.348Z-10.381
X36.284Y55.13Z-10.514
X33.052Y57.127Z-10.381
X28.633Y59.465Z-10.513
X25.164Y61.014Z-10.382
X20.664Y62.681Z-10.513
X17.023Y63.766Z-10.381
X12.344Y64.835Z-10.513
X8.593Y65.438Z-10.381
X3.815Y65.889Z-10.514
X0.017Y65.999Z-10.381
X-4.778Y65.826Z-10.514
X-8.558Y65.442Z-10.381
X-13.486Y64.607Z-10.513
X-17.182Y63.724Z-10.382
X-21.767Y62.307Z-10.513
X-25.316Y60.951Z-10.381
X-29.678Y58.95Z-10.513
X-33.021Y57.145Z-10.381
X-37.086Y54.594Z-10.514
X-40.166Y52.37Z-10.381
X-43.865Y49.313Z-10.514
X-46.63Y46.707Z-10.381
X-50.032Y43.043Z-10.513
X-52.426Y40.093Z-10.382
X-55.2Y36.178Z-10.513
X-57.191Y32.941Z-10.381
X-59.433Y28.698Z-10.513
X-60.986Y25.231Z-10.381
X-62.658Y20.733Z-10.514
X-63.748Y17.093Z-10.381
X-64.821Y12.415Z-10.514
X-65.428Y8.665Z-10.381
X-65.885Y3.887Z-10.514
X-66Y0Z-10.381
X-68.999Z-13.381F500
X-68.818Y-4.995Z-13.52F1000
X-68.413Y-8.974Z-13.381
X-67.584Y-13.904Z-13.521
X-66.665Y-17.796Z-13.381
X-65.136Y-22.765Z-13.52
X-63.708Y-26.501Z-13.382
X-61.622Y-31.044Z-13.52
X-59.72Y-34.562Z-13.382
X-57.061Y-38.795Z-13.52
X-54.717Y-42.036Z-13.381
X-51.53Y-45.887Z-13.521
X-48.785Y-48.796Z-13.381
X-45.124Y-52.2Z-13.521
X-42.024Y-54.726Z-13.381
X-37.951Y-57.625Z-13.521
X-34.549Y-59.727Z-13.382
X-29.954Y-62.159Z-13.52
X-26.302Y-63.79Z-13.383
X-21.615Y-65.527Z-13.52
X-17.782Y-66.67Z-13.382
X-12.908Y-67.782Z-13.521
X-8.959Y-68.416Z-13.382
X-3.982Y-68.885Z-13.521
X0.015Y-69Z-13.382
X5.01Y-68.818Z-13.521
X8.989Y-68.412Z-13.382
X13.919Y-67.582Z-13.522
X17.811Y-66.662Z-13.382
X22.779Y-65.132Z-13.52
X26.515Y-63.703Z-13.384
X31.057Y-61.616Z-13.521
X34.575Y-59.713Z-13.383
X38.808Y-57.053Z-13.521
X42.048Y-54.709Z-13.382
X45.899Y-51.521Z-13.521
X48.807Y-48.775Z-13.382
X52.21Y-45.113Z-13.522
X54.736Y-42.012Z-13.382
X57.634Y-37.939Z-13.522
X59.736Y-34.536Z-13.382
X62.08Y-30.121Z-13.522
X63.721Y-26.473Z-13.383
X65.533Y-21.601Z-13.521
X66.674Y-17.767Z-13.384
X67.786Y-12.893Z-13.522
X68.419Y-8.944Z-13.383
X68.887Y-3.967Z-13.522
X69.001Y0.03Z-13.383
X68.818Y5.025Z-13.522
X68.411Y9.004Z-13.383
X67.58Y13.934Z-13.523
X66.659Y17.826Z-13.383
X65.194Y22.605Z-13.523
X63.774Y26.344Z-13.383
X61.61Y31.071Z-13.522
X59.706Y34.589Z-13.385
X57.045Y38.821Z-13.522
X54.7Y42.061Z-13.384
X51.512Y45.911Z-13.522
X48.765Y48.818Z-13.383
X45.103Y52.221Z-13.523
X42.001Y54.746Z-13.383
X37.927Y57.644Z-13.523
X34.524Y59.744Z-13.383
X30.108Y62.087Z-13.523
X26.46Y63.727Z-13.384
X21.587Y65.539Z-13.522
X17.753Y66.679Z-13.385
X12.879Y67.79Z-13.523
X8.93Y68.422Z-13.384
X3.952Y68.889Z-13.523
X-0.045Y69.002Z-13.384
X-5.04Y68.818Z-13.523
X-9.019Y68.41Z-13.384
X-13.949Y67.578Z-13.523
X-17.84Y66.656Z-13.384
X-22.62Y65.19Z-13.524
X-26.359Y63.77Z-13.384
X-31.085Y61.604Z-13.523
X-34.602Y59.7Z-13.386
X-38.834Y57.038Z-13.523
X-42.073Y54.692Z-13.385
X-45.923Y51.502Z-13.523
X-48.83Y48.755Z-13.384
X-52.231Y45.092Z-13.524
X-54.756Y41.99Z-13.384
X-57.653Y37.915Z-13.524
X-59.753Y34.511Z-13.384
X-62.095Y30.095Z-13.524
X-63.734Y26.446Z-13.385
X-65.544Y21.573Z-13.523
X-66.632Y17.932Z-13.385
X-67.794Y12.864Z-13.523
X-68.425Y8.915Z-13.386
X-68.891Y3.937Z-13.524
X-69.003Y0.339Z-13.4
X-68.999Y0Z-13.381
X-71.999Z-16.381F500
X-71.812Y-5.195Z-16.527F1000
X-71.387Y-9.373Z-16.381
X-70.524Y-14.5Z-16.527
X-69.559Y-18.587Z-16.381
X-67.971Y-23.746Z-16.526
X-66.547Y-27.484Z-16.381
X-64.301Y-32.393Z-16.526
X-62.303Y-36.087Z-16.382
X-59.536Y-40.488Z-16.526
X-57.074Y-43.891Z-16.381
X-53.758Y-47.895Z-16.526
X-50.875Y-50.947Z-16.381
X-47.066Y-54.486Z-16.526
X-43.809Y-57.137Z-16.38
X-39.572Y-60.149Z-16.526
X-35.998Y-62.354Z-16.38
X-31.404Y-64.789Z-16.527
X-27.574Y-66.51Z-16.38
X-22.703Y-68.326Z-16.527
X-18.68Y-69.533Z-16.38
X-13.418Y-70.738Z-16.525
X-9.469Y-71.373Z-16.381
X-4.095Y-71.882Z-16.525
X0.102Y-71.999Z-16.382
X5.297Y-71.804Z-16.526
X9.475Y-71.373Z-16.381
X14.6Y-70.503Z-16.526
X18.686Y-69.532Z-16.38
X23.654Y-68.002Z-16.526
X27.579Y-66.507Z-16.38
X32.306Y-64.344Z-16.526
X36.002Y-62.351Z-16.38
X40.408Y-59.59Z-16.526
X43.813Y-57.133Z-16.38
X47.822Y-53.823Z-16.526
X50.878Y-50.943Z-16.38
X54.552Y-46.988Z-16.525
X57.077Y-43.886Z-16.381
X60.205Y-39.486Z-16.525
X62.405Y-35.909Z-16.381
X64.833Y-31.312Z-16.525
X66.548Y-27.479Z-16.381
X68.358Y-22.605Z-16.525
X69.559Y-18.581Z-16.38
X70.719Y-13.513Z-16.526
X71.386Y-9.367Z-16.38
X71.876Y-4.192Z-16.526
X71.999Y0.005Z-16.38
X71.811Y5.2Z-16.526
X71.385Y9.378Z-16.38
X70.522Y14.505Z-16.526
X69.557Y18.592Z-16.38
X67.968Y23.751Z-16.525
X66.544Y27.489Z-16.38
X64.297Y32.397Z-16.525
X62.299Y36.091Z-16.381
X59.532Y40.492Z-16.525
X57.07Y43.894Z-16.38
X53.754Y47.898Z-16.525
X50.87Y50.95Z-16.38
X47.061Y54.488Z-16.525
X43.804Y57.139Z-16.379
X39.567Y60.151Z-16.525
X35.993Y62.356Z-16.379
X31.399Y64.79Z-16.526
X27.568Y66.511Z-16.379
X22.697Y68.327Z-16.526
X18.675Y69.534Z-16.379
X13.412Y70.738Z-16.524
X9.464Y71.373Z-16.38
X4.089Y71.882Z-16.524
X-0.108Y71.998Z-16.381
X-5.303Y71.803Z-16.525
X-9.48Y71.371Z-16.38
X-14.605Y70.501Z-16.525
X-18.691Y69.53Z-16.38
X-23.659Y68Z-16.525
X-27.583Y66.505Z-16.379
X-32.31Y64.341Z-16.525
X-36.006Y62.348Z-16.379
X-40.412Y59.587Z-16.525
X-43.817Y57.129Z-16.379
X-47.825Y53.819Z-16.525
X-50.881Y50.939Z-16.379
X-54.555Y46.983Z-16.524
X-57.08Y43.881Z-16.38
X-60.207Y39.481Z-16.524
X-62.407Y35.903Z-16.381
X-64.835Y31.307Z-16.524
X-66.55Y27.473Z-16.38
X-68.359Y22.6Z-16.524
X-69.56Y18.576Z-16.379
X-70.719Y13.508Z-16.525
X-71.386Y9.362Z-16.379
X-71.876Y4.186Z-16.525
X-71.999Y0Z-16.381
X-72.799Z-17.181F500
X-72.999Z-17.323
X-75Z-17.858F1000
X-74.635Y-7.387Z-17.889
X-73.504Y-14.9Z-17.9
X-71.62Y-22.259Z-17.893
X-69.234Y-28.837Z-17.859
X-66.056Y-35.517Z-17.887
X-62.124Y-42.017Z-17.899
X-57.555Y-48.086Z-17.894
X-52.823Y-53.24Z-17.862
X-47.322Y-58.185Z-17.886
X-41.193Y-62.673Z-17.899
X-34.641Y-66.519Z-17.895
X-28.291Y-69.458Z-17.864
X-21.311Y-71.907Z-17.884
X-13.928Y-73.694Z-17.899
X-6.401Y-74.725Z-17.896
X0.59Y-74.996Z-17.866
X7.975Y-74.573Z-17.883
X15.477Y-73.384Z-17.898
X22.822Y-71.442Z-17.896
X29.381Y-69.004Z-17.868
X36.035Y-65.774Z-17.881
X42.504Y-61.791Z-17.898
X48.537Y-57.174Z-17.897
X53.793Y-52.258Z-17.873
X58.68Y-46.705Z-17.876
X63.103Y-40.529Z-17.896
X66.879Y-33.938Z-17.898
X69.825Y-27.371Z-17.878
X72.181Y-20.36Z-17.872
X73.836Y-13.15Z-17.895
X74.787Y-5.614Z-17.898
X74.976Y1.78Z-17.882
X74.436Y9.157Z-17.867
X73.172Y16.445Z-17.893
X71.133Y23.763Z-17.899
X68.446Y30.654Z-17.885
X65.094Y37.247Z-17.861
X61.108Y43.478Z-17.89
X56.396Y49.437Z-17.899
X51.252Y54.752Z-17.889
X45.609Y59.534Z-17.858
X39.522Y63.738Z-17.887
X32.872Y67.409Z-17.899
X25.884Y70.388Z-17.893
X19.211Y72.494Z-17.859
X11.977Y74.034Z-17.886
X4.426Y74.866Z-17.899
X-3.169Y74.929Z-17.894
X-10.139Y74.308Z-17.862
X-17.409Y72.948Z-17.884
X-24.699Y70.812Z-17.898
X-31.736Y67.95Z-17.894
X-37.931Y64.697Z-17.864
X-44.119Y60.645Z-17.883
X-50.028Y55.871Z-17.898
X-55.423Y50.524Z-17.895
X-59.891Y45.138Z-17.866
X-64.046Y39.019Z-17.881
X-67.664Y32.34Z-17.897
X-70.589Y25.329Z-17.896
X-72.692Y18.446Z-17.871
X-74.155Y11.196Z-17.877
X-74.907Y3.637Z-17.896
X-75Y0Z-17.858
X-78Z-18.662
X-77.63Y-7.587Z-18.695
X-76.484Y-15.3Z-18.705
X-74.575Y-22.859Z-18.696
X-71.997Y-30.005Z-18.664
X-68.737Y-36.867Z-18.693
X-64.713Y-43.545Z-18.705
X-60.042Y-49.788Z-18.697
X-55.056Y-55.252Z-18.663
X-49.42Y-60.346Z-18.694
X-43.148Y-64.978Z-18.705
X-36.445Y-68.961Z-18.697
X-29.749Y-72.104Z-18.663
X-22.593Y-74.656Z-18.694
X-15.027Y-76.539Z-18.705
X-7.311Y-77.657Z-18.697
X0.077Y-78Z-18.663
X7.665Y-77.623Z-18.694
X15.376Y-76.47Z-18.706
X22.934Y-74.552Z-18.697
X29.893Y-72.045Z-18.663
X36.76Y-68.795Z-18.694
X43.444Y-64.781Z-18.706
X49.695Y-60.12Z-18.697
X55.308Y-55.001Z-18.664
X60.396Y-49.36Z-18.693
X65.022Y-43.083Z-18.705
X68.998Y-36.377Z-18.698
X72.134Y-29.677Z-18.664
X74.679Y-22.519Z-18.693
X76.554Y-14.951Z-18.706
X77.664Y-7.233Z-18.698
X78Y0.155Z-18.664
X77.615Y7.743Z-18.694
X76.455Y15.453Z-18.706
X74.53Y23.008Z-18.698
X72.015Y29.965Z-18.663
X68.759Y36.829Z-18.694
X64.738Y43.509Z-18.706
X60.071Y49.755Z-18.697
X55.088Y55.222Z-18.663
X49.454Y60.319Z-18.694
X43.185Y64.955Z-18.706
X36.485Y68.942Z-18.697
X29.79Y72.088Z-18.663
X22.636Y74.644Z-18.695
X15.071Y76.531Z-18.706
X7.355Y77.654Z-18.697
X-0.233Y78.001Z-18.665
X-7.82Y77.608Z-18.693
X-15.529Y76.44Z-18.706
X-23.083Y74.508Z-18.698
X-30.037Y71.986Z-18.665
X-36.898Y68.722Z-18.693
X-43.574Y64.695Z-18.706
X-49.815Y60.022Z-18.698
X-55.277Y55.033Z-18.664
X-60.369Y49.394Z-18.694
X-64.998Y43.121Z-18.706
X-68.979Y36.416Z-18.698
X-72.118Y29.718Z-18.664
X-74.667Y22.561Z-18.694
X-76.547Y14.994Z-18.706
X-77.661Y7.278Z-18.698
X-78.001Y0.288Z-18.666
X-78Y0Z-18.662
X-79.8Z-19.145
X-79.999Z-19.149
X-81Z-18.881
X-80.605Y-7.987Z-18.847
X-79.385Y-16.092Z-18.835
X-77.411Y-23.841Z-18.843
X-74.837Y-30.989Z-18.881
X-71.417Y-38.217Z-18.847
X-67.189Y-45.239Z-18.835
X-62.401Y-51.644Z-18.843
X-57.288Y-57.263Z-18.881
X-51.362Y-62.633Z-18.846
X-44.769Y-67.503Z-18.835
X-37.895Y-71.589Z-18.843
X-30.836Y-74.901Z-18.878
X-23.3Y-77.576Z-18.848
X-15.341Y-79.534Z-18.835
X-7.224Y-80.677Z-18.841
X0.165Y-81Z-18.878
X8.151Y-80.589Z-18.848
X16.254Y-79.352Z-18.835
X24.19Y-77.303Z-18.841
X31.142Y-74.774Z-18.878
X38.363Y-71.339Z-18.848
X45.376Y-67.096Z-18.835
X51.925Y-62.167Z-18.841
X57.38Y-57.171Z-18.878
X62.738Y-51.234Z-18.848
X67.595Y-44.631Z-18.835
X71.759Y-37.571Z-18.841
X74.888Y-30.868Z-18.879
X77.566Y-23.333Z-18.848
X79.528Y-15.375Z-18.835
X80.674Y-7.259Z-18.841
X81Y0.13Z-18.879
X80.592Y8.117Z-18.848
X79.359Y16.22Z-18.835
X77.314Y24.157Z-18.841
X74.787Y31.11Z-18.879
X71.355Y38.333Z-18.848
X67.116Y45.348Z-18.835
X62.189Y51.899Z-18.841
X57.195Y57.356Z-18.879
X51.261Y62.716Z-18.847
X44.66Y67.576Z-18.835
X37.602Y71.743Z-18.841
X30.9Y74.875Z-18.879
X23.366Y77.557Z-18.847
X15.409Y79.521Z-18.835
X7.293Y80.671Z-18.841
X-0.096Y81Z-18.879
X-8.083Y80.596Z-18.847
X-16.186Y79.367Z-18.835
X-24.125Y77.325Z-18.841
X-31.078Y74.801Z-18.879
X-38.303Y71.372Z-18.847
X-45.32Y67.136Z-18.834
X-51.873Y62.212Z-18.841
X-57.332Y57.22Z-18.879
X-62.695Y51.288Z-18.847
X-67.557Y44.689Z-18.834
X-71.728Y37.633Z-18.841
X-74.862Y30.932Z-18.88
X-77.547Y23.4Z-18.847
X-79.515Y15.443Z-18.834
X-80.669Y7.328Z-18.841
X-81Y0.338Z-18.875
Y0Z-18.881
X-83.999Z-18.077
X-83.6Y-8.186Z-18.041
X-82.364Y-16.492Z-18.029
X-80.306Y-24.632Z-18.039
X-77.6Y-32.157Z-18.077
X-74.096Y-39.567Z-18.041
X-69.776Y-46.767Z-18.029
X-64.758Y-53.499Z-18.039
X-59.377Y-59.415Z-18.077
X-53.304Y-64.919Z-18.041
X-46.556Y-69.916Z-18.029
X-39.344Y-74.215Z-18.039
X-32.108Y-77.62Z-18.077
X-24.39Y-80.379Z-18.041
X-16.243Y-82.413Z-18.029
X-7.934Y-83.623Z-18.039
X0.053Y-83.998Z-18.077
X8.239Y-83.593Z-18.041
X16.543Y-82.353Z-18.029
X24.682Y-80.29Z-18.039
X32.206Y-77.578Z-18.077
X39.613Y-74.07Z-18.042
X46.81Y-69.745Z-18.03
X53.539Y-64.723Z-18.039
X59.451Y-59.339Z-18.076
X64.952Y-53.262Z-18.042
X69.944Y-46.511Z-18.03
X74.238Y-39.296Z-18.039
X77.639Y-32.058Z-18.076
X80.394Y-24.338Z-18.042
X82.422Y-16.191Z-18.03
X83.626Y-7.881Z-18.039
X83.997Y0.106Z-18.076
X83.586Y8.292Z-18.042
X82.341Y16.595Z-18.03
X80.273Y24.733Z-18.039
X77.557Y32.254Z-18.076
X74.044Y39.66Z-18.043
X69.714Y46.853Z-18.03
X64.688Y53.579Z-18.039
X59.3Y59.488Z-18.076
X53.22Y64.984Z-18.043
X46.466Y69.973Z-18.03
X39.248Y74.262Z-18.039
X32.009Y77.658Z-18.076
X24.287Y80.408Z-18.043
X16.138Y82.431Z-18.03
X7.828Y83.63Z-18.039
X-0.159Y83.995Z-18.076
X-8.345Y83.58Z-18.043
X-16.647Y82.329Z-18.03
X-24.783Y80.256Z-18.039
X-32.303Y77.535Z-18.075
X-39.706Y74.017Z-18.043
X-46.897Y69.684Z-18.03
X-53.619Y64.654Z-18.039
X-59.383Y59.403Z-18.078
X-64.89Y53.332Z-18.042
X-69.89Y46.588Z-18.03
X-74.192Y39.378Z-18.04
X-77.6Y32.144Z-18.079
X-80.364Y24.427Z-18.042
X-82.401Y16.282Z-18.03
X-83.615Y7.975Z-18.04
X-83.993Y0.387Z-18.072
X-83.999Y0Z-18.077
X-86.8Z-17.327
X-86.999Z-17.197
X-86.779Y-6.194Z-17.012
X-86.254Y-11.367Z-17.196
X-85.225Y-17.48Z-17.012
X-84.029Y-22.539Z-17.196
X-82.211Y-28.466Z-17.012
X-80.364Y-33.326Z-17.195
X-77.787Y-38.963Z-17.012
X-75.321Y-43.54Z-17.194
X-72.029Y-48.793Z-17.012
X-68.986Y-53.009Z-17.193
X-65.036Y-57.786Z-17.012
X-61.468Y-61.568Z-17.192
X-56.929Y-65.789Z-17.012
X-52.897Y-69.072Z-17.191
X-47.845Y-72.663Z-17.012
X-43.419Y-75.391Z-17.19
X-37.94Y-78.292Z-17.012
X-33.196Y-80.418Z-17.19
X-27.385Y-82.578Z-17.012
X-22.597Y-84.015Z-17.191
X-16.361Y-85.448Z-17.012
X-11.426Y-86.247Z-17.192
X-5.056Y-86.854Z-17.012
X-0.059Y-87.001Z-17.192
X6.335Y-86.77Z-17.012
X11.308Y-86.263Z-17.193
X17.618Y-85.198Z-17.012
X22.482Y-84.046Z-17.194
X28.599Y-82.166Z-17.012
X33.271Y-80.387Z-17.194
X38.911Y-77.814Z-17.011
X43.489Y-75.351Z-17.195
X48.744Y-72.063Z-17.011
X52.962Y-69.023Z-17.196
X57.742Y-65.077Z-17.011
X61.527Y-61.511Z-17.195
X65.75Y-56.974Z-17.011
X69.036Y-52.945Z-17.194
X72.631Y-47.895Z-17.01
X75.363Y-43.471Z-17.193
X78.267Y-37.994Z-17.01
X80.396Y-33.251Z-17.192
X82.56Y-27.442Z-17.01
X84.052Y-22.461Z-17.192
X85.438Y-16.419Z-17.01
X86.266Y-11.286Z-17.191
X86.851Y-5.115Z-17.01
X87.002Y0.081Z-17.19
X86.775Y6.276Z-17.011
X86.245Y11.448Z-17.189
X85.211Y17.56Z-17.01
X84.01Y22.619Z-17.188
X82.186Y28.543Z-17.01
X80.411Y33.217Z-17.19
X77.752Y39.037Z-17.01
X75.382Y43.439Z-17.19
X71.985Y48.862Z-17.01
X69.06Y52.916Z-17.191
X64.984Y57.848Z-17.01
X61.554Y61.486Z-17.192
X56.868Y65.843Z-17.01
X52.992Y69.001Z-17.192
X47.778Y72.709Z-17.01
X43.522Y75.334Z-17.193
X38.048Y78.242Z-17.009
X33.306Y80.375Z-17.193
X27.499Y82.542Z-17.009
X22.519Y84.038Z-17.194
X16.478Y85.428Z-17.009
X11.345Y86.26Z-17.193
X5.175Y86.849Z-17.009
X-0.022Y87.003Z-17.193
X-6.217Y86.78Z-17.009
X-11.389Y86.254Z-17.192
X-17.502Y85.224Z-17.009
X-22.562Y84.026Z-17.191
X-28.487Y82.207Z-17.009
X-33.347Y80.358Z-17.19
X-38.984Y77.78Z-17.009
X-43.561Y75.312Z-17.189
X-48.813Y72.019Z-17.009
X-53.028Y68.975Z-17.188
X-57.805Y65.024Z-17.009
X-61.586Y61.455Z-17.188
X-65.805Y56.914Z-17.009
X-69.088Y52.881Z-17.187
X-72.678Y47.828Z-17.009
X-75.305Y43.574Z-17.188
X-78.304Y37.922Z-17.009
X-80.353Y33.361Z-17.189
X-82.588Y27.365Z-17.009
X-84.023Y22.576Z-17.189
X-85.455Y16.34Z-17.009
X-86.253Y11.404Z-17.19
X-86.858Y5.034Z-17.009
X-87.003Y0.237Z-17.178
X-86.999Y0Z-17.197
X-90Z-14.197
X-89.772Y-6.394Z-14.006
X-89.227Y-11.766Z-14.196
X-88.166Y-18.076Z-14.005
X-86.923Y-23.33Z-14.195
X-85.046Y-29.447Z-14.005
X-83.127Y-34.494Z-14.193
X-80.466Y-40.313Z-14.005
X-77.904Y-45.066Z-14.192
X-74.505Y-50.487Z-14.005
X-71.344Y-54.864Z-14.19
X-67.265Y-59.794Z-14.005
X-63.7Y-63.579Z-14.191
X-58.871Y-68.075Z-14.005
X-54.842Y-71.361Z-14.192
X-49.466Y-75.188Z-14.005
X-45.041Y-77.919Z-14.193
X-39.211Y-81.01Z-14.005
X-34.468Y-83.139Z-14.194
X-28.284Y-85.441Z-14.005
X-23.303Y-86.932Z-14.195
X-17.067Y-88.368Z-14.004
X-11.738Y-89.232Z-14.195
X-5.368Y-89.841Z-14.004
X0.028Y-90.001Z-14.194
X6.422Y-89.772Z-14.004
X11.794Y-89.225Z-14.192
X18.104Y-88.162Z-14.004
X23.358Y-86.918Z-14.191
X29.474Y-85.038Z-14.004
X34.521Y-83.118Z-14.189
X40.339Y-80.455Z-14.004
X45.091Y-77.892Z-14.188
X50.511Y-74.491Z-14.004
X54.729Y-71.45Z-14.19
X59.817Y-67.248Z-14.004
X63.6Y-63.682Z-14.191
X68.095Y-58.851Z-14.004
X71.38Y-54.82Z-14.192
X75.205Y-49.443Z-14.004
X77.935Y-45.018Z-14.193
X80.936Y-39.367Z-14.003
X83.151Y-34.443Z-14.194
X85.388Y-28.448Z-14.003
X86.941Y-23.276Z-14.193
X88.375Y-17.04Z-14.003
X89.238Y-11.71Z-14.192
X89.844Y-5.34Z-14.002
X90.003Y0.056Z-14.19
X89.772Y6.451Z-14.002
X89.223Y11.822Z-14.189
X88.158Y18.132Z-14.002
X86.912Y23.386Z-14.187
X85.031Y29.502Z-14.002
X83.185Y34.363Z-14.188
X80.444Y40.365Z-14.002
X77.979Y44.943Z-14.189
X74.477Y50.536Z-14.002
X71.434Y54.752Z-14.19
X67.231Y59.839Z-14.002
X63.663Y63.621Z-14.191
X58.83Y68.115Z-14.002
X54.799Y71.399Z-14.192
X49.587Y75.112Z-14.001
X44.994Y77.95Z-14.192
X39.342Y80.95Z-14.001
X34.417Y83.164Z-14.191
X28.421Y85.399Z-14.001
X23.249Y86.95Z-14.189
X17.013Y88.382Z-14.001
X11.682Y89.243Z-14.188
X5.312Y89.848Z-14.001
X-0.084Y90.005Z-14.187
X-6.479Y89.771Z-14.001
X-11.851Y89.221Z-14.185
X-18.16Y88.154Z-14.001
X-23.22Y86.958Z-14.187
X-29.529Y85.023Z-14.001
X-34.39Y83.176Z-14.188
X-40.391Y80.433Z-14.001
X-44.969Y77.966Z-14.189
X-50.56Y74.462Z-14.001
X-54.776Y71.418Z-14.19
X-59.712Y67.346Z-13.999
X-63.643Y63.644Z-14.191
X-68.004Y58.961Z-13.999
X-71.417Y54.778Z-14.19
X-75.129Y49.565Z-13.999
X-77.966Y44.971Z-14.189
X-80.964Y39.317Z-13.999
X-83.176Y34.392Z-14.187
X-85.41Y28.395Z-13.999
X-86.959Y23.222Z-14.186
X-88.389Y16.985Z-13.999
X-89.249Y11.654Z-14.184
X-89.851Y5.284Z-13.999
X-90.006Y0.286Z-14.172
X-90Y0Z-14.197
X-93Z-11.197
X-92.765Y-6.594Z-10.999
X-92.2Y-12.165Z-11.196
X-91.106Y-18.672Z-11
X-89.817Y-24.12Z-11.194
X-87.88Y-30.429Z-11
X-85.89Y-35.662Z-11.192
X-83.145Y-41.662Z-11
X-80.487Y-46.591Z-11.191
X-76.981Y-52.18Z-11
X-73.823Y-56.56Z-11.193
X-69.493Y-61.802Z-11.001
X-65.79Y-65.73Z-11.195
X-60.812Y-70.361Z-11.001
X-56.626Y-73.771Z-11.197
X-51.086Y-77.711Z-11.001
X-46.49Y-80.545Z-11.197
X-40.662Y-83.638Z-11
X-35.555Y-85.934Z-11.196
X-29.372Y-88.239Z-11
X-24.008Y-89.846Z-11.194
X-17.577Y-91.322Z-11
X-12.049Y-92.215Z-11.192
X-5.48Y-92.837Z-11.001
X-0.083Y-92.998Z-11.193
X6.71Y-92.756Z-11.001
X12.081Y-92.21Z-11.195
X18.785Y-91.081Z-11.001
X24.039Y-89.838Z-11.196
X30.538Y-87.841Z-11.001
X35.584Y-85.921Z-11.198
X41.587Y-83.182Z-11
X46.517Y-80.528Z-11.197
X52.11Y-77.027Z-11.001
X56.651Y-73.751Z-11.196
X61.738Y-69.549Z-11.001
X65.812Y-65.707Z-11.194
X70.305Y-60.875Z-11.001
X73.841Y-56.534Z-11.192
X77.664Y-51.156Z-11.001
X80.502Y-46.562Z-11.194
X83.688Y-40.557Z-11.002
X85.901Y-35.632Z-11.196
X88.274Y-29.261Z-11.002
X89.824Y-24.089Z-11.198
X91.343Y-17.463Z-11.002
X92.203Y-12.133Z-11.199
X92.831Y-5.564Z-11.001
X92.998Y0.031Z-11.197
X92.761Y6.626Z-11.001
X92.194Y12.196Z-11.195
X91.097Y18.703Z-11.002
X89.807Y24.151Z-11.194
X87.868Y30.458Z-11.002
X85.952Y35.506Z-11.194
X83.129Y41.69Z-11.002
X80.569Y46.444Z-11.195
X76.961Y52.206Z-11.002
X73.802Y56.584Z-11.197
X69.471Y61.824Z-11.003
X65.766Y65.752Z-11.199
X60.938Y70.249Z-11.002
X56.6Y73.789Z-11.199
X51.225Y77.617Z-11.002
X46.461Y80.559Z-11.197
X40.632Y83.651Z-11.002
X35.524Y85.944Z-11.195
X29.341Y88.247Z-11.002
X23.977Y89.853Z-11.194
X17.545Y91.327Z-11.002
X12.216Y92.191Z-11.195
X5.448Y92.837Z-11.003
X0.052Y92.997Z-11.197
X-6.741Y92.752Z-11.003
X-12.113Y92.204Z-11.199
X-18.816Y91.073Z-11.003
X-24.069Y89.828Z-11.2
X-30.378Y87.895Z-11.002
X-35.613Y85.907Z-11.199
X-41.615Y83.166Z-11.002
X-46.544Y80.511Z-11.197
X-52.136Y77.007Z-11.003
X-56.675Y73.73Z-11.195
X-61.761Y69.526Z-11.003
X-65.833Y65.683Z-11.194
X-70.325Y60.85Z-11.003
X-73.737Y56.666Z-11.196
X-77.68Y51.128Z-11.003
X-80.516Y46.534Z-11.198
X-83.7Y40.527Z-11.004
X-85.911Y35.602Z-11.2
X-88.219Y29.42Z-11.003
X-89.83Y24.058Z-11.2
X-91.31Y17.628Z-11.003
X-92.205Y12.101Z-11.199
X-92.831Y5.532Z-11.003
X-93Y0Z-11.197
X-94.197Z-10
G0Z10
 
