(Created with grbl post processor 2025/04/18 10:36)
G21
(G-code Generated with Fabex and NC library)
G17G90
(Tool: D = 6.0 mm  type END flutes 2)
S12000M03
G00 Z10.0

G0X-138.797Y114Z10
G1Z-1.943F500
X138.804F1000
G0Z10
X-138.797Y111
G1Z-1.943F500
X138.804F1000
G0Z10
X-138.797Y108
G1Z-1.943F500
X138.804F1000
G0Z10
X-138.797Y105
G1Z-1.943F500
X138.804F1000
G0Z10
X-138.797Y102
G1Z-1.943F500
X138.804F1000
G0Z10
X-138.797Y99
G1Z-1.943F500
X138.804F1000
G0Z10
X-138.797Y96
G1Z-1.943F500
X-5.596F1000
X0.003Z-3.298
X5.403Z-1.977
X5.603Z-1.943
X138.804
G0Z10
X-138.797Y93
G1Z-1.943F500
X-25.196F1000
X-24.996Z-2.158F500
X-24.796Z-2.34
X-14.396Z-9.929
X-14.228Z-10F1000
X14.231
X14.403Z-9.924
X24.803Z-2.336
X25.203Z-1.943
X138.804
G0Z10
X-138.797Y90
G1Z-1.943F500
X-34.196F1000
X-33.996Z-1.963
X-27.396Z-9.897F500
X-27.242Z-10
X27.244F1000
X27.403Z-9.889
X34.003Z-1.955
X138.804Z-1.943
G0Z10
X-138.797Y87
G1Z-1.943F500
X-40.996F1000
X-36.196Z-9.87F500
X-36.046Z-10
X36.048F1000
X36.203Z-9.86
X40.803Z-2.25
X41.003Z-1.943
X138.804
G0Z10
X-138.797Y84
G1Z-1.943F500
X-47.196F1000
X-46.996Z-2.068F500
X-42.186Z-10
X42.203Z-9.992F1000
X47.003Z-2.057
X47.203Z-1.943
X138.804
G0Z10
X-138.797Y81
G1Z-1.943F500
X-51.996F1000
X-51.796Z-2.06F500
X-47.996Z-9.955
X-47.932Z-10
X47.924F1000
X48.003Z-9.942
X51.803Z-2.046
X52.003Z-1.943
X138.804
G0Z10
X-138.797Y78
G1Z-1.943F500
X-56.396F1000
X-56.196Z-2.246F500
X-52.596Z-9.726
X-52.417Z-10
X52.42F1000
X52.603Z-9.713
X56.203Z-2.233
X56.403Z-1.943
X138.804
G0Z10
X-138.797Y75
G1Z-1.943F500
X-60.396F1000
X-60.196Z-2.237F500
X-57.596Z-8.648
X-56.996Z-9.913
X-56.893Z-10
X56.89F1000
X57.003Z-9.9
X57.603Z-8.632
X60.203Z-2.22
X60.403Z-1.943
X138.804
G0Z10
X-138.797Y72
G1Z-1.943F500
X-63.796F1000
X-63.596Z-2.288F500
X-60.596Z-9.686
X-60.42Z-10
X60.423F1000
X60.603Z-9.67
X63.603Z-2.272
X63.803Z-1.943
X138.804
G0Z10
X-138.797Y69
G1Z-1.943F500
X-67.196F1000
X-66.996Z-2.339F500
X-63.996Z-9.737
X-63.831Z-10
X63.834F1000
X64.003Z-9.721
X67.003Z-2.323
X67.203Z-1.943
X138.804
G0Z10
X-138.797Y66
G1Z-1.943F500
X-70.196F1000
X-69.996Z-1.994
X-67.196Z-9.868F500
X-67.087Z-10
X67.085F1000
X67.203Z-9.849
X70.003Z-1.976
X70.203Z-1.943
X138.804
G0Z10
X-138.797Y63
G1Z-1.943F500
X-72.796F1000
X-72.596Z-2.081F500
X-69.796Z-9.955
X-69.746Z-10
X-18.17F1000
X-17.996Z-9.862
X-16.996Z-8.664
X-16.796Z-8.468
X-8.396Z-2.336
X-8.196Z-2.238
X-6.996Z-1.944
X7.003
X8.203Z-2.24
X8.403Z-2.34
X16.803Z-8.473F500
X17.003Z-8.672
X18.003Z-9.87
X18.173Z-10
X69.736F1000
X69.803Z-9.936
X72.603Z-2.063
X72.803Z-1.943
X138.804
G0Z10
X-138.797Y60
G1Z-1.943F500
X-75.396F1000
X-75.196Z-2.168F500
X-72.596Z-9.479
X-72.396Z-10
X-26.395F1000
X-24.996Z-7.72
X-24.796Z-7.425
X-20.396Z-2.123
X-20.196Z-1.943
X20.203
X20.403Z-2.131F500
X24.803Z-7.434
X26.203Z-9.714
X26.403Z-10
X72.403Z-9.999F1000
X75.203Z-2.15
X75.403Z-1.943
X138.804
G0Z10
X-138.797Y57
G1Z-1.943F500
X-77.596F1000
X-77.396Z-2.452F500
X-74.996Z-9.916
X-74.921Z-10
X-32.528F1000
X-32.396Z-9.896
X-27.596Z-1.956
X27.403Z-1.943
X27.603Z-1.966
X32.403Z-9.907F500
X32.527Z-10
X74.915F1000
X75.003Z-9.896
X77.403Z-2.432
X77.603Z-1.943
X138.804
G0Z10
X-138.797Y54
G1Z-1.943F500
X-79.596F1000
X-79.396Z-2.466F500
X-76.996Z-9.93
X-76.93Z-10
X-37.103F1000
X-36.996Z-9.908
X-33.196Z-2.012
X-32.996Z-1.943
X33.003
X33.203Z-2.025
X37.003Z-9.921F500
X37.099Z-10
X76.923F1000
X77.003Z-9.91
X79.403Z-2.446
X79.603Z-1.943
X138.804
G0Z10
X-138.797Y51
G1Z-1.943F500
X-81.596F1000
X-81.396Z-2.48F500
X-78.996Z-9.944
X-78.941Z-10
X-41.185F1000
X-40.996Z-9.613
X-39.196Z-5.187
X-37.796Z-2.241
X-37.596Z-1.943
X37.603
X37.803Z-2.254F500
X39.003Z-4.753
X41.003Z-9.629
X41.189Z-10
X78.933F1000
X79.003Z-9.924
X81.403Z-2.46
X81.603Z-1.943
X138.804
G0Z10
X-138.797Y48
G1Z-1.943F500
X-83.597F1000
X-83.397Z-2.431F500
X-80.996Z-9.958
X-80.953Z-10
X-44.593F1000
X-41.396Z-2.164
X-41.196Z-1.943
X41.203
X41.403Z-2.18F500
X44.403Z-9.578
X44.603Z-10
X80.943F1000
X81.003Z-9.938
X83.203Z-3.08
X83.403Z-2.409
X83.603Z-1.943
X138.804
G0Z10
X-138.797Y45
G1Z-1.943F500
X-85.197F1000
X-84.997Z-2.027
X-82.796Z-9.406F500
X-82.596Z-10
X-47.678F1000
X-47.596Z-9.915
X-44.996Z-2.629
X-44.796Z-2.114
X-44.596Z-1.943
X44.603
X44.803Z-2.13F500
X47.603Z-9.933
X47.671Z-10
X82.606F1000
X85.003Z-2.005
X85.203Z-1.943
X138.804
G0Z10
X-138.797Y42
G1Z-1.943F500
X-86.597F1000
X-86.397Z-2.293F500
X-84.197Z-9.673
X-84.038Z-10
X-50.323F1000
X-50.196Z-9.828
X-47.396Z-1.955
X47.203Z-1.943
X47.403Z-1.973
X50.203Z-9.847F500
X50.322Z-10
X84.04F1000
X84.203Z-9.651
X86.403Z-2.271
X86.603Z-1.943
X138.804
G0Z10
X-138.797Y39
G1Z-1.943F500
X-87.997F1000
X-85.597Z-9.939F500
X-85.541Z-10
X-52.753F1000
X-52.596Z-9.706
X-50.796Z-4.137
X-50.196Z-2.43
X-49.996Z-1.943
X50.003
X50.203Z-2.449F500
X51.003Z-4.755
X52.603Z-9.726
X52.754Z-10
X85.533F1000
X85.603Z-9.917
X87.803Z-2.538
X88.003Z-1.943
X138.804
G0Z10
X-138.797Y36
G1Z-1.943F500
X-89.397F1000
X-89.197Z-2.398F500
X-87.197Z-9.481
X-87.012Z-10
X-54.756F1000
X-54.596Z-9.692
X-52.196Z-2.229
X-51.996Z-1.943
X52.003
X52.203Z-2.249F500
X54.603Z-9.712
X54.758Z-10
X87.016F1000
X87.203Z-9.458
X89.203Z-2.375
X89.403Z-1.943
X138.804
G0Z10
X-138.797Y33
G1Z-1.943F500
X-90.397F1000
X-90.197Z-2.463F500
X-88.197Z-9.546
X-88.021Z-10
X-56.759F1000
X-56.596Z-9.678
X-54.196Z-2.215
X-53.996Z-1.943
X54.003
X54.203Z-2.235F500
X56.603Z-9.698
X56.761Z-10
X88.024F1000
X88.203Z-9.523
X90.203Z-2.44
X90.403Z-1.943
X138.804
G0Z10
X-138.797Y30
G1Z-1.943F500
X-91.397F1000
X-91.197Z-2.528F500
X-89.197Z-9.611
X-89.03Z-10
X-58.247F1000
X-58.196Z-9.945
X-55.996Z-2.566
X-55.796Z-1.943
X55.803
X58.203Z-9.967F500
X58.236Z-10
X89.033F1000
X89.203Z-9.588
X91.203Z-2.505
X91.403Z-1.943
X138.804
G0Z10
X-138.797Y27
G1Z-1.943F500
X-92.397F1000
X-90.197Z-9.676F500
X-90.043Z-10
X-59.753F1000
X-59.596Z-9.679
X-57.396Z-2.299
X-57.196Z-1.943
X57.203
X57.403Z-2.321F500
X59.603Z-9.701
X59.755Z-10
X90.044F1000
X90.203Z-9.653
X92.203Z-2.57
X92.403Z-1.943
X138.804
G0Z10
X-138.797Y24
G1Z-1.943F500
X-93.397F1000
X-93.197Z-2.199F500
X-91.197Z-9.535
X-91.021Z-10
X-61.012F1000
X-60.996Z-9.984
X-58.796Z-2.193
X-58.596Z-1.943
X58.603
X58.803Z-2.216F500
X61.007Z-10
X91.025F1000
X91.203Z-9.511
X93.203Z-2.175
X93.403Z-1.943
X138.804
G0Z10
X-138.797Y21
G1Z-1.943F500
X-93.997F1000
X-93.797Z-2.187F500
X-91.797Z-9.523
X-91.62Z-10
X-62.063F1000
X-61.996Z-9.919
X-59.796Z-2.128
X-59.596Z-1.943
X59.603
X59.803Z-2.151F500
X62.003Z-9.942
X62.054Z-10
X91.623F1000
X91.803Z-9.499
X93.803Z-2.163
X94.003Z-1.943
X138.804
G0Z10
X-138.797Y18
G1Z-1.943F500
X-94.597F1000
X-94.397Z-2.174F500
X-92.397Z-9.511
X-92.218Z-10
X-63.097F1000
X-62.996Z-9.854
X-60.796Z-2.063
X-60.596Z-1.943
X60.603
X60.803Z-2.086F500
X63.003Z-9.877
X63.092Z-10
X92.222F1000
X92.403Z-9.487
X94.403Z-2.151
X94.603Z-1.943
X138.804
G0Z10
X-138.797Y15
G1Z-1.943F500
X-95.197F1000
X-94.997Z-2.162F500
X-92.997Z-9.499
X-92.817Z-10
X-63.793F1000
X-61.596Z-2
X-61.396Z-1.943
X61.403
X61.603Z-2.024
X63.603Z-9.361F500
X63.803Z-10
X92.82F1000
X93.003Z-9.475
X95.003Z-2.139
X95.203Z-1.943
X138.804
G0Z10
X-138.797Y12
G1Z-1.943F500
X-95.597F1000
X-95.397Z-2.613F500
X-93.597Z-9.331
X-93.397Z-10
X-64.392F1000
X-62.196Z-2.012
X-61.996Z-1.943
X62.003
X62.203Z-2.036
X64.203Z-9.373F500
X64.403Z-10
X93.405F1000
X95.403Z-2.589
X95.603Z-1.943
X138.804
G0Z10
X-138.797Y9
G1Z-1.943F500
X-95.797F1000
X-95.597Z-2.6F500
X-93.797Z-9.318
X-93.597Z-10
X-64.99F1000
X-64.796Z-9.361
X-62.796Z-2.024
X-62.596Z-1.943
X62.603
X62.803Z-2.048
X64.803Z-9.385F500
X65.003Z-10
X93.604F1000
X95.603Z-2.576
X95.803Z-1.943
X138.804
G0Z10
X-138.797Y6
G1Z-1.943F500
X-95.997F1000
X-95.797Z-2.588F500
X-93.997Z-9.306
X-93.797Z-10
X-65.275F1000
X-65.196Z-9.892
X-63.196Z-2.428
X-62.996Z-1.943
X63.003
X63.203Z-2.452F500
X65.203Z-9.917
X65.268Z-10
X93.803F1000
X95.803Z-2.563
X96.003Z-1.943
X138.804
G0Z10
X-138.797Y3
G1Z-1.943F500
X-96.197F1000
X-95.997Z-2.575F500
X-93.997Z-10
X-65.468F1000
X-65.396Z-9.905
X-63.396Z-2.441
X-63.196Z-1.943
X63.203
X63.403Z-2.465F500
X65.403Z-9.929
X65.46Z-10
X94.003Z-9.997F1000
X96.003Z-2.551
X96.203Z-1.943
X138.804
G0Z10
X-138.797Y0
G1Z-1.943F500
X-96.397F1000
X-96.197Z-2.563F500
X-94.197Z-10
X-65.645F1000
X-65.596Z-9.941
X-63.596Z-2.477
X-63.396Z-1.943
X63.403
X63.603Z-2.502F500
X65.603Z-9.966
X65.634Z-10
X94.203Z-9.994F1000
X96.203Z-2.538
X96.403Z-1.943
X138.804
G0Z10
X-138.797Y-2.999
G1Z-1.943F500
X-96.197F1000
X-95.997Z-2.575F500
X-93.997Z-10
X-65.468F1000
X-65.396Z-9.905
X-63.396Z-2.441
X-63.196Z-1.943
X63.203
X63.403Z-2.465F500
X65.403Z-9.929
X65.46Z-10
X94.003Z-9.997F1000
X96.003Z-2.551
X96.203Z-1.943
X138.804
G0Z10
X-138.797Y-5.999
G1Z-1.943F500
X-95.997F1000
X-95.797Z-2.588F500
X-93.997Z-9.306
X-93.797Z-10
X-65.275F1000
X-65.196Z-9.892
X-63.196Z-2.428
X-62.996Z-1.943
X63.003
X63.203Z-2.452F500
X65.203Z-9.917
X65.268Z-10
X93.803F1000
X95.803Z-2.563
X96.003Z-1.943
X138.804
G0Z10
X-138.797Y-8.999
G1Z-1.943F500
X-95.797F1000
X-95.597Z-2.6F500
X-93.797Z-9.318
X-93.597Z-10
X-64.99F1000
X-64.796Z-9.361
X-62.796Z-2.024
X-62.596Z-1.943
X62.603
X62.803Z-2.048
X64.803Z-9.385F500
X65.003Z-10
X93.604F1000
X95.603Z-2.576
X95.803Z-1.943
X138.804
G0Z10
X-138.797Y-11.999
G1Z-1.943F500
X-95.597F1000
X-95.397Z-2.613F500
X-93.597Z-9.331
X-93.397Z-10
X-64.392F1000
X-62.196Z-2.012
X-61.996Z-1.943
X62.003
X62.203Z-2.036
X64.203Z-9.373F500
X64.403Z-10
X93.405F1000
X95.403Z-2.589
X95.603Z-1.943
X138.804
G0Z10
X-138.797Y-14.999
G1Z-1.943F500
X-95.197F1000
X-94.997Z-2.162F500
X-92.997Z-9.499
X-92.817Z-10
X-63.793F1000
X-61.596Z-2
X-61.396Z-1.943
X61.403
X61.603Z-2.024
X63.603Z-9.361F500
X63.803Z-10
X92.82F1000
X93.003Z-9.475
X95.003Z-2.139
X95.203Z-1.943
X138.804
G0Z10
X-138.797Y-17.999
G1Z-1.943F500
X-94.597F1000
X-94.397Z-2.175F500
X-92.397Z-9.511
X-92.218Z-10
X-63.097F1000
X-62.996Z-9.854
X-60.796Z-2.063
X-60.596Z-1.943
X60.603
X60.803Z-2.086F500
X63.003Z-9.877
X63.092Z-10
X92.222F1000
X92.403Z-9.487
X94.403Z-2.151
X94.603Z-1.943
X138.804
G0Z10
X-138.797Y-20.999
G1Z-1.943F500
X-93.997F1000
X-93.797Z-2.187F500
X-91.797Z-9.523
X-91.62Z-10
X-62.063F1000
X-61.996Z-9.919
X-59.796Z-2.128
X-59.596Z-1.943
X59.603
X59.803Z-2.151F500
X62.003Z-9.942
X62.054Z-10
X91.623F1000
X91.803Z-9.499
X93.803Z-2.163
X94.003Z-1.943
X138.804
G0Z10
X-138.797Y-23.999
G1Z-1.943F500
X-93.397F1000
X-93.197Z-2.199F500
X-91.197Z-9.535
X-91.021Z-10
X-61.012F1000
X-60.996Z-9.984
X-58.796Z-2.193
X-58.596Z-1.943
X58.603
X58.803Z-2.216F500
X61.007Z-10
X91.025F1000
X91.203Z-9.511
X93.203Z-2.175
X93.403Z-1.943
X138.804
G0Z10
X-138.797Y-26.999
G1Z-1.943F500
X-92.397F1000
X-90.197Z-9.676F500
X-90.043Z-10
X-59.753F1000
X-59.596Z-9.679
X-57.396Z-2.299
X-57.196Z-1.943
X57.203
X57.403Z-2.321F500
X59.603Z-9.701
X59.755Z-10
X90.044F1000
X90.203Z-9.653
X92.203Z-2.57
X92.403Z-1.943
X138.804
G0Z10
X-138.797Y-29.999
G1Z-1.943F500
X-91.397F1000
X-91.197Z-2.528F500
X-89.197Z-9.611
X-89.03Z-10
X-58.247F1000
X-58.196Z-9.945
X-55.996Z-2.566
X-55.796Z-1.943
X55.803
X58.203Z-9.967F500
X58.236Z-10
X89.033F1000
X89.203Z-9.588
X91.203Z-2.505
X91.403Z-1.943
X138.804
G0Z10
X-138.797Y-32.999
G1Z-1.943F500
X-90.397F1000
X-90.197Z-2.463F500
X-88.197Z-9.546
X-88.021Z-10
X-56.759F1000
X-56.596Z-9.678
X-54.196Z-2.215
X-53.996Z-1.943
X54.003
X54.203Z-2.235F500
X56.603Z-9.698
X56.761Z-10
X88.024F1000
X88.203Z-9.523
X90.203Z-2.44
X90.403Z-1.943
X138.804
G0Z10
X-138.797Y-35.999
G1Z-1.943F500
X-89.397F1000
X-89.197Z-2.398F500
X-87.197Z-9.481
X-87.012Z-10
X-54.756F1000
X-54.596Z-9.692
X-52.196Z-2.229
X-51.996Z-1.943
X52.003
X52.203Z-2.249F500
X54.603Z-9.712
X54.758Z-10
X87.016F1000
X87.203Z-9.458
X89.203Z-2.375
X89.403Z-1.943
X138.804
G0Z10
X-138.797Y-38.999
G1Z-1.943F500
X-87.997F1000
X-85.597Z-9.939F500
X-85.541Z-10
X-52.753F1000
X-52.596Z-9.706
X-50.796Z-4.137
X-50.196Z-2.43
X-49.996Z-1.943
X50.003
X50.203Z-2.448F500
X51.003Z-4.755
X52.603Z-9.726
X52.754Z-10
X85.533F1000
X85.603Z-9.917
X87.803Z-2.538
X88.003Z-1.943
X138.804
G0Z10
X-138.797Y-41.999
G1Z-1.943F500
X-86.597F1000
X-86.397Z-2.293F500
X-84.197Z-9.673
X-84.038Z-10
X-50.323F1000
X-50.196Z-9.828
X-47.396Z-1.955
X47.203Z-1.943
X47.403Z-1.973
X50.203Z-9.846F500
X50.322Z-10
X84.04F1000
X84.203Z-9.651
X86.403Z-2.271
X86.603Z-1.943
X138.804
G0Z10
X-138.797Y-44.999
G1Z-1.943F500
X-85.197F1000
X-84.997Z-2.027
X-82.796Z-9.406F500
X-82.596Z-10
X-47.678F1000
X-47.596Z-9.915
X-44.996Z-2.629
X-44.796Z-2.114
X-44.596Z-1.943
X44.603
X44.803Z-2.13F500
X47.603Z-9.933
X47.671Z-10
X82.606F1000
X85.003Z-2.005
X85.203Z-1.943
X138.804
G0Z10
X-138.797Y-47.999
G1Z-1.943F500
X-83.597F1000
X-83.397Z-2.431F500
X-80.996Z-9.958
X-80.953Z-10
X-44.593F1000
X-41.396Z-2.163
X-41.196Z-1.943
X41.203
X41.403Z-2.18F500
X44.403Z-9.578
X44.603Z-10
X80.943F1000
X81.003Z-9.938
X83.203Z-3.08
X83.403Z-2.409
X83.603Z-1.943
X138.804
G0Z10
X-138.797Y-50.999
G1Z-1.943F500
X-81.596F1000
X-81.396Z-2.481F500
X-78.996Z-9.944
X-78.941Z-10
X-41.185F1000
X-40.996Z-9.613
X-39.196Z-5.187
X-37.796Z-2.241
X-37.596Z-1.943
X37.603
X37.803Z-2.254F500
X39.003Z-4.753
X41.003Z-9.629
X41.19Z-10
X78.933F1000
X79.003Z-9.924
X81.403Z-2.46
X81.603Z-1.943
X138.804
G0Z10
X-138.797Y-53.999
G1Z-1.943F500
X-79.596F1000
X-79.396Z-2.467F500
X-76.996Z-9.93
X-76.931Z-10
X-37.103F1000
X-36.996Z-9.908
X-33.196Z-2.012
X-32.996Z-1.943
X33.003
X33.203Z-2.025
X37.003Z-9.921F500
X37.099Z-10
X76.923F1000
X77.003Z-9.91
X79.403Z-2.446
X79.603Z-1.943
X138.804
G0Z10
X-138.797Y-56.999
G1Z-1.943F500
X-77.596F1000
X-77.396Z-2.453F500
X-74.996Z-9.916
X-74.921Z-10
X-32.528F1000
X-32.396Z-9.896
X-27.596Z-1.956
X27.403Z-1.943
X27.603Z-1.966
X32.403Z-9.906F500
X32.527Z-10
X74.915F1000
X75.003Z-9.896
X77.403Z-2.432
X77.603Z-1.943
X138.804
G0Z10
X-138.797Y-59.999
G1Z-1.943F500
X-75.396F1000
X-75.196Z-2.168F500
X-72.596Z-9.479
X-72.396Z-10
X-26.395F1000
X-24.996Z-7.72
X-24.796Z-7.425
X-20.396Z-2.123
X-20.196Z-1.943
X20.203
X20.403Z-2.13F500
X24.803Z-7.434
X26.203Z-9.714
X26.403Z-10
X72.403Z-9.999F1000
X75.203Z-2.15
X75.403Z-1.943
X138.804
G0Z10
X-138.797Y-62.999
G1Z-1.943F500
X-72.796F1000
X-72.596Z-2.081F500
X-69.796Z-9.955
X-69.746Z-10
X-18.17F1000
X-17.996Z-9.862
X-16.996Z-8.664
X-16.796Z-8.467
X-8.396Z-2.336
X-8.196Z-2.238
X-6.996Z-1.944
X7.003
X8.203Z-2.24
X8.403Z-2.34
X16.803Z-8.473F500
X17.003Z-8.671
X18.003Z-9.87
X18.173Z-10
X69.736F1000
X69.803Z-9.936
X72.603Z-2.063
X72.803Z-1.943
X138.804
G0Z10
X-138.797Y-65.999
G1Z-1.943F500
X-70.196F1000
X-69.996Z-1.994
X-67.196Z-9.868F500
X-67.087Z-10
X67.085F1000
X67.203Z-9.85
X70.003Z-1.976
X70.203Z-1.943
X138.804
G0Z10
X-138.797Y-68.999
G1Z-1.943F500
X-67.196F1000
X-66.996Z-2.339F500
X-63.996Z-9.737
X-63.831Z-10
X63.834F1000
X64.003Z-9.721
X67.003Z-2.323
X67.203Z-1.943
X138.804
G0Z10
X-138.797Y-71.999
G1Z-1.943F500
X-63.796F1000
X-63.596Z-2.288F500
X-60.596Z-9.686
X-60.42Z-10
X60.423F1000
X60.603Z-9.67
X63.603Z-2.272
X63.803Z-1.943
X138.804
G0Z10
X-138.797Y-74.999
G1Z-1.943F500
X-60.396F1000
X-60.196Z-2.237F500
X-57.596Z-8.648
X-56.996Z-9.913
X-56.893Z-10
X56.89F1000
X57.003Z-9.9
X57.603Z-8.632
X60.203Z-2.221
X60.403Z-1.943
X138.804
G0Z10
X-138.797Y-77.999
G1Z-1.943F500
X-56.396F1000
X-56.196Z-2.246F500
X-52.596Z-9.727
X-52.417Z-10
X52.42F1000
X52.603Z-9.713
X56.203Z-2.233
X56.403Z-1.943
X138.804
G0Z10
X-138.797Y-80.999
G1Z-1.943F500
X-51.996F1000
X-51.796Z-2.06F500
X-47.996Z-9.956
X-47.932Z-10
X47.924F1000
X48.003Z-9.942
X51.803Z-2.046
X52.003Z-1.943
X138.804
G0Z10
X-138.797Y-83.999
G1Z-1.943F500
X-47.196F1000
X-46.996Z-2.068F500
X-42.187Z-10
X42.203Z-9.992F1000
X47.003Z-2.058
X47.203Z-1.943
X138.804
G0Z10
X-138.797Y-86.999
G1Z-1.943F500
X-40.996F1000
X-36.196Z-9.87F500
X-36.046Z-10
X36.048F1000
X36.203Z-9.86
X40.803Z-2.25
X41.003Z-1.943
X138.804
G0Z10
X-138.797Y-89.999
G1Z-1.943F500
X-34.196F1000
X-33.996Z-1.963
X-27.396Z-9.897F500
X-27.242Z-10
X27.244F1000
X27.403Z-9.89
X34.003Z-1.955
X138.804Z-1.943
G0Z10
X-138.797Y-92.999
G1Z-1.943F500
X-25.196F1000
X-24.996Z-2.158F500
X-24.796Z-2.34
X-14.396Z-9.929
X-14.228Z-10F1000
X14.231
X14.403Z-9.924
X24.803Z-2.336
X25.203Z-1.943
X138.804
G0Z10
X-138.797Y-95.999
G1Z-1.943F500
X-5.596F1000
X0.003Z-3.298
X5.403Z-1.977
X5.603Z-1.943
X138.804
G0Z10
X-137.999Y-115.797
G1Z-1.943F500
Y115.804F1000
G0Z10
X-138.797Y-98.999
G1Z-1.943F500
X138.804F1000
G0Z10
X-135Y-115.797
G1Z-1.943F500
Y115.804F1000
G0Z10
X-138.797Y-101.999
G1Z-1.943F500
X138.804F1000
G0Z10
X-131.999Y-115.797
G1Z-1.943F500
Y115.804F1000
G0Z10
X-138.797Y-104.999
G1Z-1.943F500
X138.804F1000
G0Z10
X-129Y-115.797
G1Z-1.943F500
Y115.804F1000
G0Z10
X-138.797Y-107.999
G1Z-1.943F500
X138.804F1000
G0Z10
X-126Y-115.797
G1Z-1.943F500
Y115.804F1000
G0Z10
X-138.797Y-110.999
G1Z-1.943F500
X138.804F1000
G0Z10
X-123Y-115.797
G1Z-1.943F500
Y115.804F1000
G0Z10
X-138.797Y-113.999
G1Z-1.943F500
X138.804F1000
G0Z10
X-120Y-115.797
G1Z-1.943F500
Y115.804F1000
G0Z10
X-116.999Y-115.797
G1Z-1.943F500
Y115.804F1000
G0Z10
X-114Y-115.797
G1Z-1.943F500
Y115.804F1000
G0Z10
X-111Y-115.797
G1Z-1.943F500
Y115.804F1000
G0Z10
X-108Y-115.797
G1Z-1.943F500
Y115.804F1000
G0Z10
X-105Y-115.797
G1Z-1.943F500
Y115.804F1000
G0Z10
X-101.999Y-115.797
G1Z-1.943F500
Y115.804F1000
G0Z10
X-98.999Y-115.797
G1Z-1.943F500
Y115.804F1000
G0Z10
X-96Y-115.797
G1Z-1.943F500
Y-5.596F1000
Y0.003Z-3.298
Y5.403Z-1.977
Y5.603Z-1.943
Y115.804
G0Z10
X-93Y-115.797
G1Z-1.943F500
Y-25.196F1000
Y-24.996Z-2.158F500
Y-24.796Z-2.34
Y-14.396Z-9.929
Y-14.228Z-10F1000
Y14.231
Y14.403Z-9.924
Y24.803Z-2.336
Y25.203Z-1.943
Y115.804
G0Z10
X-90Y-115.797
G1Z-1.943F500
Y-34.196F1000
Y-33.996Z-1.963
Y-27.396Z-9.897F500
Y-27.242Z-10
Y27.244F1000
Y27.403Z-9.89
Y34.003Z-1.955
Y115.804Z-1.943
G0Z10
X-86.999Y-115.797
G1Z-1.943F500
Y-40.996F1000
Y-36.196Z-9.87F500
Y-36.046Z-10
Y36.048F1000
Y36.203Z-9.86
Y40.803Z-2.25
Y41.003Z-1.943
Y115.804
G0Z10
X-83.999Y-115.797
G1Z-1.943F500
Y-47.196F1000
Y-46.996Z-2.068F500
Y-42.186Z-10
Y42.203Z-9.992F1000
Y47.003Z-2.057
Y47.203Z-1.943
Y115.804
G0Z10
X-81Y-115.797
G1Z-1.943F500
Y-51.996F1000
Y-51.796Z-2.06F500
Y-47.996Z-9.955
Y-47.932Z-10
Y47.924F1000
Y48.003Z-9.942
Y51.803Z-2.046
Y52.003Z-1.943
Y115.804
G0Z10
X-78Y-115.797
G1Z-1.943F500
Y-56.396F1000
Y-56.196Z-2.246F500
Y-52.596Z-9.727
Y-52.417Z-10
Y52.42F1000
Y52.603Z-9.713
Y56.203Z-2.233
Y56.403Z-1.943
Y115.804
G0Z10
X-75Y-115.797
G1Z-1.943F500
Y-60.396F1000
Y-60.196Z-2.237F500
Y-57.596Z-8.648
Y-56.996Z-9.913
Y-56.893Z-10
Y56.89F1000
Y57.003Z-9.9
Y57.603Z-8.632
Y60.203Z-2.221
Y60.403Z-1.943
Y115.804
G0Z10
X-71.999Y-115.797
G1Z-1.943F500
Y-63.796F1000
Y-63.596Z-2.288F500
Y-60.596Z-9.686
Y-60.42Z-10
Y60.423F1000
Y60.603Z-9.67
Y63.603Z-2.272
Y63.803Z-1.943
Y115.804
G0Z10
X-68.999Y-115.797
G1Z-1.943F500
Y-67.196F1000
Y-66.996Z-2.339F500
Y-63.996Z-9.737
Y-63.831Z-10
Y63.834F1000
Y64.003Z-9.721
Y67.003Z-2.323
Y67.203Z-1.943
Y115.804
G0Z10
X-66Y-115.797
G1Z-1.943F500
Y-70.196F1000
Y-69.996Z-1.994
Y-67.196Z-9.868F500
Y-67.087Z-10
Y67.085F1000
Y67.203Z-9.85
Y70.003Z-1.976
Y70.203Z-1.943
Y115.804
G0Z10
X-63Y-115.797
G1Z-1.943F500
Y-72.796F1000
Y-72.596Z-2.081F500
Y-69.796Z-9.955
Y-69.746Z-10
Y-18.17F1000
Y-17.996Z-9.862
Y-16.996Z-8.664
Y-16.796Z-8.467
Y-8.396Z-2.336
Y-8.196Z-2.238
Y-6.996Z-1.944
Y7.003
Y8.203Z-2.24
Y8.403Z-2.34
Y16.803Z-8.473F500
Y17.003Z-8.672
Y18.003Z-9.87
Y18.173Z-10
Y69.736F1000
Y69.803Z-9.936
Y72.603Z-2.063
Y72.803Z-1.943
Y115.804
G0Z10
X-60Y-115.797
G1Z-1.943F500
Y-75.396F1000
Y-75.196Z-2.168F500
Y-72.596Z-9.479
Y-72.396Z-10
Y-26.395F1000
Y-24.996Z-7.72
Y-24.796Z-7.425
Y-20.396Z-2.123
Y-20.196Z-1.943
Y20.203
Y20.403Z-2.13F500
Y24.803Z-7.434
Y26.203Z-9.714
Y26.403Z-10
Y72.403Z-9.999F1000
Y75.203Z-2.15
Y75.403Z-1.943
Y115.804
G0Z10
X-57Y-115.797
G1Z-1.943F500
Y-77.596F1000
Y-77.396Z-2.453F500
Y-74.996Z-9.916
Y-74.921Z-10
Y-32.528F1000
Y-32.396Z-9.896
Y-27.596Z-1.956
Y27.403Z-1.943
Y27.603Z-1.966
Y32.403Z-9.906F500
Y32.527Z-10
Y74.915F1000
Y75.003Z-9.896
Y77.403Z-2.432
Y77.603Z-1.943
Y115.804
G0Z10
X-54Y-115.797
G1Z-1.943F500
Y-79.596F1000
Y-79.396Z-2.466F500
Y-76.996Z-9.93
Y-76.93Z-10
Y-37.103F1000
Y-36.996Z-9.908
Y-33.196Z-2.012
Y-32.996Z-1.943
Y33.003
Y33.203Z-2.025
Y37.003Z-9.921F500
Y37.099Z-10
Y76.923F1000
Y77.003Z-9.91
Y79.403Z-2.446
Y79.603Z-1.943
Y115.804
G0Z10
X-50.999Y-115.797
G1Z-1.943F500
Y-81.596F1000
Y-81.396Z-2.481F500
Y-78.996Z-9.944
Y-78.941Z-10
Y-41.185F1000
Y-40.996Z-9.613
Y-39.196Z-5.187
Y-37.796Z-2.241
Y-37.596Z-1.943
Y37.603
Y37.803Z-2.254F500
Y39.003Z-4.753
Y41.003Z-9.629
Y41.19Z-10
Y78.933F1000
Y79.003Z-9.924
Y81.403Z-2.46
Y81.603Z-1.943
Y115.804
G0Z10
X-48Y-115.797
G1Z-1.943F500
Y-83.597F1000
Y-83.397Z-2.431F500
Y-80.996Z-9.958
Y-80.953Z-10
Y-44.593F1000
Y-41.396Z-2.164
Y-41.196Z-1.943
Y41.203
Y41.403Z-2.18F500
Y44.403Z-9.578
Y44.603Z-10
Y80.943F1000
Y81.003Z-9.938
Y83.203Z-3.08
Y83.403Z-2.409
Y83.603Z-1.943
Y115.804
G0Z10
X-45Y-115.797
G1Z-1.943F500
Y-85.197F1000
Y-84.997Z-2.027
Y-82.796Z-9.406F500
Y-82.596Z-10
Y-47.678F1000
Y-47.596Z-9.915
Y-44.996Z-2.629
Y-44.796Z-2.114
Y-44.596Z-1.943
Y44.603
Y44.803Z-2.13F500
Y47.603Z-9.933
Y47.671Z-10
Y82.606F1000
Y85.003Z-2.005
Y85.203Z-1.943
Y115.804
G0Z10
X-41.999Y-115.797
G1Z-1.943F500
Y-86.597F1000
Y-86.397Z-2.293F500
Y-84.197Z-9.673
Y-84.038Z-10
Y-50.323F1000
Y-50.196Z-9.828
Y-47.396Z-1.955
Y47.203Z-1.943
Y47.403Z-1.973
Y50.203Z-9.846F500
Y50.322Z-10
Y84.04F1000
Y84.203Z-9.651
Y86.403Z-2.271
Y86.603Z-1.943
Y115.804
G0Z10
X-39Y-115.797
G1Z-1.943F500
Y-87.997F1000
Y-85.597Z-9.939F500
Y-85.541Z-10
Y-52.753F1000
Y-52.596Z-9.706
Y-50.796Z-4.137
Y-50.196Z-2.43
Y-49.996Z-1.943
Y50.003
Y50.203Z-2.449F500
Y51.003Z-4.755
Y52.603Z-9.726
Y52.754Z-10
Y85.533F1000
Y85.603Z-9.917
Y87.803Z-2.538
Y88.003Z-1.943
Y115.804
G0Z10
X-35.999Y-115.797
G1Z-1.943F500
Y-89.397F1000
Y-89.197Z-2.398F500
Y-87.197Z-9.481
Y-87.012Z-10
Y-54.756F1000
Y-54.596Z-9.692
Y-52.196Z-2.229
Y-51.996Z-1.943
Y52.003
Y52.203Z-2.249F500
Y54.603Z-9.712
Y54.758Z-10
Y87.016F1000
Y87.203Z-9.458
Y89.203Z-2.375
Y89.403Z-1.943
Y115.804
G0Z10
X-33Y-115.797
G1Z-1.943F500
Y-90.397F1000
Y-90.197Z-2.463F500
Y-88.197Z-9.546
Y-88.021Z-10
Y-56.759F1000
Y-56.596Z-9.678
Y-54.196Z-2.215
Y-53.996Z-1.943
Y54.003
Y54.203Z-2.235F500
Y56.603Z-9.698
Y56.761Z-10
Y88.024F1000
Y88.203Z-9.523
Y90.203Z-2.44
Y90.403Z-1.943
Y115.804
G0Z10
X-30Y-115.797
G1Z-1.943F500
Y-91.397F1000
Y-91.197Z-2.528F500
Y-89.197Z-9.611
Y-89.03Z-10
Y-58.247F1000
Y-58.196Z-9.945
Y-55.996Z-2.566
Y-55.796Z-1.943
Y55.803
Y58.203Z-9.967F500
Y58.236Z-10
Y89.033F1000
Y89.203Z-9.588
Y91.203Z-2.505
Y91.403Z-1.943
Y115.804
G0Z10
X-27Y-115.797
G1Z-1.943F500
Y-92.397F1000
Y-90.197Z-9.676F500
Y-90.043Z-10
Y-59.753F1000
Y-59.596Z-9.679
Y-57.396Z-2.299
Y-57.196Z-1.943
Y57.203
Y57.403Z-2.321F500
Y59.603Z-9.701
Y59.755Z-10
Y90.044F1000
Y90.203Z-9.653
Y92.203Z-2.57
Y92.403Z-1.943
Y115.804
G0Z10
X-24Y-115.797
G1Z-1.943F500
Y-93.397F1000
Y-93.197Z-2.199F500
Y-91.197Z-9.535
Y-91.021Z-10
Y-61.012F1000
Y-60.996Z-9.984
Y-58.796Z-2.193
Y-58.596Z-1.943
Y58.603
Y58.803Z-2.216F500
Y61.007Z-10
Y91.025F1000
Y91.203Z-9.511
Y93.203Z-2.175
Y93.403Z-1.943
Y115.804
G0Z10
X-21Y-115.797
G1Z-1.943F500
Y-93.997F1000
Y-93.797Z-2.187F500
Y-91.797Z-9.523
Y-91.62Z-10
Y-62.063F1000
Y-61.996Z-9.919
Y-59.796Z-2.128
Y-59.596Z-1.943
Y59.603
Y59.803Z-2.151F500
Y62.003Z-9.942
Y62.054Z-10
Y91.623F1000
Y91.803Z-9.499
Y93.803Z-2.163
Y94.003Z-1.943
Y115.804
G0Z10
X-17.999Y-115.797
G1Z-1.943F500
Y-94.597F1000
Y-94.397Z-2.175F500
Y-92.397Z-9.511
Y-92.218Z-10
Y-63.097F1000
Y-62.996Z-9.854
Y-60.796Z-2.063
Y-60.596Z-1.943
Y60.603
Y60.803Z-2.086F500
Y63.003Z-9.877
Y63.092Z-10
Y92.222F1000
Y92.403Z-9.487
Y94.403Z-2.151
Y94.603Z-1.943
Y115.804
G0Z10
X-15Y-115.797
G1Z-1.943F500
Y-95.197F1000
Y-94.997Z-2.163F500
Y-92.997Z-9.499
Y-92.817Z-10
Y-63.793F1000
Y-61.596Z-2
Y-61.396Z-1.943
Y61.403
Y61.603Z-2.024
Y63.603Z-9.361F500
Y63.803Z-10
Y92.82F1000
Y93.003Z-9.475
Y95.003Z-2.139
Y95.203Z-1.943
Y115.804
G0Z10
X-12Y-115.797
G1Z-1.943F500
Y-95.597F1000
Y-95.397Z-2.613F500
Y-93.597Z-9.331
Y-93.397Z-10
Y-64.392F1000
Y-62.196Z-2.012
Y-61.996Z-1.943
Y62.003
Y62.203Z-2.036
Y64.203Z-9.373F500
Y64.403Z-10
Y93.405F1000
Y95.403Z-2.589
Y95.603Z-1.943
Y115.804
G0Z10
X-9Y-115.797
G1Z-1.943F500
Y-95.797F1000
Y-95.597Z-2.6F500
Y-93.797Z-9.318
Y-93.597Z-10
Y-64.99F1000
Y-64.796Z-9.361
Y-62.796Z-2.024
Y-62.596Z-1.943
Y62.603
Y62.803Z-2.048
Y64.803Z-9.385F500
Y65.003Z-10
Y93.604F1000
Y95.603Z-2.576
Y95.803Z-1.943
Y115.804
G0Z10
X-6Y-115.797
G1Z-1.943F500
Y-95.997F1000
Y-95.797Z-2.588F500
Y-93.997Z-9.306
Y-93.797Z-10
Y-65.275F1000
Y-65.196Z-9.892
Y-63.196Z-2.428
Y-62.996Z-1.943
Y63.003
Y63.203Z-2.452F500
Y65.203Z-9.917
Y65.268Z-10
Y93.803F1000
Y95.803Z-2.563
Y96.003Z-1.943
Y115.804
G0Z10
X-3Y-115.797
G1Z-1.943F500
Y-96.197F1000
Y-95.997Z-2.575F500
Y-93.997Z-10
Y-65.468F1000
Y-65.396Z-9.905
Y-63.396Z-2.441
Y-63.196Z-1.943
Y63.203
Y63.403Z-2.465F500
Y65.403Z-9.929
Y65.46Z-10
Y94.003Z-9.997F1000
Y96.003Z-2.551
Y96.203Z-1.943
Y115.804
G0Z10
X0Y-115.797
G1Z-1.943F500
Y-96.397F1000
Y-96.197Z-2.563F500
Y-94.197Z-10
Y-65.645F1000
Y-65.596Z-9.941
Y-63.596Z-2.477
Y-63.396Z-1.943
Y63.403
Y63.603Z-2.502F500
Y65.603Z-9.966
Y65.634Z-10
Y94.203Z-9.994F1000
Y96.203Z-2.538
Y96.403Z-1.943
Y115.804
G0Z10
X3Y-115.797
G1Z-1.943F500
Y-96.197F1000
Y-95.997Z-2.575F500
Y-93.997Z-10
Y-65.468F1000
Y-65.396Z-9.905
Y-63.396Z-2.441
Y-63.196Z-1.943
Y63.203
Y63.403Z-2.465F500
Y65.403Z-9.929
Y65.46Z-10
Y94.003Z-9.997F1000
Y96.003Z-2.551
Y96.203Z-1.943
Y115.804
G0Z10
X6Y-115.797
G1Z-1.943F500
Y-95.997F1000
Y-95.797Z-2.588F500
Y-93.997Z-9.306
Y-93.797Z-10
Y-65.275F1000
Y-65.196Z-9.892
Y-63.196Z-2.428
Y-62.996Z-1.943
Y63.003
Y63.203Z-2.452F500
Y65.203Z-9.917
Y65.268Z-10
Y93.803F1000
Y95.803Z-2.563
Y96.003Z-1.943
Y115.804
G0Z10
X9Y-115.797
G1Z-1.943F500
Y-95.797F1000
Y-95.597Z-2.6F500
Y-93.797Z-9.318
Y-93.597Z-10
Y-64.99F1000
Y-64.796Z-9.361
Y-62.796Z-2.024
Y-62.596Z-1.943
Y62.603
Y62.803Z-2.048
Y64.803Z-9.385F500
Y65.003Z-10
Y93.604F1000
Y95.603Z-2.576
Y95.803Z-1.943
Y115.804
G0Z10
X12Y-115.797
G1Z-1.943F500
Y-95.597F1000
Y-95.397Z-2.613F500
Y-93.597Z-9.331
Y-93.397Z-10
Y-64.392F1000
Y-62.196Z-2.012
Y-61.996Z-1.943
Y62.003
Y62.203Z-2.036
Y64.203Z-9.373F500
Y64.403Z-10
Y93.405F1000
Y95.403Z-2.589
Y95.603Z-1.943
Y115.804
G0Z10
X15Y-115.797
G1Z-1.943F500
Y-95.197F1000
Y-94.997Z-2.162F500
Y-92.997Z-9.499
Y-92.817Z-10
Y-63.793F1000
Y-61.596Z-2
Y-61.396Z-1.943
Y61.403
Y61.603Z-2.024
Y63.603Z-9.361F500
Y63.803Z-10
Y92.82F1000
Y93.003Z-9.475
Y95.003Z-2.139
Y95.203Z-1.943
Y115.804
G0Z10
X17.999Y-115.797
G1Z-1.943F500
Y-94.597F1000
Y-94.397Z-2.175F500
Y-92.397Z-9.511
Y-92.218Z-10
Y-63.097F1000
Y-62.996Z-9.854
Y-60.796Z-2.063
Y-60.596Z-1.943
Y60.603
Y60.803Z-2.086F500
Y63.003Z-9.877
Y63.092Z-10
Y92.222F1000
Y92.403Z-9.487
Y94.403Z-2.151
Y94.603Z-1.943
Y115.804
G0Z10
X21Y-115.797
G1Z-1.943F500
Y-93.997F1000
Y-93.797Z-2.187F500
Y-91.797Z-9.523
Y-91.62Z-10
Y-62.063F1000
Y-61.996Z-9.919
Y-59.796Z-2.128
Y-59.596Z-1.943
Y59.603
Y59.803Z-2.151F500
Y62.003Z-9.942
Y62.054Z-10
Y91.623F1000
Y91.803Z-9.499
Y93.803Z-2.163
Y94.003Z-1.943
Y115.804
G0Z10
X24Y-115.797
G1Z-1.943F500
Y-93.397F1000
Y-93.197Z-2.199F500
Y-91.197Z-9.535
Y-91.021Z-10
Y-61.012F1000
Y-60.996Z-9.984
Y-58.796Z-2.193
Y-58.596Z-1.943
Y58.603
Y58.803Z-2.216F500
Y61.007Z-10
Y91.025F1000
Y91.203Z-9.511
Y93.203Z-2.175
Y93.403Z-1.943
Y115.804
G0Z10
X27Y-115.797
G1Z-1.943F500
Y-92.397F1000
Y-90.197Z-9.676F500
Y-90.043Z-10
Y-59.753F1000
Y-59.596Z-9.679
Y-57.396Z-2.299
Y-57.196Z-1.943
Y57.203
Y57.403Z-2.321F500
Y59.603Z-9.701
Y59.755Z-10
Y90.044F1000
Y90.203Z-9.653
Y92.203Z-2.57
Y92.403Z-1.943
Y115.804
G0Z10
X30Y-115.797
G1Z-1.943F500
Y-91.397F1000
Y-91.197Z-2.528F500
Y-89.197Z-9.611
Y-89.03Z-10
Y-58.247F1000
Y-58.196Z-9.945
Y-55.996Z-2.566
Y-55.796Z-1.943
Y55.803
Y58.203Z-9.967F500
Y58.236Z-10
Y89.033F1000
Y89.203Z-9.588
Y91.203Z-2.505
Y91.403Z-1.943
Y115.804
G0Z10
X33Y-115.797
G1Z-1.943F500
Y-90.397F1000
Y-90.197Z-2.463F500
Y-88.197Z-9.546
Y-88.021Z-10
Y-56.759F1000
Y-56.596Z-9.678
Y-54.196Z-2.215
Y-53.996Z-1.943
Y54.003
Y54.203Z-2.235F500
Y56.603Z-9.698
Y56.761Z-10
Y88.024F1000
Y88.203Z-9.523
Y90.203Z-2.44
Y90.403Z-1.943
Y115.804
G0Z10
X35.999Y-115.797
G1Z-1.943F500
Y-89.397F1000
Y-89.197Z-2.398F500
Y-87.197Z-9.481
Y-87.012Z-10
Y-54.756F1000
Y-54.596Z-9.692
Y-52.196Z-2.229
Y-51.996Z-1.943
Y52.003
Y52.203Z-2.249F500
Y54.603Z-9.712
Y54.758Z-10
Y87.016F1000
Y87.203Z-9.458
Y89.203Z-2.375
Y89.403Z-1.943
Y115.804
G0Z10
X39Y-115.797
G1Z-1.943F500
Y-87.997F1000
Y-85.597Z-9.939F500
Y-85.541Z-10
Y-52.753F1000
Y-52.596Z-9.706
Y-50.796Z-4.137
Y-50.196Z-2.43
Y-49.996Z-1.943
Y50.003
Y50.203Z-2.449F500
Y51.003Z-4.755
Y52.603Z-9.726
Y52.754Z-10
Y85.533F1000
Y85.603Z-9.917
Y87.803Z-2.538
Y88.003Z-1.943
Y115.804
G0Z10
X41.999Y-115.797
G1Z-1.943F500
Y-86.597F1000
Y-86.397Z-2.293F500
Y-84.197Z-9.673
Y-84.038Z-10
Y-50.323F1000
Y-50.196Z-9.828
Y-47.396Z-1.955
Y47.203Z-1.943
Y47.403Z-1.973
Y50.203Z-9.846F500
Y50.322Z-10
Y84.04F1000
Y84.203Z-9.651
Y86.403Z-2.271
Y86.603Z-1.943
Y115.804
G0Z10
X45Y-115.797
G1Z-1.943F500
Y-85.197F1000
Y-84.997Z-2.027
Y-82.796Z-9.406F500
Y-82.596Z-10
Y-47.678F1000
Y-47.596Z-9.915
Y-44.996Z-2.629
Y-44.796Z-2.114
Y-44.596Z-1.943
Y44.603
Y44.803Z-2.13F500
Y47.603Z-9.933
Y47.671Z-10
Y82.606F1000
Y85.003Z-2.005
Y85.203Z-1.943
Y115.804
G0Z10
X48Y-115.797
G1Z-1.943F500
Y-83.597F1000
Y-83.397Z-2.431F500
Y-80.996Z-9.958
Y-80.953Z-10
Y-44.593F1000
Y-41.396Z-2.164
Y-41.196Z-1.943
Y41.203
Y41.403Z-2.18F500
Y44.403Z-9.578
Y44.603Z-10
Y80.943F1000
Y81.003Z-9.938
Y83.203Z-3.08
Y83.403Z-2.409
Y83.603Z-1.943
Y115.804
G0Z10
X50.999Y-115.797
G1Z-1.943F500
Y-81.596F1000
Y-81.396Z-2.481F500
Y-78.996Z-9.944
Y-78.941Z-10
Y-41.185F1000
Y-40.996Z-9.613
Y-39.196Z-5.187
Y-37.796Z-2.241
Y-37.596Z-1.943
Y37.603
Y37.803Z-2.254F500
Y39.003Z-4.753
Y41.003Z-9.629
Y41.19Z-10
Y78.933F1000
Y79.003Z-9.924
Y81.403Z-2.46
Y81.603Z-1.943
Y115.804
G0Z10
X54Y-115.797
G1Z-1.943F500
Y-79.596F1000
Y-79.396Z-2.466F500
Y-76.996Z-9.93
Y-76.93Z-10
Y-37.103F1000
Y-36.996Z-9.908
Y-33.196Z-2.012
Y-32.996Z-1.943
Y33.003
Y33.203Z-2.025
Y37.003Z-9.921F500
Y37.099Z-10
Y76.923F1000
Y77.003Z-9.91
Y79.403Z-2.446
Y79.603Z-1.943
Y115.804
G0Z10
X57Y-115.797
G1Z-1.943F500
Y-77.596F1000
Y-77.396Z-2.453F500
Y-74.996Z-9.916
Y-74.921Z-10
Y-32.528F1000
Y-32.396Z-9.896
Y-27.596Z-1.956
Y27.403Z-1.943
Y27.603Z-1.966
Y32.403Z-9.906F500
Y32.527Z-10
Y74.915F1000
Y75.003Z-9.896
Y77.403Z-2.432
Y77.603Z-1.943
Y115.804
G0Z10
X60Y-115.797
G1Z-1.943F500
Y-75.396F1000
Y-75.196Z-2.168F500
Y-72.596Z-9.479
Y-72.396Z-10
Y-26.395F1000
Y-24.996Z-7.72
Y-24.796Z-7.425
Y-20.396Z-2.123
Y-20.196Z-1.943
Y20.203
Y20.403Z-2.13F500
Y24.803Z-7.434
Y26.203Z-9.714
Y26.403Z-10
Y72.403Z-9.999F1000
Y75.203Z-2.15
Y75.403Z-1.943
Y115.804
G0Z10
X63Y-115.797
G1Z-1.943F500
Y-72.796F1000
Y-72.596Z-2.081F500
Y-69.796Z-9.955
Y-69.746Z-10
Y-18.17F1000
Y-17.996Z-9.862
Y-16.996Z-8.664
Y-16.796Z-8.467
Y-8.396Z-2.336
Y-8.196Z-2.238
Y-6.996Z-1.944
Y7.003
Y8.203Z-2.24
Y8.403Z-2.34
Y16.803Z-8.473F500
Y17.003Z-8.672
Y18.003Z-9.87
Y18.173Z-10
Y69.736F1000
Y69.803Z-9.936
Y72.603Z-2.063
Y72.803Z-1.943
Y115.804
G0Z10
X66Y-115.797
G1Z-1.943F500
Y-70.196F1000
Y-69.996Z-1.994
Y-67.196Z-9.868F500
Y-67.087Z-10
Y67.085F1000
Y67.203Z-9.849
Y70.003Z-1.976
Y70.203Z-1.943
Y115.804
G0Z10
X68.999Y-115.797
G1Z-1.943F500
Y-67.196F1000
Y-66.996Z-2.339F500
Y-63.996Z-9.737
Y-63.831Z-10
Y63.834F1000
Y64.003Z-9.721
Y67.003Z-2.323
Y67.203Z-1.943
Y115.804
G0Z10
X71.999Y-115.797
G1Z-1.943F500
Y-63.796F1000
Y-63.596Z-2.288F500
Y-60.596Z-9.686
Y-60.42Z-10
Y60.423F1000
Y60.603Z-9.67
Y63.603Z-2.272
Y63.803Z-1.943
Y115.804
G0Z10
X75Y-115.797
G1Z-1.943F500
Y-60.396F1000
Y-60.196Z-2.237F500
Y-57.596Z-8.648
Y-56.996Z-9.913
Y-56.893Z-10
Y56.89F1000
Y57.003Z-9.9
Y57.603Z-8.632
Y60.203Z-2.221
Y60.403Z-1.943
Y115.804
G0Z10
X78Y-115.797
G1Z-1.943F500
Y-56.396F1000
Y-56.196Z-2.246F500
Y-52.596Z-9.727
Y-52.417Z-10
Y52.42F1000
Y52.603Z-9.713
Y56.203Z-2.233
Y56.403Z-1.943
Y115.804
G0Z10
X81Y-115.797
G1Z-1.943F500
Y-51.996F1000
Y-51.796Z-2.06F500
Y-47.996Z-9.955
Y-47.932Z-10
Y47.924F1000
Y48.003Z-9.942
Y51.803Z-2.046
Y52.003Z-1.943
Y115.804
G0Z10
X83.999Y-115.797
G1Z-1.943F500
Y-47.196F1000
Y-46.996Z-2.068F500
Y-42.186Z-10
Y42.203Z-9.992F1000
Y47.003Z-2.057
Y47.203Z-1.943
Y115.804
G0Z10
X86.999Y-115.797
G1Z-1.943F500
Y-40.996F1000
Y-36.196Z-9.87F500
Y-36.046Z-10
Y36.048F1000
Y36.203Z-9.86
Y40.803Z-2.25
Y41.003Z-1.943
Y115.804
G0Z10
X90Y-115.797
G1Z-1.943F500
Y-34.196F1000
Y-33.996Z-1.963
Y-27.396Z-9.897F500
Y-27.242Z-10
Y27.244F1000
Y27.403Z-9.89
Y34.003Z-1.955
Y115.804Z-1.943
G0Z10
X93Y-115.797
G1Z-1.943F500
Y-25.196F1000
Y-24.996Z-2.158F500
Y-24.796Z-2.34
Y-14.396Z-9.929
Y-14.228Z-10F1000
Y14.231
Y14.403Z-9.924
Y24.803Z-2.336
Y25.203Z-1.943
Y115.804
G0Z10
X96Y-115.797
G1Z-1.943F500
Y-5.596F1000
Y0.003Z-3.298
Y5.403Z-1.977
Y5.603Z-1.943
Y115.804
G0Z10
X98.999Y-115.797
G1Z-1.943F500
Y115.804F1000
G0Z10
X101.999Y-115.797
G1Z-1.943F500
Y115.804F1000
G0Z10
X105Y-115.797
G1Z-1.943F500
Y115.804F1000
G0Z10
X108Y-115.797
G1Z-1.943F500
Y115.804F1000
G0Z10
X111Y-115.797
G1Z-1.943F500
Y115.804F1000
G0Z10
X114Y-115.797
G1Z-1.943F500
Y115.804F1000
G0Z10
X116.999Y-115.797
G1Z-1.943F500
Y115.804F1000
G0Z10
X120Y-115.797
G1Z-1.943F500
Y115.804F1000
G0Z10
X123Y-115.797
G1Z-1.943F500
Y115.804F1000
G0Z10
X126Y-115.797
G1Z-1.943F500
Y115.804F1000
G0Z10
X129Y-115.797
G1Z-1.943F500
Y115.804F1000
G0Z10
X131.999Y-115.797
G1Z-1.943F500
Y115.804F1000
G0Z10
X135Y-115.797
G1Z-1.943F500
Y115.804F1000
G0Z10
X137.999Y-115.797
G1Z-1.943F500
Y115.804F1000
G0Z10
X-14.228Y93
G1Z-10F500
X-12.196Z-10.398F1000
X0.003Z-11.197
X12.203Z-10.397
X14.231Z-10
G0Z10
X-27.242Y90
G1Z-10F500
X-27.196Z-10.03
X-24.196Z-10.996F1000
X-11.796Z-13.424
X0.003Z-14.197
X11.803Z-13.424
X24.003Z-11.044
X27.203Z-10.028
X27.244Z-10
G0Z10
X-36.046Y87
G1Z-10F500
X-35.996Z-10.042
X-23.396Z-14.101F1000
X-11.396Z-16.45
X0.003Z-17.197
X11.403Z-16.45
X23.203Z-14.149
X36.003Z-10.04
X36.048Z-10
G0Z10
X-42.186Y84
G1Z-10F500
X-34.796Z-13.275F1000
X-22.596Z-17.205
X-22.196Z-17.295
X0.003Z-18.077
X22.203Z-17.294
X22.603Z-17.203
X34.803Z-13.272
X42.186Z-10
G0Z10
X-47.932Y81
G1Z-10F500
X-46.796Z-10.649F1000
X-33.596Z-16.503
X-31.196Z-17.282
X-10.596Z-18.695
X10.803Z-18.687
X31.003Z-17.313
X31.203Z-17.28
X33.603Z-16.501
X46.803Z-10.646
X47.803Z-10.089
X47.924Z-10
G0Z10
X-52.417Y78
G1Z-10F500
X-52.396Z-10.031
X-44.996Z-14.147F1000
X-37.996Z-17.25
X-37.796Z-17.311
X-16.596Z-19.172
X10.403Z-18.848
X16.603Z-19.173
X37.803Z-17.31
X38.003Z-17.247
X45.003Z-14.144
X52.403Z-10.027
X52.42Z-10
G0Z10
X-56.893Y75
G1Z-10F500
X-56.796Z-10.081
X-43.996Z-17.208F1000
X-43.796Z-17.306
X-27.196Z-19.167
X0.003Z-17.858
X27.203Z-19.166
X43.803Z-17.305
X56.803Z-10.077
X56.89Z-10
G0Z10
X-60.42Y72
G1Z-10F500
X-60.396Z-10.041
X-55.196Z-13.472
X-48.396Z-17.258F1000
X-48.196Z-17.319
X-34.396Z-19.16
X-34.196Z-19.162
X-10.996Z-17.292
X-9.596Z-17.02
X0.003Z-16.381
X9.403Z-16.993
X11.003Z-17.293
X34.203Z-19.163
X34.403Z-19.159
X48.203Z-17.318
X48.403Z-17.254
X55.203Z-13.468
X60.403Z-10.037
X60.423Z-10
G0Z10
X-63.831Y69
G1Z-10F500
X-63.796Z-10.055
X-52.996Z-17.191
X-52.796Z-17.303F1000
X-40.396Z-19.153
X-40.196Z-19.163
X-23.196Z-17.308
X-18.596Z-15.844
X-9.196Z-13.993
X0.003Z-13.381
X9.003Z-13.967
X18.403Z-15.794
X23.003Z-17.263
X23.203Z-17.308
X40.203Z-19.164
X52.803Z-17.302
X63.803Z-10.05
X63.834Z-10
G0Z10
X-67.087Y66
G1Z-10F500
X-66.996Z-10.108
X-65.996Z-10.861
X-56.396Z-17.205
X-56.196Z-17.311F1000
X-44.796Z-19.166
X-30.796Z-17.313
X-30.596Z-17.256
X-27.396Z-15.841
X-17.796Z-12.74
X-8.796Z-10.966
X0.003Z-10.381
X8.603Z-10.94
X17.603Z-12.689
X27.403Z-15.844
X30.603Z-17.259
X30.803Z-17.314
X44.603Z-19.15
X44.803Z-19.165
X56.203Z-17.31
X66.003Z-10.857
X67.003Z-10.103
X67.085Z-10
G0Z10
X18.173Y63
G1Z-10F500
X18.203Z-10.023
X26.003Z-12.537F1000
X36.403Z-17.142
X36.603Z-17.248
X36.803Z-17.317
X49.003Z-19.155
X49.203
X59.603Z-17.313
X59.803Z-17.214
X63.003Z-15.099
X69.603Z-10.127
X69.736Z-10
G0Z10
X26.399Y60
G1Z-10F500
X34.603Z-13.644F1000
X41.203Z-17.304
X52.403Z-19.152
X52.603Z-19.158
X62.603Z-17.323
X62.803Z-17.232
X72.402Z-10
G0Z10
X32.527Y57
G1Z-10F500
X32.603Z-10.057
X43.803Z-16.268F1000
X45.203Z-17.189F500
X45.403Z-17.307
X55.803Z-19.148F1000
X56.003Z-19.162
X65.203Z-17.329
X65.403Z-17.256
X74.403Z-10.465
X74.803Z-10.132
X74.915Z-10
G0Z10
X37.099Y54
G1Z-10F500
X37.203Z-10.083
X41.403Z-12.426F1000
X48.803Z-17.303F500
X58.603Z-19.152F1000
X58.803Z-19.153
X67.803Z-17.336
X68.003Z-17.279
X70.403Z-15.468
X76.803Z-10.135
X76.923Z-10
G0Z10
X41.189Y51
G1Z-10F500
X41.203Z-10.026
X51.003Z-16.508
X52.003Z-17.255
X52.203Z-17.329F1000
X61.203Z-19.146
X61.403Z-19.159
X70.203Z-17.302
X78.803Z-10.139
X78.933Z-10
G0Z10
X44.597Y48
G1Z-10F500
X48.203Z-12.41
X54.603Z-17.232
X54.803Z-17.323F1000
X63.803Z-19.167
X72.203Z-17.303
X80.803Z-10.143
X80.943Z-10
G0Z10
X47.671Y45
G1Z-10F500
X47.803Z-10.126
X57.203Z-17.208
X57.403Z-17.317F1000
X65.803Z-19.166
X74.203Z-17.304
X82.606Z-10
G0Z10
X50.322Y42
G1Z-10F500
X50.403Z-10.103
X55.003Z-13.59
X59.403Z-17.256
X59.603Z-17.334F1000
X67.803Z-19.165
X75.803Z-17.341
X76.003Z-17.27
X84.003Z-10.079
X84.04Z-10
G0Z10
X52.754Y39
G1Z-10F500
X52.803Z-10.086
X61.403Z-17.252
X61.603Z-17.333F1000
X69.603Z-19.155
X69.803Z-19.142
X77.403Z-17.312
X77.603Z-17.161
X85.403Z-10.151
X85.533Z-10
G0Z10
X54.758Y36
G1Z-10F500
X54.803Z-10.083
X63.403Z-17.306
X71.003Z-19.136F1000
X71.203Z-19.161
X78.803Z-17.331
X79.003Z-17.233
X87.003Z-10.038
X87.016Z-10
G0Z10
X56.761Y33
G1Z-10F500
X56.803Z-10.079
X64.803Z-17.246
X65.003Z-17.335F1000
X72.603Z-19.165
X80.203Z-17.343
X80.403Z-17.267
X88.003Z-10.055
X88.024Z-10
G0Z10
X58.236Y30
G1Z-10F500
X66.203Z-17.175
X66.403Z-17.315
X74.003Z-19.167F1000
X81.203Z-17.348
X81.403Z-17.285
X89.003Z-10.072
X89.033Z-10
G0Z10
X59.755Y27
G1Z-10F500
X59.803Z-10.092
X67.603Z-17.225
X67.803Z-17.332F1000
X75.003Z-19.162
X75.203Z-19.132
X82.403Z-17.301
X90.003Z-10.09
X90.044Z-10
G0Z10
X61.007Y24
G1Z-10F500
X68.603Z-17.207
X68.803Z-17.327
X76.003Z-19.158F1000
X76.203Z-19.137
X83.403Z-17.306
X91.003Z-10.059
X91.025Z-10
G0Z10
X62.054Y21
G1Z-10F500
X62.203Z-10.167
X69.603Z-17.19
X69.803Z-17.322
X77.003Z-19.153F1000
X77.203Z-19.142
X84.203Z-17.309
X91.603Z-10.055
X91.623Z-10
G0Z10
X63.092Y18
G1Z-10F500
X63.203Z-10.15
X70.603Z-17.289
X77.603Z-19.141F1000
X77.803Z-19.151
X84.803Z-17.308
X92.203Z-10.052
X92.222Z-10
G0Z10
X63.797Y15
G1Z-10F500
X71.203Z-17.292
X78.203Z-19.142F1000
X78.403Z-19.151
X85.403Z-17.307
X92.803Z-10.049
X92.82Z-10
G0Z10
X64.396Y12
G1Z-10F500
X64.403Z-10.021
X71.803Z-17.295
X78.803Z-19.143F1000
X79.003Z-19.15
X86.003Z-17.306
X93.405Z-10
G0Z10
X64.995Y9
G1Z-10F500
X65.003Z-10.025
X72.203Z-17.167
X72.403Z-17.319
X79.203Z-19.141F1000
X79.403Z-19.151
X86.203Z-17.329
X86.403Z-17.204
X93.604Z-10
G0Z10
X65.268Y6
G1Z-10F500
X65.403Z-10.171
X72.403Z-17.171
X72.603Z-17.32
X79.403Z-19.142F1000
X79.603Z-19.15
X86.403Z-17.328
X86.603Z-17.2
X93.803Z-10
G0Z10
X65.46Y3
G1Z-10F500
X65.603Z-10.174
X72.603Z-17.174
X72.803Z-17.321
X79.603Z-19.143F1000
X79.803Z-19.149
X86.603Z-17.327
X86.803Z-17.197
X94.001Z-10
G0Z10
X65.634Y0
G1Z-10F500
X72.803Z-17.184
X73.003Z-17.323
X79.803Z-19.146F1000
X80.003Z-19.148
X86.803Z-17.326
X87.003Z-17.194
X94.197Z-10
G0Z10
X65.46Y-2.999
G1Z-10F500
X65.603Z-10.174
X72.603Z-17.174
X72.803Z-17.321
X79.603Z-19.143F1000
X79.803Z-19.149
X86.603Z-17.327
X86.803Z-17.197
X94.001Z-10
G0Z10
X65.268Y-5.999
G1Z-10F500
X65.403Z-10.171
X72.403Z-17.171
X72.603Z-17.32
X79.403Z-19.142F1000
X79.603Z-19.15
X86.403Z-17.328
X86.603Z-17.2
X93.803Z-10
G0Z10
X64.995Y-8.999
G1Z-10F500
X65.003Z-10.025
X72.203Z-17.167
X72.403Z-17.319
X79.203Z-19.141F1000
X79.403Z-19.151
X86.203Z-17.329
X86.403Z-17.204
X93.604Z-10
G0Z10
X64.396Y-11.999
G1Z-10F500
X64.403Z-10.021
X71.803Z-17.295
X78.803Z-19.143F1000
X79.003Z-19.15
X86.003Z-17.306
X93.405Z-10
G0Z10
X63.797Y-14.999
G1Z-10F500
X71.203Z-17.292
X78.203Z-19.142F1000
X78.403Z-19.151
X85.403Z-17.307
X92.803Z-10.049
X92.82Z-10
G0Z10
X63.092Y-17.999
G1Z-10F500
X63.203Z-10.15
X70.603Z-17.289
X77.603Z-19.141F1000
X77.803Z-19.151
X84.803Z-17.308
X92.203Z-10.052
X92.222Z-10
G0Z10
X62.054Y-20.999
G1Z-10F500
X62.203Z-10.167
X69.603Z-17.19
X69.803Z-17.322
X77.003Z-19.153F1000
X77.203Z-19.142
X84.203Z-17.309
X91.603Z-10.055
X91.623Z-10
G0Z10
X61.007Y-23.999
G1Z-10F500
X68.603Z-17.207
X68.803Z-17.327
X76.003Z-19.158F1000
X76.203Z-19.137
X83.403Z-17.306
X91.003Z-10.059
X91.025Z-10
G0Z10
X59.755Y-26.999
G1Z-10F500
X59.803Z-10.092
X67.603Z-17.225
X67.803Z-17.332F1000
X75.003Z-19.162
X75.203Z-19.132
X82.403Z-17.301
X90.003Z-10.09
X90.044Z-10
G0Z10
X58.236Y-29.999
G1Z-10F500
X66.203Z-17.175
X66.403Z-17.315
X74.003Z-19.167F1000
X81.203Z-17.348
X81.403Z-17.285
X89.003Z-10.072
X89.033Z-10
G0Z10
X56.761Y-32.999
G1Z-10F500
X56.803Z-10.079
X64.803Z-17.246
X65.003Z-17.335F1000
X72.603Z-19.165
X80.203Z-17.343
X80.403Z-17.267
X88.003Z-10.055
X88.024Z-10
G0Z10
X54.758Y-35.999
G1Z-10F500
X54.803Z-10.083
X63.403Z-17.306
X71.003Z-19.136F1000
X71.203Z-19.161
X78.803Z-17.331
X79.003Z-17.233
X87.003Z-10.038
X87.016Z-10
G0Z10
X52.754Y-38.999
G1Z-10F500
X52.803Z-10.086
X61.403Z-17.252
X61.603Z-17.333F1000
X69.603Z-19.155
X69.803Z-19.142
X77.403Z-17.312
X77.603Z-17.161
X85.403Z-10.151
X85.533Z-10
G0Z10
X50.322Y-41.999
G1Z-10F500
X50.403Z-10.103
X55.003Z-13.59
X59.403Z-17.256
X59.603Z-17.334F1000
X67.803Z-19.165
X75.803Z-17.341
X76.003Z-17.27
X84.003Z-10.079
X84.04Z-10
G0Z10
X47.671Y-44.999
G1Z-10F500
X47.803Z-10.126
X57.203Z-17.208
X57.403Z-17.317F1000
X65.803Z-19.166
X74.203Z-17.304
X82.606Z-10
G0Z10
X44.597Y-47.999
G1Z-10F500
X48.203Z-12.41
X54.603Z-17.232
X54.803Z-17.323F1000
X63.803Z-19.167
X72.203Z-17.303
X80.803Z-10.143
X80.943Z-10
G0Z10
X41.19Y-50.999
G1Z-10F500
X41.203Z-10.026
X51.003Z-16.508
X52.003Z-17.255
X52.203Z-17.329F1000
X61.203Z-19.146
X61.403Z-19.159
X70.203Z-17.302
X78.803Z-10.139
X78.933Z-10
G0Z10
X37.099Y-53.999
G1Z-10F500
X37.203Z-10.083
X41.403Z-12.426F1000
X48.803Z-17.303F500
X58.603Z-19.152F1000
X58.803Z-19.153
X67.803Z-17.336
X68.003Z-17.279
X70.403Z-15.468
X76.803Z-10.135
X76.923Z-10
G0Z10
X32.527Y-56.999
G1Z-10F500
X32.603Z-10.057
X43.803Z-16.268F1000
X45.203Z-17.189F500
X45.403Z-17.307
X55.803Z-19.148F1000
X56.003Z-19.162
X65.203Z-17.329
X65.403Z-17.256
X74.403Z-10.465
X74.803Z-10.132
X74.915Z-10
G0Z10
X26.399Y-59.999
G1Z-10F500
X34.603Z-13.644F1000
X41.203Z-17.304
X52.403Z-19.152
X52.603Z-19.158
X62.603Z-17.323
X62.803Z-17.232
X72.402Z-10
G0Z10
X18.173Y-62.999
G1Z-10F500
X18.203Z-10.023
X26.003Z-12.537F1000
X36.403Z-17.142
X36.603Z-17.248
X36.803Z-17.317
X49.003Z-19.155
X49.203
X59.603Z-17.313
X59.803Z-17.214
X63.003Z-15.099
X69.603Z-10.127
X69.736Z-10
G0Z10
X-69.746Y63
G1Z-10F500
X-62.996Z-15.104
X-59.796Z-17.218
X-59.596Z-17.315F1000
X-49.196Z-19.156
X-48.996Z-19.154
X-36.796Z-17.316
X-36.596Z-17.245
X-26.196Z-12.611
X-18.196Z-10.02
X-18.17Z-10
G0Z10
X-72.398Y60
G1Z-10F500
X-62.796Z-17.237
X-62.596Z-17.325F1000
X-52.596Z-19.16
X-52.396Z-19.151
X-41.196Z-17.303
X-34.596Z-13.641
X-26.395Z-10
G0Z10
X-74.921Y57
G1Z-10F500
X-74.796Z-10.137
X-65.396Z-17.261
X-65.196Z-17.331F1000
X-55.996Z-19.163
X-45.396Z-17.306
X-43.596Z-16.144
X-32.996Z-10.243
X-32.596Z-10.054
X-32.528Z-10
G0Z10
X-76.93Y54
G1Z-10F500
X-76.796Z-10.141
X-70.396Z-15.474
X-67.996Z-17.284
X-58.796Z-19.154F1000
X-58.596Z-19.151
X-48.796Z-17.302
X-41.396Z-12.423
X-37.196Z-10.08
X-37.103Z-10
G0Z10
X-78.941Y51
G1Z-10F500
X-78.796Z-10.145
X-70.196Z-17.304
X-61.396Z-19.16F1000
X-61.196Z-19.145
X-52.196Z-17.328
X-51.996Z-17.25
X-50.796Z-16.365
X-41.196Z-10.021
X-41.185Z-10
G0Z10
X-80.953Y48
G1Z-10F500
X-72.196Z-17.305
X-63.996Z-19.136F1000
X-63.796Z-19.165
X-54.796Z-17.322
X-54.596Z-17.227
X-47.796Z-12.123
X-44.593Z-10
G0Z10
X-82.601Y45
G1Z-10F500
X-74.396Z-17.152
X-74.196Z-17.306
X-65.996Z-19.137F1000
X-65.796Z-19.164
X-57.396Z-17.315
X-57.196Z-17.203
X-47.796Z-10.121
X-47.678Z-10
G0Z10
X-84.038Y42
G1Z-10F500
X-83.997Z-10.085
X-75.996Z-17.276
X-67.996Z-19.138F1000
X-67.796Z-19.163
X-59.596Z-17.332
X-59.396Z-17.251
X-54.396Z-13.111
X-50.396Z-10.098
X-50.323Z-10
G0Z10
X-85.541Y39
G1Z-10F500
X-85.397Z-10.156
X-77.596Z-17.167
X-77.396Z-17.314
X-69.796Z-19.144F1000
X-69.596Z-19.153
X-61.596Z-17.331
X-61.396Z-17.247
X-52.796Z-10.081
X-52.753Z-10
G0Z10
X-87.012Y36
G1Z-10F500
X-86.997Z-10.044
X-78.996Z-17.239
X-78.796Z-17.333F1000
X-71.196Z-19.163
X-63.396Z-17.304
X-54.796Z-10.077
X-54.756Z-10
G0Z10
X-88.021Y33
G1Z-10F500
X-87.997Z-10.061
X-80.396Z-17.273
X-72.796Z-19.134F1000
X-72.596Z-19.163
X-64.996Z-17.333
X-64.796Z-17.24
X-56.796Z-10.073
X-56.759Z-10
G0Z10
X-89.03Y30
G1Z-10F500
X-88.997Z-10.079
X-81.396Z-17.291
X-74.196Z-19.129F1000
X-73.996Z-19.165
X-66.396Z-17.314
X-66.196Z-17.169
X-58.396Z-10.158
X-58.247Z-10
G0Z10
X-90.043Y27
G1Z-10F500
X-89.997Z-10.096
X-82.396Z-17.303
X-75.196Z-19.134F1000
X-74.996Z-19.161
X-67.796Z-17.33
X-67.596Z-17.218
X-59.796Z-10.087
X-59.753Z-10
G0Z10
X-91.021Y24
G1Z-10F500
X-90.997Z-10.065
X-83.597Z-17.136
X-83.397Z-17.308
X-76.196Z-19.139F1000
X-75.996Z-19.156
X-68.796Z-17.325
X-68.596Z-17.201
X-61.012Z-10
G0Z10
X-91.62Y21
G1Z-10F500
X-91.597Z-10.062
X-84.397Z-17.139
X-84.197Z-17.31
X-77.196Z-19.143F1000
X-76.996Z-19.151
X-69.796Z-17.321
X-69.596Z-17.184
X-62.196Z-10.161
X-62.063Z-10
G0Z10
X-92.218Y18
G1Z-10F500
X-92.197Z-10.059
X-84.997Z-17.135
X-84.797Z-17.31
X-77.796Z-19.153F1000
X-77.596Z-19.14
X-70.796Z-17.349
X-70.596Z-17.282
X-63.196Z-10.144
X-63.097Z-10
G0Z10
X-92.817Y15
G1Z-10F500
X-92.797Z-10.055
X-85.597Z-17.132
X-85.397Z-17.309
X-78.396Z-19.152F1000
X-78.196Z-19.141
X-71.396Z-17.35
X-71.196Z-17.285
X-63.793Z-10
G0Z10
X-93.401Y12
G1Z-10F500
X-86.197Z-17.129
X-85.997Z-17.308
X-78.996Z-19.151F1000
X-78.796Z-19.141
X-71.796Z-17.289
X-64.392Z-10
G0Z10
X-93.6Y9
G1Z-10F500
X-86.397Z-17.21
X-86.197Z-17.331
X-79.396Z-19.153F1000
X-79.196Z-19.139
X-72.396Z-17.317
X-72.196Z-17.161
X-64.99Z-10
G0Z10
X-93.799Y6
G1Z-10F500
X-86.597Z-17.207
X-86.397Z-17.33
X-79.596Z-19.152F1000
X-79.396Z-19.14
X-72.596Z-17.318
X-72.396Z-17.164
X-65.396Z-10.164
X-65.275Z-10
G0Z10
X-93.998Y3
G1Z-10F500
X-86.797Z-17.204
X-86.597Z-17.329
X-79.796Z-19.151F1000
X-79.596Z-19.141
X-72.796Z-17.319
X-72.596Z-17.168
X-65.596Z-10.167
X-65.468Z-10
G0Z10
X-94.197Y0
G1Z-10F500
X-86.997Z-17.2
X-86.797Z-17.328
X-79.996Z-19.15F1000
X-79.796Z-19.144
X-72.996Z-17.322
X-72.796Z-17.177
X-65.796Z-10.177
X-65.645Z-10
G0Z10
X-93.998Y-2.999
G1Z-10F500
X-86.797Z-17.204
X-86.597Z-17.329
X-79.796Z-19.151F1000
X-79.596Z-19.141
X-72.796Z-17.319
X-72.596Z-17.168
X-65.596Z-10.167
X-65.468Z-10
G0Z10
X-93.799Y-5.999
G1Z-10F500
X-86.597Z-17.207
X-86.397Z-17.33
X-79.596Z-19.152F1000
X-79.396Z-19.14
X-72.596Z-17.318
X-72.396Z-17.164
X-65.396Z-10.164
X-65.275Z-10
G0Z10
X-93.6Y-8.999
G1Z-10F500
X-86.397Z-17.21
X-86.197Z-17.331
X-79.396Z-19.153F1000
X-79.196Z-19.139
X-72.396Z-17.317
X-72.196Z-17.161
X-64.99Z-10
G0Z10
X-93Y-14.228
G1Z-10F500
Y-12.196Z-10.398F1000
Y0.003Z-11.197
Y12.203Z-10.397
Y14.231Z-10
G0Z10
X-93.401Y-11.999
G1Z-10F500
X-86.197Z-17.129
X-85.997Z-17.308
X-78.996Z-19.151F1000
X-78.796Z-19.141
X-71.796Z-17.289
X-64.392Z-10
G0Z10
X-92.817Y-14.999
G1Z-10F500
X-92.797Z-10.055
X-85.597Z-17.132
X-85.397Z-17.309
X-78.396Z-19.152F1000
X-78.196Z-19.141
X-71.396Z-17.35
X-71.196Z-17.285
X-63.793Z-10
G0Z10
X-92.218Y-17.999
G1Z-10F500
X-92.197Z-10.059
X-84.997Z-17.135
X-84.797Z-17.31
X-77.796Z-19.153F1000
X-77.596Z-19.14
X-70.796Z-17.349
X-70.596Z-17.282
X-63.196Z-10.144
X-63.097Z-10
G0Z10
X-90Y-27.242
G1Z-10F500
Y-27.196Z-10.03
Y-24.196Z-10.996F1000
Y-11.796Z-13.424
Y0.003Z-14.197
Y11.803Z-13.424
Y24.003Z-11.044
Y27.203Z-10.028
Y27.244Z-10
G0Z10
X-91.62Y-20.999
G1Z-10F500
X-91.597Z-10.062
X-84.397Z-17.139
X-84.197Z-17.31
X-77.196Z-19.143F1000
X-76.996Z-19.151
X-69.796Z-17.321
X-69.596Z-17.184
X-62.196Z-10.161
X-62.063Z-10
G0Z10
X-91.021Y-23.999
G1Z-10F500
X-90.997Z-10.065
X-83.597Z-17.136
X-83.397Z-17.308
X-76.196Z-19.139F1000
X-75.996Z-19.156
X-68.796Z-17.325
X-68.596Z-17.201
X-61.012Z-10
G0Z10
X-86.999Y-36.046
G1Z-10F500
Y-35.996Z-10.042
Y-23.396Z-14.101F1000
Y-11.396Z-16.45
Y0.003Z-17.197
Y11.403Z-16.45
Y23.203Z-14.149
Y36.003Z-10.04
Y36.048Z-10
G0Z10
X-90.043Y-26.999
G1Z-10F500
X-89.997Z-10.096
X-82.396Z-17.303
X-75.196Z-19.134F1000
X-74.996Z-19.161
X-67.796Z-17.33
X-67.596Z-17.218
X-59.796Z-10.087
X-59.753Z-10
G0Z10
X-83.999Y-42.186
G1Z-10F500
Y-34.796Z-13.275F1000
Y-22.596Z-17.205
Y-22.196Z-17.295
Y0.003Z-18.077
Y22.203Z-17.294
Y22.603Z-17.203
Y34.803Z-13.272
Y42.186Z-10
G0Z10
X-89.03Y-29.999
G1Z-10F500
X-88.997Z-10.079
X-81.396Z-17.291
X-74.196Z-19.129F1000
X-73.996Z-19.165
X-66.396Z-17.314
X-66.196Z-17.169
X-58.396Z-10.158
X-58.247Z-10
G0Z10
X-81Y-47.932
G1Z-10F500
Y-46.796Z-10.649F1000
Y-33.596Z-16.503
Y-31.196Z-17.282
Y-10.596Z-18.695
Y10.803Z-18.687
Y31.003Z-17.313
Y31.203Z-17.28
Y33.603Z-16.501
Y46.803Z-10.646
Y47.803Z-10.089
Y47.924Z-10
G0Z10
X-88.021Y-32.999
G1Z-10F500
X-87.997Z-10.061
X-80.396Z-17.273
X-72.796Z-19.134F1000
X-72.596Z-19.163
X-64.996Z-17.333
X-64.796Z-17.24
X-56.796Z-10.073
X-56.759Z-10
G0Z10
X-78Y-52.417
G1Z-10F500
Y-52.396Z-10.031
Y-44.996Z-14.147F1000
Y-37.996Z-17.25
Y-37.796Z-17.311
Y-16.596Z-19.172
Y10.403Z-18.848
Y16.603Z-19.173
Y37.803Z-17.31
Y38.003Z-17.247
Y45.003Z-14.144
Y52.403Z-10.027
Y52.42Z-10
G0Z10
X-87.012Y-35.999
G1Z-10F500
X-86.997Z-10.044
X-78.996Z-17.239
X-78.796Z-17.333F1000
X-71.196Z-19.163
X-63.396Z-17.304
X-54.796Z-10.077
X-54.756Z-10
G0Z10
X-75Y-56.893
G1Z-10F500
Y-56.796Z-10.081
Y-43.996Z-17.208F1000
Y-43.796Z-17.306
Y-27.196Z-19.167
Y0.003Z-17.858
Y27.203Z-19.166
Y43.803Z-17.305
Y56.803Z-10.077
Y56.89Z-10
G0Z10
X-85.541Y-38.999
G1Z-10F500
X-85.397Z-10.156
X-77.596Z-17.167
X-77.396Z-17.314
X-69.796Z-19.144F1000
X-69.596Z-19.153
X-61.596Z-17.331
X-61.396Z-17.247
X-52.796Z-10.081
X-52.753Z-10
G0Z10
X-71.999Y-60.42
G1Z-10F500
Y-60.396Z-10.041
Y-55.196Z-13.472
Y-48.396Z-17.258F1000
Y-48.196Z-17.319
Y-34.396Z-19.16
Y-34.196Z-19.162
Y-10.996Z-17.292
Y-9.596Z-17.019
Y0.003Z-16.381
Y9.403Z-16.993
Y11.003Z-17.293
Y34.203Z-19.163
Y34.403Z-19.159
Y48.203Z-17.318
Y48.403Z-17.254
Y55.203Z-13.468
Y60.403Z-10.037
Y60.423Z-10
G0Z10
X-84.038Y-41.999
G1Z-10F500
X-83.997Z-10.085
X-75.996Z-17.276
X-67.996Z-19.138F1000
X-67.796Z-19.163
X-59.596Z-17.332
X-59.396Z-17.251
X-54.396Z-13.111
X-50.396Z-10.098
X-50.323Z-10
G0Z10
X-68.999Y-63.831
G1Z-10F500
Y-63.796Z-10.055
Y-52.996Z-17.191
Y-52.796Z-17.303F1000
Y-40.396Z-19.153
Y-40.196Z-19.163
Y-23.196Z-17.308
Y-18.596Z-15.844
Y-9.196Z-13.993
Y0.003Z-13.381
Y9.003Z-13.966
Y18.403Z-15.794
Y23.003Z-17.263
Y23.203Z-17.308
Y40.203Z-19.164
Y52.803Z-17.302
Y63.803Z-10.05
Y63.834Z-10
G0Z10
X-82.601Y-44.999
G1Z-10F500
X-74.396Z-17.152
X-74.196Z-17.306
X-65.996Z-19.137F1000
X-65.796Z-19.164
X-57.396Z-17.315
X-57.196Z-17.203
X-47.796Z-10.121
X-47.678Z-10
G0Z10
X-66Y-67.087
G1Z-10F500
Y-66.996Z-10.108
Y-65.996Z-10.861
Y-56.396Z-17.205
Y-56.196Z-17.311F1000
Y-44.796Z-19.166
Y-30.796Z-17.313
Y-30.596Z-17.256
Y-27.396Z-15.841
Y-17.796Z-12.74
Y-8.796Z-10.966
Y0.003Z-10.381
Y8.603Z-10.94
Y17.603Z-12.689
Y27.403Z-15.844
Y30.603Z-17.259
Y30.803Z-17.314
Y44.603Z-19.15
Y44.803Z-19.165
Y56.203Z-17.31
Y66.003Z-10.857
Y67.003Z-10.103
Y67.085Z-10
G0Z10
X-63Y18.173
G1Z-10F500
Y18.203Z-10.023
Y26.003Z-12.537F1000
Y36.403Z-17.142
Y36.603Z-17.248
Y36.803Z-17.317
Y49.003Z-19.155
Y49.203
Y59.603Z-17.313
Y59.803Z-17.214
Y63.003Z-15.099
Y69.603Z-10.127
Y69.736Z-10
G0Z10
X-60Y26.399
G1Z-10F500
Y34.603Z-13.644F1000
Y41.203Z-17.304
Y52.403Z-19.152
Y52.603Z-19.158
Y62.603Z-17.323
Y62.803Z-17.232
Y72.402Z-10
G0Z10
X-57Y32.527
G1Z-10F500
Y32.603Z-10.057
Y43.803Z-16.268F1000
Y45.203Z-17.189F500
Y45.403Z-17.307
Y55.803Z-19.148F1000
Y56.003Z-19.162
Y65.203Z-17.329
Y65.403Z-17.256
Y74.403Z-10.465
Y74.803Z-10.132
Y74.915Z-10
G0Z10
X-54Y37.099
G1Z-10F500
Y37.203Z-10.083
Y41.403Z-12.426F1000
Y48.803Z-17.303F500
Y58.603Z-19.152F1000
Y58.803Z-19.153
Y67.803Z-17.336
Y68.003Z-17.279
Y70.403Z-15.468
Y76.803Z-10.135
Y76.923Z-10
G0Z10
X-50.999Y41.19
G1Z-10F500
Y41.203Z-10.026
Y51.003Z-16.508
Y52.003Z-17.255
Y52.203Z-17.329F1000
Y61.203Z-19.146
Y61.403Z-19.159
Y70.203Z-17.302
Y78.803Z-10.139
Y78.933Z-10
G0Z10
X-48Y44.597
G1Z-10F500
Y48.203Z-12.41
Y54.603Z-17.232
Y54.803Z-17.323F1000
Y63.803Z-19.167
Y72.203Z-17.303
Y80.803Z-10.143
Y80.943Z-10
G0Z10
X-45Y47.671
G1Z-10F500
Y47.803Z-10.126
Y57.203Z-17.208
Y57.403Z-17.317F1000
Y65.803Z-19.166
Y74.203Z-17.304
Y82.606Z-10
G0Z10
X-41.999Y50.322
G1Z-10F500
Y50.403Z-10.103
Y55.003Z-13.59
Y59.403Z-17.256
Y59.603Z-17.334F1000
Y67.803Z-19.165
Y75.803Z-17.341
Y76.003Z-17.27
Y84.003Z-10.079
Y84.04Z-10
G0Z10
X-39Y52.754
G1Z-10F500
Y52.803Z-10.086
Y61.403Z-17.252
Y61.603Z-17.333F1000
Y69.603Z-19.155
Y69.803Z-19.142
Y77.403Z-17.312
Y77.603Z-17.161
Y85.403Z-10.151
Y85.533Z-10
G0Z10
X-35.999Y54.758
G1Z-10F500
Y54.803Z-10.083
Y63.403Z-17.306
Y71.003Z-19.136F1000
Y71.203Z-19.161
Y78.803Z-17.331
Y79.003Z-17.233
Y87.003Z-10.038
Y87.016Z-10
G0Z10
X-33Y56.761
G1Z-10F500
Y56.803Z-10.079
Y64.803Z-17.246
Y65.003Z-17.335F1000
Y72.603Z-19.165
Y80.203Z-17.343
Y80.403Z-17.267
Y88.003Z-10.055
Y88.024Z-10
G0Z10
X-30Y58.236
G1Z-10F500
Y66.203Z-17.175
Y66.403Z-17.315
Y74.003Z-19.167F1000
Y81.203Z-17.348
Y81.403Z-17.285
Y89.003Z-10.072
Y89.033Z-10
G0Z10
X-27Y59.755
G1Z-10F500
Y59.803Z-10.092
Y67.603Z-17.225
Y67.803Z-17.332F1000
Y75.003Z-19.162
Y75.203Z-19.132
Y82.403Z-17.301
Y90.003Z-10.09
Y90.044Z-10
G0Z10
X-24Y61.007
G1Z-10F500
Y68.603Z-17.207
Y68.803Z-17.327
Y76.003Z-19.158F1000
Y76.203Z-19.137
Y83.403Z-17.306
Y91.003Z-10.059
Y91.025Z-10
G0Z10
X-21Y62.054
G1Z-10F500
Y62.203Z-10.167
Y69.603Z-17.19
Y69.803Z-17.322
Y77.003Z-19.153F1000
Y77.203Z-19.142
Y84.203Z-17.309
Y91.603Z-10.055
Y91.623Z-10
G0Z10
X-17.999Y63.092
G1Z-10F500
Y63.203Z-10.15
Y70.603Z-17.289
Y77.603Z-19.141F1000
Y77.803Z-19.151
Y84.803Z-17.308
Y92.203Z-10.052
Y92.222Z-10
G0Z10
X-15Y63.797
G1Z-10F500
Y71.203Z-17.292
Y78.203Z-19.142F1000
Y78.403Z-19.151
Y85.403Z-17.307
Y92.803Z-10.049
Y92.82Z-10
G0Z10
X-12Y64.396
G1Z-10F500
Y64.403Z-10.021
Y71.803Z-17.295
Y78.803Z-19.143F1000
Y79.003Z-19.15
Y86.003Z-17.306
Y93.405Z-10
G0Z10
X-9Y64.995
G1Z-10F500
Y65.003Z-10.025
Y72.203Z-17.167
Y72.403Z-17.319
Y79.203Z-19.141F1000
Y79.403Z-19.151
Y86.203Z-17.329
Y86.403Z-17.204
Y93.604Z-10
G0Z10
X-6Y65.268
G1Z-10F500
Y65.403Z-10.171
Y72.403Z-17.171
Y72.603Z-17.32
Y79.403Z-19.142F1000
Y79.603Z-19.15
Y86.403Z-17.328
Y86.603Z-17.2
Y93.803Z-10
G0Z10
X-3Y65.46
G1Z-10F500
Y65.603Z-10.174
Y72.603Z-17.174
Y72.803Z-17.321
Y79.603Z-19.143F1000
Y79.803Z-19.149
Y86.603Z-17.327
Y86.803Z-17.197
Y94.001Z-10
G0Z10
X0Y65.634
G1Z-10F500
Y72.803Z-17.184
Y73.003Z-17.323
Y79.803Z-19.146F1000
Y80.003Z-19.148
Y86.803Z-17.326
Y87.003Z-17.194
Y94.197Z-10
G0Z10
X3Y65.46
G1Z-10F500
Y65.603Z-10.174
Y72.603Z-17.174
Y72.803Z-17.321
Y79.603Z-19.143F1000
Y79.803Z-19.149
Y86.603Z-17.327
Y86.803Z-17.197
Y94.001Z-10
G0Z10
X6Y65.268
G1Z-10F500
Y65.403Z-10.171
Y72.403Z-17.171
Y72.603Z-17.32
Y79.403Z-19.142F1000
Y79.603Z-19.15
Y86.403Z-17.328
Y86.603Z-17.2
Y93.803Z-10
G0Z10
X9Y64.995
G1Z-10F500
Y65.003Z-10.025
Y72.203Z-17.167
Y72.403Z-17.319
Y79.203Z-19.141F1000
Y79.403Z-19.151
Y86.203Z-17.329
Y86.403Z-17.204
Y93.604Z-10
G0Z10
X12Y64.396
G1Z-10F500
Y64.403Z-10.021
Y71.803Z-17.295
Y78.803Z-19.143F1000
Y79.003Z-19.15
Y86.003Z-17.306
Y93.405Z-10
G0Z10
X15Y63.797
G1Z-10F500
Y71.203Z-17.292
Y78.203Z-19.142F1000
Y78.403Z-19.151
Y85.403Z-17.307
Y92.803Z-10.049
Y92.82Z-10
G0Z10
X17.999Y63.092
G1Z-10F500
Y63.203Z-10.15
Y70.603Z-17.289
Y77.603Z-19.141F1000
Y77.803Z-19.151
Y84.803Z-17.308
Y92.203Z-10.052
Y92.222Z-10
G0Z10
X21Y62.054
G1Z-10F500
Y62.203Z-10.167
Y69.603Z-17.19
Y69.803Z-17.322
Y77.003Z-19.153F1000
Y77.203Z-19.142
Y84.203Z-17.309
Y91.603Z-10.055
Y91.623Z-10
G0Z10
X24Y61.007
G1Z-10F500
Y68.603Z-17.207
Y68.803Z-17.327
Y76.003Z-19.158F1000
Y76.203Z-19.137
Y83.403Z-17.306
Y91.003Z-10.059
Y91.025Z-10
G0Z10
X27Y59.755
G1Z-10F500
Y59.803Z-10.092
Y67.603Z-17.225
Y67.803Z-17.332F1000
Y75.003Z-19.162
Y75.203Z-19.132
Y82.403Z-17.301
Y90.003Z-10.09
Y90.044Z-10
G0Z10
X30Y58.236
G1Z-10F500
Y66.203Z-17.175
Y66.403Z-17.315
Y74.003Z-19.167F1000
Y81.203Z-17.348
Y81.403Z-17.285
Y89.003Z-10.072
Y89.033Z-10
G0Z10
X33Y56.761
G1Z-10F500
Y56.803Z-10.079
Y64.803Z-17.246
Y65.003Z-17.335F1000
Y72.603Z-19.165
Y80.203Z-17.343
Y80.403Z-17.267
Y88.003Z-10.055
Y88.024Z-10
G0Z10
X35.999Y54.758
G1Z-10F500
Y54.803Z-10.083
Y63.403Z-17.306
Y71.003Z-19.136F1000
Y71.203Z-19.161
Y78.803Z-17.331
Y79.003Z-17.233
Y87.003Z-10.038
Y87.016Z-10
G0Z10
X39Y52.754
G1Z-10F500
Y52.803Z-10.086
Y61.403Z-17.252
Y61.603Z-17.333F1000
Y69.603Z-19.155
Y69.803Z-19.142
Y77.403Z-17.312
Y77.603Z-17.161
Y85.403Z-10.151
Y85.533Z-10
G0Z10
X41.999Y50.322
G1Z-10F500
Y50.403Z-10.103
Y55.003Z-13.59
Y59.403Z-17.256
Y59.603Z-17.334F1000
Y67.803Z-19.165
Y75.803Z-17.341
Y76.003Z-17.27
Y84.003Z-10.079
Y84.04Z-10
G0Z10
X45Y47.671
G1Z-10F500
Y47.803Z-10.126
Y57.203Z-17.208
Y57.403Z-17.317F1000
Y65.803Z-19.166
Y74.203Z-17.304
Y82.606Z-10
G0Z10
X48Y44.597
G1Z-10F500
Y48.203Z-12.41
Y54.603Z-17.232
Y54.803Z-17.323F1000
Y63.803Z-19.167
Y72.203Z-17.303
Y80.803Z-10.143
Y80.943Z-10
G0Z10
X50.999Y41.19
G1Z-10F500
Y41.203Z-10.026
Y51.003Z-16.508
Y52.003Z-17.255
Y52.203Z-17.329F1000
Y61.203Z-19.146
Y61.403Z-19.159
Y70.203Z-17.302
Y78.803Z-10.139
Y78.933Z-10
G0Z10
X54Y37.099
G1Z-10F500
Y37.203Z-10.083
Y41.403Z-12.426F1000
Y48.803Z-17.303F500
Y58.603Z-19.152F1000
Y58.803Z-19.153
Y67.803Z-17.336
Y68.003Z-17.279
Y70.403Z-15.468
Y76.803Z-10.135
Y76.923Z-10
G0Z10
X57Y32.527
G1Z-10F500
Y32.603Z-10.057
Y43.803Z-16.268F1000
Y45.203Z-17.189F500
Y45.403Z-17.307
Y55.803Z-19.148F1000
Y56.003Z-19.162
Y65.203Z-17.329
Y65.403Z-17.256
Y74.403Z-10.465
Y74.803Z-10.132
Y74.915Z-10
G0Z10
X60Y26.399
G1Z-10F500
Y34.603Z-13.644F1000
Y41.203Z-17.304
Y52.403Z-19.152
Y52.603Z-19.158
Y62.603Z-17.323
Y62.803Z-17.232
Y72.402Z-10
G0Z10
X63Y18.173
G1Z-10F500
Y18.203Z-10.023
Y26.003Z-12.537F1000
Y36.403Z-17.142
Y36.603Z-17.248
Y36.803Z-17.317
Y49.003Z-19.155
Y49.203
Y59.603Z-17.313
Y59.803Z-17.214
Y63.003Z-15.099
Y69.603Z-10.127
Y69.736Z-10
G0Z10
X-63Y-69.746
G1Z-10F500
Y-62.996Z-15.104
Y-59.796Z-17.219
Y-59.596Z-17.315F1000
Y-49.196Z-19.156
Y-48.996Z-19.154
Y-36.796Z-17.316
Y-36.596Z-17.245
Y-26.196Z-12.611
Y-18.196Z-10.02
Y-18.17Z-10
G0Z10
X-80.953Y-47.999
G1Z-10F500
X-72.196Z-17.305
X-63.996Z-19.136F1000
X-63.796Z-19.165
X-54.796Z-17.322
X-54.596Z-17.227
X-47.796Z-12.122
X-44.593Z-10
G0Z10
X-60Y-72.398
G1Z-10F500
Y-62.796Z-17.237
Y-62.596Z-17.325F1000
Y-52.596Z-19.16
Y-52.396Z-19.151
Y-41.196Z-17.303
Y-34.596Z-13.641
Y-26.395Z-10
G0Z10
X-78.941Y-50.999
G1Z-10F500
X-78.796Z-10.145
X-70.196Z-17.304
X-61.396Z-19.16F1000
X-61.196Z-19.145
X-52.196Z-17.328
X-51.996Z-17.25
X-50.796Z-16.365
X-41.196Z-10.021
X-41.185Z-10
G0Z10
X-57Y-74.921
G1Z-10F500
Y-74.796Z-10.137
Y-65.396Z-17.261
Y-65.196Z-17.331F1000
Y-55.996Z-19.163
Y-45.396Z-17.306
Y-43.596Z-16.144
Y-32.996Z-10.243
Y-32.596Z-10.054
Y-32.528Z-10
G0Z10
X-76.931Y-53.999
G1Z-10F500
X-76.796Z-10.141
X-70.396Z-15.474
X-67.996Z-17.284
X-58.796Z-19.154F1000
X-58.596Z-19.151
X-48.796Z-17.302
X-41.396Z-12.422
X-37.196Z-10.08
X-37.103Z-10
G0Z10
X-54Y-76.93
G1Z-10F500
Y-76.796Z-10.141
Y-70.396Z-15.474
Y-67.996Z-17.284
Y-58.796Z-19.154F1000
Y-58.596Z-19.151
Y-48.796Z-17.302
Y-41.396Z-12.423
Y-37.196Z-10.08
Y-37.103Z-10
G0Z10
X-74.921Y-56.999
G1Z-10F500
X-74.796Z-10.137
X-65.396Z-17.261
X-65.196Z-17.331F1000
X-55.996Z-19.163
X-45.396Z-17.306
X-43.596Z-16.144
X-32.996Z-10.243
X-32.596Z-10.054
X-32.528Z-10
G0Z10
X-50.999Y-78.941
G1Z-10F500
Y-78.796Z-10.145
Y-70.196Z-17.304
Y-61.396Z-19.16F1000
Y-61.196Z-19.145
Y-52.196Z-17.328
Y-51.996Z-17.25
Y-50.796Z-16.365
Y-41.196Z-10.021
Y-41.185Z-10
G0Z10
X-72.398Y-59.999
G1Z-10F500
X-62.796Z-17.237
X-62.596Z-17.325F1000
X-52.596Z-19.16
X-52.396Z-19.151
X-41.196Z-17.303
X-34.596Z-13.641
X-26.395Z-10
G0Z10
X-48Y-80.953
G1Z-10F500
Y-72.196Z-17.305
Y-63.996Z-19.136F1000
Y-63.796Z-19.165
Y-54.796Z-17.322
Y-54.596Z-17.227
Y-47.796Z-12.122
Y-44.593Z-10
G0Z10
X-69.746Y-62.999
G1Z-10F500
X-62.996Z-15.104
X-59.796Z-17.219
X-59.596Z-17.315F1000
X-49.196Z-19.156
X-48.996Z-19.154
X-36.796Z-17.316
X-36.596Z-17.245
X-26.196Z-12.611
X-18.196Z-10.02
X-18.17Z-10
G0Z10
X-45Y-82.601
G1Z-10F500
Y-74.396Z-17.152
Y-74.196Z-17.306
Y-65.996Z-19.137F1000
Y-65.796Z-19.164
Y-57.396Z-17.315
Y-57.196Z-17.203
Y-47.796Z-10.121
Y-47.678Z-10
G0Z10
X-67.087Y-65.999
G1Z-10F500
X-66.996Z-10.108
X-65.996Z-10.861
X-56.396Z-17.205
X-56.196Z-17.311F1000
X-44.796Z-19.166
X-30.796Z-17.313
X-30.596Z-17.256
X-27.396Z-15.841
X-17.796Z-12.74
X-8.796Z-10.966
X0.003Z-10.381
X8.603Z-10.94
X17.603Z-12.689
X27.403Z-15.844
X30.603Z-17.259
X30.803Z-17.314
X44.603Z-19.15
X44.803Z-19.165
X56.203Z-17.31
X66.003Z-10.857
X67.003Z-10.103
X67.085Z-10
G0Z10
X-41.999Y-84.038
G1Z-10F500
Y-83.997Z-10.085
Y-75.996Z-17.276
Y-67.996Z-19.138F1000
Y-67.796Z-19.163
Y-59.596Z-17.332
Y-59.396Z-17.251
Y-54.396Z-13.111
Y-50.396Z-10.098
Y-50.323Z-10
G0Z10
X-63.831Y-68.999
G1Z-10F500
X-63.796Z-10.055
X-52.996Z-17.191
X-52.796Z-17.303F1000
X-40.396Z-19.153
X-40.196Z-19.163
X-23.196Z-17.308
X-18.596Z-15.844
X-9.196Z-13.993
X0.003Z-13.381
X9.003Z-13.966
X18.403Z-15.794
X23.003Z-17.263
X23.203Z-17.308
X40.203Z-19.164
X52.803Z-17.302
X63.803Z-10.05
X63.834Z-10
G0Z10
X-39Y-85.541
G1Z-10F500
Y-85.397Z-10.156
Y-77.596Z-17.167
Y-77.396Z-17.314
Y-69.796Z-19.144F1000
Y-69.596Z-19.153
Y-61.596Z-17.331
Y-61.396Z-17.247
Y-52.796Z-10.081
Y-52.753Z-10
G0Z10
X-60.42Y-71.999
G1Z-10F500
X-60.396Z-10.041
X-55.196Z-13.472
X-48.396Z-17.258F1000
X-48.196Z-17.319
X-34.396Z-19.16
X-34.196Z-19.162
X-10.996Z-17.292
X-9.596Z-17.019
X0.003Z-16.381
X9.403Z-16.993
X11.003Z-17.293
X34.203Z-19.163
X34.403Z-19.159
X48.203Z-17.318
X48.403Z-17.254
X55.203Z-13.468
X60.403Z-10.037
X60.423Z-10
G0Z10
X-35.999Y-87.012
G1Z-10F500
Y-86.997Z-10.044
Y-78.996Z-17.239
Y-78.796Z-17.333F1000
Y-71.196Z-19.163
Y-63.396Z-17.304
Y-54.796Z-10.077
Y-54.756Z-10
G0Z10
X-56.893Y-74.999
G1Z-10F500
X-56.796Z-10.081
X-43.996Z-17.208F1000
X-43.796Z-17.306
X-27.196Z-19.167
X0.003Z-17.858
X27.203Z-19.166
X43.803Z-17.305
X56.803Z-10.077
X56.89Z-10
G0Z10
X-33Y-88.021
G1Z-10F500
Y-87.997Z-10.061
Y-80.396Z-17.273
Y-72.796Z-19.134F1000
Y-72.596Z-19.163
Y-64.996Z-17.333
Y-64.796Z-17.24
Y-56.796Z-10.073
Y-56.759Z-10
G0Z10
X-52.417Y-77.999
G1Z-10F500
X-52.396Z-10.031
X-44.996Z-14.147F1000
X-37.996Z-17.25
X-37.796Z-17.311
X-16.596Z-19.172
X10.403Z-18.848
X16.603Z-19.173
X37.803Z-17.31
X38.003Z-17.247
X45.003Z-14.144
X52.403Z-10.027
X52.42Z-10
G0Z10
X-30Y-89.03
G1Z-10F500
Y-88.997Z-10.079
Y-81.396Z-17.291
Y-74.196Z-19.129F1000
Y-73.996Z-19.165
Y-66.396Z-17.314
Y-66.196Z-17.169
Y-58.396Z-10.158
Y-58.247Z-10
G0Z10
X-47.932Y-80.999
G1Z-10F500
X-46.796Z-10.649F1000
X-33.596Z-16.503
X-31.196Z-17.282
X-10.596Z-18.695
X10.803Z-18.687
X31.003Z-17.313
X31.203Z-17.28
X33.603Z-16.501
X46.803Z-10.646
X47.803Z-10.089
X47.924Z-10
G0Z10
X-27Y-90.043
G1Z-10F500
Y-89.997Z-10.096
Y-82.396Z-17.303
Y-75.196Z-19.134F1000
Y-74.996Z-19.161
Y-67.796Z-17.33
Y-67.596Z-17.218
Y-59.796Z-10.087
Y-59.753Z-10
G0Z10
X-42.187Y-83.999
G1Z-10F500
X-34.796Z-13.275F1000
X-22.596Z-17.205
X-22.196Z-17.295
X0.003Z-18.077
X22.203Z-17.294
X22.603Z-17.203
X34.803Z-13.272
X42.186Z-10
G0Z10
X-24Y-91.021
G1Z-10F500
Y-90.997Z-10.065
Y-83.597Z-17.136
Y-83.397Z-17.308
Y-76.196Z-19.139F1000
Y-75.996Z-19.156
Y-68.796Z-17.325
Y-68.596Z-17.201
Y-61.012Z-10
G0Z10
X-36.046Y-86.999
G1Z-10F500
X-35.996Z-10.042
X-23.396Z-14.101F1000
X-11.396Z-16.45
X0.003Z-17.197
X11.403Z-16.45
X23.203Z-14.149
X36.003Z-10.04
X36.048Z-10
G0Z10
X-21Y-91.62
G1Z-10F500
Y-91.597Z-10.062
Y-84.397Z-17.139
Y-84.197Z-17.31
Y-77.196Z-19.143F1000
Y-76.996Z-19.151
Y-69.796Z-17.321
Y-69.596Z-17.184
Y-62.196Z-10.161
Y-62.063Z-10
G0Z10
X-27.242Y-89.999
G1Z-10F500
X-27.196Z-10.03
X-24.196Z-10.996F1000
X-11.796Z-13.424
X0.003Z-14.197
X11.803Z-13.424
X24.003Z-11.044
X27.203Z-10.028
X27.244Z-10
G0Z10
X-14.228Y-92.999
G1Z-10F500
X-12.196Z-10.398F1000
X0.003Z-11.197
X12.203Z-10.397
X14.231Z-10
G0Z10
X-17.999Y-92.218
G1Z-10F500
Y-92.197Z-10.059
Y-84.997Z-17.135
Y-84.797Z-17.31
Y-77.796Z-19.153F1000
Y-77.596Z-19.14
Y-70.796Z-17.349
Y-70.596Z-17.282
Y-63.196Z-10.144
Y-63.097Z-10
G0Z10
X-15Y-92.817
G1Z-10F500
Y-92.797Z-10.055
Y-85.597Z-17.132
Y-85.397Z-17.309
Y-78.396Z-19.152F1000
Y-78.196Z-19.141
Y-71.396Z-17.35
Y-71.196Z-17.285
Y-63.793Z-10
G0Z10
X-12Y-93.401
G1Z-10F500
Y-86.197Z-17.129
Y-85.997Z-17.308
Y-78.996Z-19.151F1000
Y-78.796Z-19.141
Y-71.796Z-17.289
Y-64.392Z-10
G0Z10
X-9Y-93.6
G1Z-10F500
Y-86.397Z-17.21
Y-86.197Z-17.331
Y-79.396Z-19.153F1000
Y-79.196Z-19.139
Y-72.396Z-17.317
Y-72.196Z-17.161
Y-64.99Z-10
G0Z10
X-6Y-93.799
G1Z-10F500
Y-86.597Z-17.207
Y-86.397Z-17.33
Y-79.596Z-19.152F1000
Y-79.396Z-19.14
Y-72.596Z-17.318
Y-72.396Z-17.164
Y-65.396Z-10.164
Y-65.275Z-10
G0Z10
X-3Y-93.998
G1Z-10F500
Y-86.797Z-17.204
Y-86.597Z-17.329
Y-79.796Z-19.151F1000
Y-79.596Z-19.141
Y-72.796Z-17.319
Y-72.596Z-17.168
Y-65.596Z-10.167
Y-65.468Z-10
G0Z10
X0Y-94.197
G1Z-10F500
Y-86.997Z-17.2
Y-86.797Z-17.328
Y-79.996Z-19.15F1000
Y-79.796Z-19.144
Y-72.996Z-17.322
Y-72.796Z-17.177
Y-65.796Z-10.177
Y-65.645Z-10
G0Z10
X3Y-93.998
G1Z-10F500
Y-86.797Z-17.204
Y-86.597Z-17.329
Y-79.796Z-19.151F1000
Y-79.596Z-19.141
Y-72.796Z-17.319
Y-72.596Z-17.168
Y-65.596Z-10.167
Y-65.468Z-10
G0Z10
X6Y-93.799
G1Z-10F500
Y-86.597Z-17.207
Y-86.397Z-17.33
Y-79.596Z-19.152F1000
Y-79.396Z-19.14
Y-72.596Z-17.318
Y-72.396Z-17.164
Y-65.396Z-10.164
Y-65.275Z-10
G0Z10
X9Y-93.6
G1Z-10F500
Y-86.397Z-17.21
Y-86.197Z-17.331
Y-79.396Z-19.153F1000
Y-79.196Z-19.139
Y-72.396Z-17.317
Y-72.196Z-17.161
Y-64.99Z-10
G0Z10
X12Y-93.401
G1Z-10F500
Y-86.197Z-17.129
Y-85.997Z-17.308
Y-78.996Z-19.151F1000
Y-78.796Z-19.141
Y-71.796Z-17.289
Y-64.392Z-10
G0Z10
X15Y-92.817
G1Z-10F500
Y-92.797Z-10.055
Y-85.597Z-17.132
Y-85.397Z-17.309
Y-78.396Z-19.152F1000
Y-78.196Z-19.141
Y-71.396Z-17.35
Y-71.196Z-17.285
Y-63.793Z-10
G0Z10
X17.999Y-92.218
G1Z-10F500
Y-92.197Z-10.059
Y-84.997Z-17.135
Y-84.797Z-17.31
Y-77.796Z-19.153F1000
Y-77.596Z-19.14
Y-70.796Z-17.349
Y-70.596Z-17.282
Y-63.196Z-10.144
Y-63.097Z-10
G0Z10
X21Y-91.62
G1Z-10F500
Y-91.597Z-10.062
Y-84.397Z-17.139
Y-84.197Z-17.31
Y-77.196Z-19.143F1000
Y-76.996Z-19.151
Y-69.796Z-17.321
Y-69.596Z-17.184
Y-62.196Z-10.161
Y-62.063Z-10
G0Z10
X24Y-91.021
G1Z-10F500
Y-90.997Z-10.065
Y-83.597Z-17.136
Y-83.397Z-17.308
Y-76.196Z-19.139F1000
Y-75.996Z-19.156
Y-68.796Z-17.325
Y-68.596Z-17.201
Y-61.012Z-10
G0Z10
X27Y-90.043
G1Z-10F500
Y-89.997Z-10.096
Y-82.396Z-17.303
Y-75.196Z-19.134F1000
Y-74.996Z-19.161
Y-67.796Z-17.33
Y-67.596Z-17.218
Y-59.796Z-10.087
Y-59.753Z-10
G0Z10
X30Y-89.03
G1Z-10F500
Y-88.997Z-10.079
Y-81.396Z-17.291
Y-74.196Z-19.129F1000
Y-73.996Z-19.165
Y-66.396Z-17.314
Y-66.196Z-17.169
Y-58.396Z-10.158
Y-58.247Z-10
G0Z10
X33Y-88.021
G1Z-10F500
Y-87.997Z-10.061
Y-80.396Z-17.273
Y-72.796Z-19.134F1000
Y-72.596Z-19.163
Y-64.996Z-17.333
Y-64.796Z-17.24
Y-56.796Z-10.073
Y-56.759Z-10
G0Z10
X35.999Y-87.012
G1Z-10F500
Y-86.997Z-10.044
Y-78.996Z-17.239
Y-78.796Z-17.333F1000
Y-71.196Z-19.163
Y-63.396Z-17.304
Y-54.796Z-10.077
Y-54.756Z-10
G0Z10
X39Y-85.541
G1Z-10F500
Y-85.397Z-10.156
Y-77.596Z-17.167
Y-77.396Z-17.314
Y-69.796Z-19.144F1000
Y-69.596Z-19.153
Y-61.596Z-17.331
Y-61.396Z-17.247
Y-52.796Z-10.081
Y-52.753Z-10
G0Z10
X41.999Y-84.038
G1Z-10F500
Y-83.997Z-10.085
Y-75.996Z-17.276
Y-67.996Z-19.138F1000
Y-67.796Z-19.163
Y-59.596Z-17.332
Y-59.396Z-17.251
Y-54.396Z-13.111
Y-50.396Z-10.098
Y-50.323Z-10
G0Z10
X45Y-82.601
G1Z-10F500
Y-74.396Z-17.152
Y-74.196Z-17.306
Y-65.996Z-19.137F1000
Y-65.796Z-19.164
Y-57.396Z-17.315
Y-57.196Z-17.203
Y-47.796Z-10.121
Y-47.678Z-10
G0Z10
X48Y-80.953
G1Z-10F500
Y-72.196Z-17.305
Y-63.996Z-19.136F1000
Y-63.796Z-19.165
Y-54.796Z-17.322
Y-54.596Z-17.227
Y-47.796Z-12.122
Y-44.593Z-10
G0Z10
X50.999Y-78.941
G1Z-10F500
Y-78.796Z-10.145
Y-70.196Z-17.304
Y-61.396Z-19.16F1000
Y-61.196Z-19.145
Y-52.196Z-17.328
Y-51.996Z-17.25
Y-50.796Z-16.365
Y-41.196Z-10.021
Y-41.185Z-10
G0Z10
X54Y-76.93
G1Z-10F500
Y-76.796Z-10.141
Y-70.396Z-15.474
Y-67.996Z-17.284
Y-58.796Z-19.154F1000
Y-58.596Z-19.151
Y-48.796Z-17.302
Y-41.396Z-12.423
Y-37.196Z-10.08
Y-37.103Z-10
G0Z10
X57Y-74.921
G1Z-10F500
Y-74.796Z-10.137
Y-65.396Z-17.261
Y-65.196Z-17.331F1000
Y-55.996Z-19.163
Y-45.396Z-17.306
Y-43.596Z-16.144
Y-32.996Z-10.243
Y-32.596Z-10.054
Y-32.528Z-10
G0Z10
X60Y-72.398
G1Z-10F500
Y-62.796Z-17.237
Y-62.596Z-17.325F1000
Y-52.596Z-19.16
Y-52.396Z-19.151
Y-41.196Z-17.303
Y-34.596Z-13.641
Y-26.395Z-10
G0Z10
X63Y-69.746
G1Z-10F500
Y-62.996Z-15.104
Y-59.796Z-17.219
Y-59.596Z-17.315F1000
Y-49.196Z-19.156
Y-48.996Z-19.154
Y-36.796Z-17.316
Y-36.596Z-17.245
Y-26.196Z-12.611
Y-18.196Z-10.02
Y-18.17Z-10
G0Z10
X66Y-67.087
G1Z-10F500
Y-66.996Z-10.108
Y-65.996Z-10.861
Y-56.396Z-17.205
Y-56.196Z-17.311F1000
Y-44.796Z-19.166
Y-30.796Z-17.313
Y-30.596Z-17.256
Y-27.396Z-15.841
Y-17.796Z-12.74
Y-8.796Z-10.966
Y0.003Z-10.381
Y8.603Z-10.94
Y17.603Z-12.689
Y27.403Z-15.844
Y30.603Z-17.259
Y30.803Z-17.314
Y44.603Z-19.15
Y44.803Z-19.165
Y56.203Z-17.31
Y66.003Z-10.857
Y67.003Z-10.103
Y67.085Z-10
G0Z10
X68.999Y-63.831
G1Z-10F500
Y-63.796Z-10.055
Y-52.996Z-17.191
Y-52.796Z-17.303F1000
Y-40.396Z-19.153
Y-40.196Z-19.163
Y-23.196Z-17.308
Y-18.596Z-15.844
Y-9.196Z-13.993
Y0.003Z-13.381
Y9.003Z-13.966
Y18.403Z-15.794
Y23.003Z-17.263
Y23.203Z-17.308
Y40.203Z-19.164
Y52.803Z-17.302
Y63.803Z-10.05
Y63.834Z-10
G0Z10
X71.999Y-60.42
G1Z-10F500
Y-60.396Z-10.041
Y-55.196Z-13.472
Y-48.396Z-17.258F1000
Y-48.196Z-17.319
Y-34.396Z-19.16
Y-34.196Z-19.162
Y-10.996Z-17.292
Y-9.596Z-17.019
Y0.003Z-16.381
Y9.403Z-16.993
Y11.003Z-17.293
Y34.203Z-19.163
Y34.403Z-19.159
Y48.203Z-17.318
Y48.403Z-17.254
Y55.203Z-13.468
Y60.403Z-10.037
Y60.423Z-10
G0Z10
X75Y-56.893
G1Z-10F500
Y-56.796Z-10.081
Y-43.996Z-17.208F1000
Y-43.796Z-17.306
Y-27.196Z-19.167
Y0.003Z-17.858
Y27.203Z-19.166
Y43.803Z-17.305
Y56.803Z-10.077
Y56.89Z-10
G0Z10
X78Y-52.417
G1Z-10F500
Y-52.396Z-10.031
Y-44.996Z-14.147F1000
Y-37.996Z-17.25
Y-37.796Z-17.311
Y-16.596Z-19.172
Y10.403Z-18.848
Y16.603Z-19.173
Y37.803Z-17.31
Y38.003Z-17.247
Y45.003Z-14.144
Y52.403Z-10.027
Y52.42Z-10
G0Z10
X81Y-47.932
G1Z-10F500
Y-46.796Z-10.649F1000
Y-33.596Z-16.503
Y-31.196Z-17.282
Y-10.596Z-18.695
Y10.803Z-18.687
Y31.003Z-17.313
Y31.203Z-17.28
Y33.603Z-16.501
Y46.803Z-10.646
Y47.803Z-10.089
Y47.924Z-10
G0Z10
X83.999Y-42.186
G1Z-10F500
Y-34.796Z-13.275F1000
Y-22.596Z-17.205
Y-22.196Z-17.295
Y0.003Z-18.077
Y22.203Z-17.294
Y22.603Z-17.203
Y34.803Z-13.272
Y42.186Z-10
G0Z10
X86.999Y-36.046
G1Z-10F500
Y-35.996Z-10.042
Y-23.396Z-14.101F1000
Y-11.396Z-16.45
Y0.003Z-17.197
Y11.403Z-16.45
Y23.203Z-14.149
Y36.003Z-10.04
Y36.048Z-10
G0Z10
X90Y-27.242
G1Z-10F500
Y-27.196Z-10.03
Y-24.196Z-10.996F1000
Y-11.796Z-13.424
Y0.003Z-14.197
Y11.803Z-13.424
Y24.003Z-11.044
Y27.203Z-10.028
Y27.244Z-10
G0Z10
X93Y-14.228
G1Z-10F500
Y-12.196Z-10.398F1000
Y0.003Z-11.197
Y12.203Z-10.397
Y14.231Z-10
G0Z10
 
