(Created with grbl post processor 2025/04/16 21:12)
G21
(G-code Generated with Fabex and NC library)
G17G90
(Tool: D = 6.0 mm  type END flutes 2)
S12000M03
G00 Z10.0

G0X-96Y-96.998Z10
G1Z0F500
Y96.802F1000
X-96.998Y96
X96.802
G0Z10
X-96.998Y93
G1Z0F500
X96.802F1000
G0Z10
X-96.998Y90
G1Z0F500
X96.802F1000
G0Z10
X-96.998Y87
G1Z0F500
X96.802F1000
G0Z10
X-96.998Y84
G1Z0F500
X96.802F1000
G0Z10
X-96.998Y81
G1Z0F500
X96.802F1000
G0Z10
X-96.998Y78
G1Z0F500
X96.802F1000
G0Z10
X-96.998Y75
G1Z0F500
X96.802F1000
G0Z10
X-96.998Y72
G1Z0F500
X96.802F1000
G0Z10
X-96.998Y69
G1Z0F500
X96.802F1000
G0Z10
X-96.998Y66
G1Z0F500
X-11.597F1000
X-11.453Z-5F500
X11.457F1000
X11.602Z0
X96.802
G0Z10
X-96.998Y63
G1Z0F500
X-22.797F1000
X-22.653Z-5F500
X22.657F1000
X22.802Z0
X96.802
G0Z10
X-96.998Y60
G1Z0F500
X-29.797F1000
X-29.653Z-5F500
X29.657F1000
X29.802Z0
X96.802
G0Z10
X-96.998Y57
G1Z0F500
X-35.197F1000
X-35.053Z-5F500
X35.057F1000
X35.202Z0
X96.802
G0Z10
X-96.998Y54
G1Z0F500
X-39.797F1000
X-39.653Z-5F500
X39.657F1000
X39.802Z0
X96.802
G0Z10
X-96.998Y51
G1Z0F500
X-43.597F1000
X-43.453Z-5F500
X43.457F1000
X43.602Z0
X96.802
G0Z10
X-96.998Y48
G1Z0F500
X-46.797F1000
X-46.653Z-5F500
X46.657F1000
X46.802Z0
X96.802
G0Z10
X-96.998Y45
G1Z0F500
X-49.797F1000
X-49.653Z-5F500
X49.657F1000
X49.802Z0
X96.802
G0Z10
X-96.998Y42
G1Z0F500
X-52.197F1000
X-52.053Z-5F500
X52.057F1000
X52.202Z0
X96.802
G0Z10
X-96.998Y39
G1Z0F500
X-54.597F1000
X-54.453Z-5F500
X54.457F1000
X54.602Z0
X96.802
G0Z10
X-96.998Y36
G1Z0F500
X-56.597F1000
X-56.453Z-5F500
X56.457F1000
X56.602Z0
X96.802
G0Z10
X-96.998Y33
G1Z0F500
X-58.397F1000
X-58.253Z-5F500
X58.257F1000
X58.402Z0
X96.802
G0Z10
X-96.998Y30
G1Z0F500
X-59.997F1000
X-59.852Z-5F500
X59.857F1000
X60.002Z0
X96.802
G0Z10
X-96.998Y27
G1Z0F500
X-61.397F1000
X-61.252Z-5F500
X61.257F1000
X61.402Z0
X96.802
G0Z10
X-96.998Y24
G1Z0F500
X-62.597F1000
X-62.452Z-5F500
X62.457F1000
X62.602Z0
X96.802
G0Z10
X-96.998Y21
G1Z0F500
X-63.797F1000
X-63.653Z-5F500
X63.457F1000
X63.602Z-0.002
X63.802Z0
X96.802
G0Z10
X-96.998Y18
G1Z0F500
X-64.597F1000
X-64.453Z-5F500
X64.457F1000
X64.602Z0
X96.802
G0Z10
X-96.998Y15
G1Z0F500
X-65.397F1000
X-65.253Z-5F500
X65.257F1000
X65.402Z0
X96.802
G0Z10
X-96.998Y12
G1Z0F500
X-65.997F1000
X-65.853Z-5F500
X65.857F1000
X66.002Z0
X96.802
G0Z10
X-96.998Y9
G1Z0F500
X-66.397F1000
X-66.253Z-5F500
X66.257F1000
X66.402Z0
X96.802
G0Z10
X-96.998Y6
G1Z0F500
X-66.797F1000
X-66.653Z-5F500
X66.657F1000
X66.802Z0
X96.802
G0Z10
X-96.998Y3
G1Z0F500
X-66.997F1000
X-66.853Z-5F500
X66.857F1000
X67.002Z0
X96.802
G0Z10
X-96.998Y0
G1Z0F500
X-67.197F1000
X-67.053Z-5F500
X66.857F1000
X67.002Z0
X96.802
G0Z10
X-96.998Y-2.999
G1Z0F500
X-66.997F1000
X-66.853Z-5F500
X66.857F1000
X67.002Z0
X96.802
G0Z10
X-96.998Y-5.999
G1Z0F500
X-66.797F1000
X-66.653Z-5F500
X66.657F1000
X66.802Z0
X96.802
G0Z10
X-96.998Y-8.999
G1Z0F500
X-66.397F1000
X-66.253Z-5F500
X66.257F1000
X66.402Z0
X96.802
G0Z10
X-96.998Y-11.999
G1Z0F500
X-65.997F1000
X-65.853Z-5F500
X65.857F1000
X66.002Z0
X96.802
G0Z10
X-96.998Y-14.999
G1Z0F500
X-65.397F1000
X-65.253Z-5F500
X65.257F1000
X65.402Z0
X96.802
G0Z10
X-96.998Y-17.999
G1Z0F500
X-64.597F1000
X-64.453Z-5F500
X64.457F1000
X64.602Z0
X96.802
G0Z10
X-96.998Y-20.999
G1Z0F500
X-63.797F1000
X-63.653Z-5F500
X63.457F1000
X63.602Z-0.002
X63.802Z0
X96.802
G0Z10
X-96.998Y-23.999
G1Z0F500
X-62.597F1000
X-62.452Z-5F500
X62.457F1000
X62.602Z0
X96.802
G0Z10
X-96.998Y-26.999
G1Z0F500
X-61.397F1000
X-61.252Z-5F500
X61.257F1000
X61.402Z0
X96.802
G0Z10
X-96.998Y-29.999
G1Z0F500
X-59.997F1000
X-59.852Z-5F500
X59.857F1000
X60.002Z0
X96.802
G0Z10
X-96.998Y-32.999
G1Z0F500
X-58.397F1000
X-58.253Z-5F500
X58.257F1000
X58.402Z0
X96.802
G0Z10
X-96.998Y-35.999
G1Z0F500
X-56.597F1000
X-56.453Z-5F500
X56.457F1000
X56.602Z0
X96.802
G0Z10
X-96.998Y-38.999
G1Z0F500
X-54.597F1000
X-54.453Z-5F500
X54.457F1000
X54.602Z0
X96.802
G0Z10
X-96.998Y-41.999
G1Z0F500
X-52.197F1000
X-52.053Z-5F500
X52.057F1000
X52.202Z0
X96.802
G0Z10
X-96.998Y-44.999
G1Z0F500
X-49.797F1000
X-49.653Z-5F500
X49.657F1000
X49.802Z0
X96.802
G0Z10
X-96.998Y-47.999
G1Z0F500
X-46.797F1000
X-46.653Z-5F500
X46.657F1000
X46.802Z0
X96.802
G0Z10
X-96.998Y-50.999
G1Z0F500
X-43.597F1000
X-43.453Z-5F500
X43.457F1000
X43.602Z0
X96.802
G0Z10
X-96.998Y-53.999
G1Z0F500
X-39.797F1000
X-39.653Z-5F500
X39.657F1000
X39.802Z0
X96.802
G0Z10
X-96.998Y-56.999
G1Z0F500
X-35.197F1000
X-35.053Z-5F500
X35.057F1000
X35.202Z0
X96.802
G0Z10
X-96.998Y-59.999
G1Z0F500
X-29.797F1000
X-29.653Z-5F500
X29.657F1000
X29.802Z0
X96.802
G0Z10
X-93Y-96.998
G1Z0F500
Y96.802F1000
G0Z10
X-96.998Y-62.999
G1Z0F500
X-22.797F1000
X-22.653Z-5F500
X22.657F1000
X22.802Z0
X96.802
G0Z10
X-90Y-96.998
G1Z0F500
Y96.802F1000
G0Z10
X-96.998Y-65.999
G1Z0F500
X-11.597F1000
X-11.453Z-5F500
X11.457F1000
X11.602Z0
X96.802
G0Z10
X-86.999Y-96.998
G1Z0F500
Y96.802F1000
G0Z10
X-96.998Y-68.999
G1Z0F500
X96.802F1000
G0Z10
X-83.999Y-96.998
G1Z0F500
Y96.802F1000
G0Z10
X-96.998Y-71.999
G1Z0F500
X96.802F1000
G0Z10
X-81Y-96.998
G1Z0F500
Y96.802F1000
G0Z10
X-96.998Y-74.999
G1Z0F500
X96.802F1000
G0Z10
X-78Y-96.998
G1Z0F500
Y96.802F1000
G0Z10
X-96.998Y-77.999
G1Z0F500
X96.802F1000
G0Z10
X-75Y-96.998
G1Z0F500
Y96.802F1000
G0Z10
X-96.998Y-80.999
G1Z0F500
X96.802F1000
G0Z10
X-71.999Y-96.998
G1Z0F500
Y96.802F1000
G0Z10
X-96.998Y-83.999
G1Z0F500
X96.802F1000
G0Z10
X-68.999Y-96.998
G1Z0F500
Y96.802F1000
G0Z10
X-96.998Y-86.999
G1Z0F500
X96.802F1000
G0Z10
X-66Y-96.998
G1Z0F500
Y-11.597F1000
Y-11.453Z-5F500
Y11.457F1000
Y11.602Z0
Y96.802
G0Z10
X-96.998Y-89.999
G1Z0F500
X96.802F1000
G0Z10
X-63Y-96.998
G1Z0F500
Y-22.797F1000
Y-22.653Z-5F500
Y22.657F1000
Y22.802Z0
Y96.802
G0Z10
X-96.998Y-92.999
G1Z0F500
X96.802F1000
G0Z10
X-60Y-96.998
G1Z0F500
Y-29.797F1000
Y-29.653Z-5F500
Y29.657F1000
Y29.802Z0
Y96.802
G0Z10
X-57Y-96.998
G1Z0F500
Y-35.197F1000
Y-35.053Z-5F500
Y35.057F1000
Y35.202Z0
Y96.802
G0Z10
X-54Y-96.998
G1Z0F500
Y-39.797F1000
Y-39.653Z-5F500
Y39.657F1000
Y39.802Z0
Y96.802
G0Z10
X-50.999Y-96.998
G1Z0F500
Y-43.597F1000
Y-43.453Z-5F500
Y43.457F1000
Y43.602Z0
Y96.802
G0Z10
X-48Y-96.998
G1Z0F500
Y-46.797F1000
Y-46.653Z-5F500
Y46.657F1000
Y46.802Z0
Y96.802
G0Z10
X-45Y-96.998
G1Z0F500
Y-49.797F1000
Y-49.653Z-5F500
Y49.657F1000
Y49.802Z0
Y96.802
G0Z10
X-41.999Y-96.998
G1Z0F500
Y-52.197F1000
Y-52.053Z-5F500
Y52.057F1000
Y52.202Z0
Y96.802
G0Z10
X-39Y-96.998
G1Z0F500
Y-54.597F1000
Y-54.453Z-5F500
Y54.457F1000
Y54.602Z0
Y96.802
G0Z10
X-35.999Y-96.998
G1Z0F500
Y-56.597F1000
Y-56.453Z-5F500
Y56.457F1000
Y56.602Z0
Y96.802
G0Z10
X-33Y-96.998
G1Z0F500
Y-58.397F1000
Y-58.253Z-5F500
Y58.257F1000
Y58.402Z0
Y96.802
G0Z10
X-30Y-96.998
G1Z0F500
Y-59.997F1000
Y-59.852Z-5F500
Y59.857F1000
Y60.002Z0
Y96.802
G0Z10
X-27Y-96.998
G1Z0F500
Y-61.397F1000
Y-61.252Z-5F500
Y61.257F1000
Y61.402Z0
Y96.802
G0Z10
X-24Y-96.998
G1Z0F500
Y-62.597F1000
Y-62.452Z-5F500
Y62.457F1000
Y62.602Z0
Y96.802
G0Z10
X-21Y-96.998
G1Z0F500
Y-63.797F1000
Y-63.653Z-5F500
Y63.457F1000
Y63.602Z-0.002
Y63.802Z0
Y96.802
G0Z10
X-17.999Y-96.998
G1Z0F500
Y-64.597F1000
Y-64.453Z-5F500
Y64.457F1000
Y64.602Z0
Y96.802
G0Z10
X-15Y-96.998
G1Z0F500
Y-65.397F1000
Y-65.253Z-5F500
Y65.257F1000
Y65.402Z0
Y96.802
G0Z10
X-12Y-96.998
G1Z0F500
Y-65.997F1000
Y-65.853Z-5F500
Y65.857F1000
Y66.002Z0
Y96.802
G0Z10
X-9Y-96.998
G1Z0F500
Y-66.397F1000
Y-66.253Z-5F500
Y66.257F1000
Y66.402Z0
Y96.802
G0Z10
X-6Y-96.998
G1Z0F500
Y-66.797F1000
Y-66.653Z-5F500
Y66.657F1000
Y66.802Z0
Y96.802
G0Z10
X-3Y-96.998
G1Z0F500
Y-66.997F1000
Y-66.853Z-5F500
Y66.857F1000
Y67.002Z0
Y96.802
G0Z10
X0Y-96.998
G1Z0F500
Y-67.197F1000
Y-67.053Z-5F500
Y66.857F1000
Y67.002Z0
Y96.802
G0Z10
X3Y-96.998
G1Z0F500
Y-66.997F1000
Y-66.853Z-5F500
Y66.857F1000
Y67.002Z0
Y96.802
G0Z10
X6Y-96.998
G1Z0F500
Y-66.797F1000
Y-66.653Z-5F500
Y66.657F1000
Y66.802Z0
Y96.802
G0Z10
X9Y-96.998
G1Z0F500
Y-66.397F1000
Y-66.253Z-5F500
Y66.257F1000
Y66.402Z0
Y96.802
G0Z10
X12Y-96.998
G1Z0F500
Y-65.997F1000
Y-65.853Z-5F500
Y65.857F1000
Y66.002Z0
Y96.802
G0Z10
X15Y-96.998
G1Z0F500
Y-65.397F1000
Y-65.253Z-5F500
Y65.257F1000
Y65.402Z0
Y96.802
G0Z10
X17.999Y-96.998
G1Z0F500
Y-64.597F1000
Y-64.453Z-5F500
Y64.457F1000
Y64.602Z0
Y96.802
G0Z10
X21Y-96.998
G1Z0F500
Y-63.797F1000
Y-63.653Z-5F500
Y63.457F1000
Y63.602Z-0.002
Y63.802Z0
Y96.802
G0Z10
X24Y-96.998
G1Z0F500
Y-62.597F1000
Y-62.452Z-5F500
Y62.457F1000
Y62.602Z0
Y96.802
G0Z10
X27Y-96.998
G1Z0F500
Y-61.397F1000
Y-61.252Z-5F500
Y61.257F1000
Y61.402Z0
Y96.802
G0Z10
X30Y-96.998
G1Z0F500
Y-59.997F1000
Y-59.852Z-5F500
Y59.857F1000
Y60.002Z0
Y96.802
G0Z10
X33Y-96.998
G1Z0F500
Y-58.397F1000
Y-58.253Z-5F500
Y58.257F1000
Y58.402Z0
Y96.802
G0Z10
X35.999Y-96.998
G1Z0F500
Y-56.597F1000
Y-56.453Z-5F500
Y56.457F1000
Y56.602Z0
Y96.802
G0Z10
X39Y-96.998
G1Z0F500
Y-54.597F1000
Y-54.453Z-5F500
Y54.457F1000
Y54.602Z0
Y96.802
G0Z10
X41.999Y-96.998
G1Z0F500
Y-52.197F1000
Y-52.053Z-5F500
Y52.057F1000
Y52.202Z0
Y96.802
G0Z10
X45Y-96.998
G1Z0F500
Y-49.797F1000
Y-49.653Z-5F500
Y49.657F1000
Y49.802Z0
Y96.802
G0Z10
X48Y-96.998
G1Z0F500
Y-46.797F1000
Y-46.653Z-5F500
Y46.657F1000
Y46.802Z0
Y96.802
G0Z10
X50.999Y-96.998
G1Z0F500
Y-43.597F1000
Y-43.453Z-5F500
Y43.457F1000
Y43.602Z0
Y96.802
G0Z10
X54Y-96.998
G1Z0F500
Y-39.797F1000
Y-39.653Z-5F500
Y39.657F1000
Y39.802Z0
Y96.802
G0Z10
X57Y-96.998
G1Z0F500
Y-35.197F1000
Y-35.053Z-5F500
Y35.057F1000
Y35.202Z0
Y96.802
G0Z10
X60Y-96.998
G1Z0F500
Y-29.797F1000
Y-29.653Z-5F500
Y29.657F1000
Y29.802Z0
Y96.802
G0Z10
X63Y-96.998
G1Z0F500
Y-22.797F1000
Y-22.653Z-5F500
Y22.657F1000
Y22.802Z0
Y96.802
G0Z10
X66Y-96.998
G1Z0F500
Y-11.597F1000
Y-11.453Z-5F500
Y11.457F1000
Y11.602Z0
Y96.802
G0Z10
X68.999Y-96.998
G1Z0F500
Y96.802F1000
G0Z10
X71.999Y-96.998
G1Z0F500
Y96.802F1000
G0Z10
X75Y-96.998
G1Z0F500
Y96.802F1000
G0Z10
X78Y-96.998
G1Z0F500
Y96.802F1000
G0Z10
X81Y-96.998
G1Z0F500
Y96.802F1000
G0Z10
X83.999Y-96.998
G1Z0F500
Y96.802F1000
G0Z10
X86.999Y-96.998
G1Z0F500
Y96.802F1000
G0Z10
X90Y-96.998
G1Z0F500
Y96.802F1000
G0Z10
X93Y-96.998
G1Z0F500
Y96.802F1000
G0Z10
X96Y-96.998
G1Z0F500
Y96.802F1000
G0Z10
X-96.998Y-95.999
G1Z0F500
X96.802F1000
G0Z10
X-66Y-11.453
G1Z-5F500
Y-11.397Z-6.912
Y11.402F1000
Y11.457Z-5
G0Z10
X-63Y-22.653
G1Z-5F500
Y-22.597Z-6.912
Y22.602F1000
Y22.657Z-5
G0Z10
X-60Y-29.653
G1Z-5F500
Y-29.597Z-6.912
Y29.602F1000
Y29.657Z-5
G0Z10
X-11.453Y66
G1Z-5F500
X-11.397Z-6.912
X11.402F1000
X11.457Z-5
G0Z10
X-22.653Y63
G1Z-5F500
X-22.597Z-6.912
X22.602F1000
X22.657Z-5
G0Z10
X-29.653Y60
G1Z-5F500
X-29.597Z-6.912
X29.602F1000
X29.657Z-5
G0Z10
X-35.053Y57
G1Z-5F500
X-34.997Z-6.912
X35.002F1000
X35.057Z-5
G0Z10
X-39.653Y54
G1Z-5F500
X-39.597Z-6.912
X39.602F1000
X39.657Z-5
G0Z10
X-43.453Y51
G1Z-5F500
X-43.397Z-6.912
X43.402F1000
X43.457Z-5
G0Z10
X-46.653Y48
G1Z-5F500
X-46.597Z-6.912
X46.602F1000
X46.657Z-5
G0Z10
X-49.653Y45
G1Z-5F500
X-49.597Z-6.912
X49.602F1000
X49.657Z-5
G0Z10
X-52.053Y42
G1Z-5F500
X-51.997Z-6.912
X52.002F1000
X52.057Z-5
G0Z10
X-54.453Y39
G1Z-5F500
X-54.397Z-6.912
X54.402F1000
X54.457Z-5
G0Z10
X-56.453Y36
G1Z-5F500
X-56.397Z-6.912
X56.402F1000
X56.457Z-5
G0Z10
X-58.253Y33
G1Z-5F500
X-58.197Z-6.912
X58.202F1000
X58.257Z-5
G0Z10
X-59.852Y30
G1Z-5F500
X-59.797Z-6.912
X59.802F1000
X59.857Z-5
G0Z10
X-61.252Y27
G1Z-5F500
X-61.197Z-6.912
X61.202F1000
X61.257Z-5
G0Z10
X-62.452Y24
G1Z-5F500
X-62.397Z-6.912
X62.402F1000
X62.457Z-5
G0Z10
X-63.653Y21
G1Z-5F500
X-63.597Z-6.912
X63.402F1000
X63.457Z-5
G0Z10
X-64.453Y18
G1Z-5F500
X-64.397Z-6.912
X64.402F1000
X64.457Z-5
G0Z10
X-65.253Y15
G1Z-5F500
X-65.197Z-6.912
X65.202F1000
X65.257Z-5
G0Z10
X-65.853Y12
G1Z-5F500
X-65.797Z-6.912
X65.802F1000
X65.857Z-5
G0Z10
X-57Y-35.053
G1Z-5F500
Y-34.997Z-6.912
Y35.002F1000
Y35.057Z-5
G0Z10
X-66.253Y9
G1Z-5F500
X-66.197Z-6.912
X66.202F1000
X66.257Z-5
G0Z10
X-54Y-39.653
G1Z-5F500
Y-39.597Z-6.912
Y39.602F1000
Y39.657Z-5
G0Z10
X-66.653Y6
G1Z-5F500
X-66.597Z-6.912
X66.602F1000
X66.657Z-5
G0Z10
X-50.999Y-43.453
G1Z-5F500
Y-43.397Z-6.912
Y43.402F1000
Y43.457Z-5
G0Z10
X-66.853Y3
G1Z-5F500
X-66.797Z-6.912
X66.802F1000
X66.857Z-5
G0Z10
X-48Y-46.653
G1Z-5F500
Y-46.597Z-6.912
Y46.602F1000
Y46.657Z-5
G0Z10
X-67.053Y0
G1Z-5F500
X-66.997Z-6.912
X66.802F1000
X66.857Z-5
G0Z10
X-45Y-49.653
G1Z-5F500
Y-49.597Z-6.912
Y49.602F1000
Y49.657Z-5
G0Z10
X-66.853Y-2.999
G1Z-5F500
X-66.797Z-6.912
X66.802F1000
X66.857Z-5
G0Z10
X-41.999Y-52.053
G1Z-5F500
Y-51.997Z-6.912
Y52.002F1000
Y52.057Z-5
G0Z10
X-66.653Y-5.999
G1Z-5F500
X-66.597Z-6.912
X66.602F1000
X66.657Z-5
G0Z10
X-39Y-54.453
G1Z-5F500
Y-54.397Z-6.912
Y54.402F1000
Y54.457Z-5
G0Z10
X-66.253Y-8.999
G1Z-5F500
X-66.197Z-6.912
X66.202F1000
X66.257Z-5
G0Z10
X-35.999Y-56.453
G1Z-5F500
Y-56.397Z-6.912
Y56.402F1000
Y56.457Z-5
G0Z10
X-65.853Y-11.999
G1Z-5F500
X-65.797Z-6.912
X65.802F1000
X65.857Z-5
G0Z10
X-33Y-58.253
G1Z-5F500
Y-58.197Z-6.912
Y58.202F1000
Y58.257Z-5
G0Z10
X-65.253Y-14.999
G1Z-5F500
X-65.197Z-6.912
X65.202F1000
X65.257Z-5
G0Z10
X-30Y-59.852
G1Z-5F500
Y-59.797Z-6.912
Y59.802F1000
Y59.857Z-5
G0Z10
X-64.453Y-17.999
G1Z-5F500
X-64.397Z-6.912
X64.402F1000
X64.457Z-5
G0Z10
X-27Y-61.252
G1Z-5F500
Y-61.197Z-6.912
Y61.202F1000
Y61.257Z-5
G0Z10
X-63.653Y-20.999
G1Z-5F500
X-63.597Z-6.912
X63.402F1000
X63.457Z-5
G0Z10
X-24Y-62.452
G1Z-5F500
Y-62.397Z-6.912
Y62.402F1000
Y62.457Z-5
G0Z10
X-62.452Y-23.999
G1Z-5F500
X-62.397Z-6.912
X62.402F1000
X62.457Z-5
G0Z10
X-21Y-63.653
G1Z-5F500
Y-63.597Z-6.912
Y63.402F1000
Y63.457Z-5
G0Z10
X-61.252Y-26.999
G1Z-5F500
X-61.197Z-6.912
X61.202F1000
X61.257Z-5
G0Z10
X-17.999Y-64.453
G1Z-5F500
Y-64.397Z-6.912
Y64.402F1000
Y64.457Z-5
G0Z10
X-59.852Y-29.999
G1Z-5F500
X-59.797Z-6.912
X59.802F1000
X59.857Z-5
G0Z10
X-15Y-65.253
G1Z-5F500
Y-65.197Z-6.912
Y65.202F1000
Y65.257Z-5
G0Z10
X-58.253Y-32.999
G1Z-5F500
X-58.197Z-6.912
X58.202F1000
X58.257Z-5
G0Z10
X-12Y-65.853
G1Z-5F500
Y-65.797Z-6.912
Y65.802F1000
Y65.857Z-5
G0Z10
X-56.453Y-35.999
G1Z-5F500
X-56.397Z-6.912
X56.402F1000
X56.457Z-5
G0Z10
X-9Y-66.253
G1Z-5F500
Y-66.197Z-6.912
Y66.202F1000
Y66.257Z-5
G0Z10
X-54.453Y-38.999
G1Z-5F500
X-54.397Z-6.912
X54.402F1000
X54.457Z-5
G0Z10
X-6Y-66.653
G1Z-5F500
Y-66.597Z-6.912
Y66.602F1000
Y66.657Z-5
G0Z10
X-52.053Y-41.999
G1Z-5F500
X-51.997Z-6.912
X52.002F1000
X52.057Z-5
G0Z10
X-3Y-66.853
G1Z-5F500
Y-66.797Z-6.912
Y66.802F1000
Y66.857Z-5
G0Z10
X-49.653Y-44.999
G1Z-5F500
X-49.597Z-6.912
X49.602F1000
X49.657Z-5
G0Z10
X0Y-67.053
G1Z-5F500
Y-66.997Z-6.912
Y66.802F1000
Y66.857Z-5
G0Z10
X-46.653Y-47.999
G1Z-5F500
X-46.597Z-6.912
X46.602F1000
X46.657Z-5
G0Z10
X3Y-66.853
G1Z-5F500
Y-66.797Z-6.912
Y66.802F1000
Y66.857Z-5
G0Z10
X-43.453Y-50.999
G1Z-5F500
X-43.397Z-6.912
X43.402F1000
X43.457Z-5
G0Z10
X6Y-66.653
G1Z-5F500
Y-66.597Z-6.912
Y66.602F1000
Y66.657Z-5
G0Z10
X-39.653Y-53.999
G1Z-5F500
X-39.597Z-6.912
X39.602F1000
X39.657Z-5
G0Z10
X9Y-66.253
G1Z-5F500
Y-66.197Z-6.912
Y66.202F1000
Y66.257Z-5
G0Z10
X-35.053Y-56.999
G1Z-5F500
X-34.997Z-6.912
X35.002F1000
X35.057Z-5
G0Z10
X12Y-65.853
G1Z-5F500
Y-65.797Z-6.912
Y65.802F1000
Y65.857Z-5
G0Z10
X15Y-65.253
G1Z-5F500
Y-65.197Z-6.912
Y65.202F1000
Y65.257Z-5
G0Z10
X17.999Y-64.453
G1Z-5F500
Y-64.397Z-6.912
Y64.402F1000
Y64.457Z-5
G0Z10
X21Y-63.653
G1Z-5F500
Y-63.597Z-6.912
Y63.402F1000
Y63.457Z-5
G0Z10
X24Y-62.452
G1Z-5F500
Y-62.397Z-6.912
Y62.402F1000
Y62.457Z-5
G0Z10
X27Y-61.252
G1Z-5F500
Y-61.197Z-6.912
Y61.202F1000
Y61.257Z-5
G0Z10
X30Y-59.852
G1Z-5F500
Y-59.797Z-6.912
Y59.802F1000
Y59.857Z-5
G0Z10
X33Y-58.253
G1Z-5F500
Y-58.197Z-6.912
Y58.202F1000
Y58.257Z-5
G0Z10
X35.999Y-56.453
G1Z-5F500
Y-56.397Z-6.912
Y56.402F1000
Y56.457Z-5
G0Z10
X39Y-54.453
G1Z-5F500
Y-54.397Z-6.912
Y54.402F1000
Y54.457Z-5
G0Z10
X41.999Y-52.053
G1Z-5F500
Y-51.997Z-6.912
Y52.002F1000
Y52.057Z-5
G0Z10
X45Y-49.653
G1Z-5F500
Y-49.597Z-6.912
Y49.602F1000
Y49.657Z-5
G0Z10
X48Y-46.653
G1Z-5F500
Y-46.597Z-6.912
Y46.602F1000
Y46.657Z-5
G0Z10
X50.999Y-43.453
G1Z-5F500
Y-43.397Z-6.912
Y43.402F1000
Y43.457Z-5
G0Z10
X54Y-39.653
G1Z-5F500
Y-39.597Z-6.912
Y39.602F1000
Y39.657Z-5
G0Z10
X57Y-35.053
G1Z-5F500
Y-34.997Z-6.912
Y35.002F1000
Y35.057Z-5
G0Z10
X60Y-29.653
G1Z-5F500
Y-29.597Z-6.912
Y29.602F1000
Y29.657Z-5
G0Z10
X63Y-22.653
G1Z-5F500
Y-22.597Z-6.912
Y22.602F1000
Y22.657Z-5
G0Z10
X66Y-11.453
G1Z-5F500
Y-11.397Z-6.912
Y11.402F1000
Y11.457Z-5
G0Z10
X-29.653Y-59.999
G1Z-5F500
X-29.597Z-6.912
X29.602F1000
X29.657Z-5
G0Z10
X-22.653Y-62.999
G1Z-5F500
X-22.597Z-6.912
X22.602F1000
X22.657Z-5
G0Z10
X-11.453Y-65.999
G1Z-5F500
X-11.397Z-6.912
X11.402F1000
X11.457Z-5
G0Z10
 
