(Created with grbl post processor 2025/04/16 21:12)
G21
(G-code Generated with Fabex and NC library)
G17G90
(Tool: D = 6.0 mm  type END flutes 2)
S12000M03
G00 Z10.0

G0X-96Y-96.998Z10
G1Z0F500
Y96.802F1000
G0Z10
X-93Y-96.998
G1Z0F500
Y96.802F1000
G0Z10
X-90Y-96.998
G1Z0F500
Y96.802F1000
G0Z10
X-86.999Y-96.998
G1Z0F500
Y96.802F1000
G0Z10
X-83.999Y-96.998
G1Z0F500
Y96.802F1000
G0Z10
X-81Y-96.998
G1Z0F500
Y96.802F1000
G0Z10
X-78Y-96.998
G1Z0F500
Y96.802F1000
G0Z10
X-75Y-96.998
G1Z0F500
Y96.802F1000
G0Z10
X-71.999Y-96.998
G1Z0F500
Y96.802F1000
G0Z10
X-68.999Y-96.998
G1Z0F500
Y96.802F1000
G0Z10
X-66Y-96.998
G1Z0F500
Y-11.597F1000
Y-11.539Z-2F500
Y11.544F1000
Y11.602Z0
Y96.802
G0Z10
X-63Y-96.998
G1Z0F500
Y-22.797F1000
Y-22.739Z-2F500
Y22.744F1000
Y22.802Z0
Y96.802
G0Z10
X-60Y-96.998
G1Z0F500
Y-29.797F1000
Y-29.739Z-2F500
Y29.744F1000
Y29.802Z0
Y96.802
G0Z10
X-57Y-96.998
G1Z0F500
Y-35.197F1000
Y-35.139Z-2F500
Y35.144F1000
Y35.202Z0
Y96.802
G0Z10
X-54Y-96.998
G1Z0F500
Y-39.797F1000
Y-39.739Z-2F500
Y39.744F1000
Y39.802Z0
Y96.802
G0Z10
X-50.999Y-96.998
G1Z0F500
Y-43.597F1000
Y-43.539Z-2F500
Y43.544F1000
Y43.602Z0
Y96.802
G0Z10
X-48Y-96.998
G1Z0F500
Y-46.797F1000
Y-46.739Z-2F500
Y46.744F1000
Y46.802Z0
Y96.802
G0Z10
X-45Y-96.998
G1Z0F500
Y-49.797F1000
Y-49.739Z-2F500
Y49.744F1000
Y49.802Z0
Y96.802
G0Z10
X-41.999Y-96.998
G1Z0F500
Y-52.197F1000
Y-52.139Z-2F500
Y52.144F1000
Y52.202Z0
Y96.802
G0Z10
X-39Y-96.998
G1Z0F500
Y-54.597F1000
Y-54.539Z-2F500
Y54.544F1000
Y54.602Z0
Y96.802
G0Z10
X-35.999Y-96.998
G1Z0F500
Y-56.597F1000
Y-56.539Z-2F500
Y56.544F1000
Y56.602Z0
Y96.802
G0Z10
X-33Y-96.998
G1Z0F500
Y-58.397F1000
Y-58.339Z-2F500
Y58.344F1000
Y58.402Z0
Y96.802
G0Z10
X-30Y-96.998
G1Z0F500
Y-59.997F1000
Y-59.939Z-2F500
Y59.944F1000
Y60.002Z0
Y96.802
G0Z10
X-27Y-96.998
G1Z0F500
Y-61.397F1000
Y-61.339Z-2F500
Y61.344F1000
Y61.402Z0
Y96.802
G0Z10
X-24Y-96.998
G1Z0F500
Y-62.597F1000
Y-62.539Z-2F500
Y62.544F1000
Y62.602Z0
Y96.802
G0Z10
X-21Y-96.998
G1Z0F500
Y-63.797F1000
Y-63.739Z-2F500
Y63.544F1000
Y63.602Z-0.002
Y63.802Z0
Y96.802
G0Z10
X-17.999Y-96.998
G1Z0F500
Y-64.597F1000
Y-64.539Z-2F500
Y64.544F1000
Y64.602Z0
Y96.802
G0Z10
X-15Y-96.998
G1Z0F500
Y-65.397F1000
Y-65.339Z-2F500
Y65.344F1000
Y65.402Z0
Y96.802
G0Z10
X-12Y-96.998
G1Z0F500
Y-65.997F1000
Y-65.939Z-2F500
Y65.944F1000
Y66.002Z0
Y96.802
G0Z10
X-9Y-96.998
G1Z0F500
Y-66.397F1000
Y-66.339Z-2F500
Y66.344F1000
Y66.402Z0
Y96.802
G0Z10
X-6Y-96.998
G1Z0F500
Y-66.797F1000
Y-66.739Z-2F500
Y66.744F1000
Y66.802Z0
Y96.802
G0Z10
X-3Y-96.998
G1Z0F500
Y-66.997F1000
Y-66.939Z-2F500
Y66.944F1000
Y67.002Z0
Y96.802
G0Z10
X0Y-96.998
G1Z0F500
Y-67.197F1000
Y-67.139Z-2F500
Y66.944F1000
Y67.002Z0
Y96.802
G0Z10
X3Y-96.998
G1Z0F500
Y-66.997F1000
Y-66.939Z-2F500
Y66.944F1000
Y67.002Z0
Y96.802
G0Z10
X6Y-96.998
G1Z0F500
Y-66.797F1000
Y-66.739Z-2F500
Y66.744F1000
Y66.802Z0
Y96.802
G0Z10
X9Y-96.998
G1Z0F500
Y-66.397F1000
Y-66.339Z-2F500
Y66.344F1000
Y66.402Z0
Y96.802
G0Z10
X12Y-96.998
G1Z0F500
Y-65.997F1000
Y-65.939Z-2F500
Y65.944F1000
Y66.002Z0
Y96.802
G0Z10
X15Y-96.998
G1Z0F500
Y-65.397F1000
Y-65.339Z-2F500
Y65.344F1000
Y65.402Z0
Y96.802
G0Z10
X17.999Y-96.998
G1Z0F500
Y-64.597F1000
Y-64.539Z-2F500
Y64.544F1000
Y64.602Z0
Y96.802
G0Z10
X21Y-96.998
G1Z0F500
Y-63.797F1000
Y-63.739Z-2F500
Y63.544F1000
Y63.602Z-0.002
Y63.802Z0
Y96.802
G0Z10
X24Y-96.998
G1Z0F500
Y-62.597F1000
Y-62.539Z-2F500
Y62.544F1000
Y62.602Z0
Y96.802
G0Z10
X27Y-96.998
G1Z0F500
Y-61.397F1000
Y-61.339Z-2F500
Y61.344F1000
Y61.402Z0
Y96.802
G0Z10
X30Y-96.998
G1Z0F500
Y-59.997F1000
Y-59.939Z-2F500
Y59.944F1000
Y60.002Z0
Y96.802
G0Z10
X33Y-96.998
G1Z0F500
Y-58.397F1000
Y-58.339Z-2F500
Y58.344F1000
Y58.402Z0
Y96.802
G0Z10
X35.999Y-96.998
G1Z0F500
Y-56.597F1000
Y-56.539Z-2F500
Y56.544F1000
Y56.602Z0
Y96.802
G0Z10
X39Y-96.998
G1Z0F500
Y-54.597F1000
Y-54.539Z-2F500
Y54.544F1000
Y54.602Z0
Y96.802
G0Z10
X41.999Y-96.998
G1Z0F500
Y-52.197F1000
Y-52.139Z-2F500
Y52.144F1000
Y52.202Z0
Y96.802
G0Z10
X45Y-96.998
G1Z0F500
Y-49.797F1000
Y-49.739Z-2F500
Y49.744F1000
Y49.802Z0
Y96.802
G0Z10
X48Y-96.998
G1Z0F500
Y-46.797F1000
Y-46.739Z-2F500
Y46.744F1000
Y46.802Z0
Y96.802
G0Z10
X50.999Y-96.998
G1Z0F500
Y-43.597F1000
Y-43.539Z-2F500
Y43.544F1000
Y43.602Z0
Y96.802
G0Z10
X54Y-96.998
G1Z0F500
Y-39.797F1000
Y-39.739Z-2F500
Y39.744F1000
Y39.802Z0
Y96.802
G0Z10
X57Y-96.998
G1Z0F500
Y-35.197F1000
Y-35.139Z-2F500
Y35.144F1000
Y35.202Z0
Y96.802
G0Z10
X60Y-96.998
G1Z0F500
Y-29.797F1000
Y-29.739Z-2F500
Y29.744F1000
Y29.802Z0
Y96.802
G0Z10
X63Y-96.998
G1Z0F500
Y-22.797F1000
Y-22.739Z-2F500
Y22.744F1000
Y22.802Z0
Y96.802
G0Z10
X66Y-96.998
G1Z0F500
Y-11.597F1000
Y-11.539Z-2F500
Y11.544F1000
Y11.602Z0
Y96.802
G0Z10
X68.999Y-96.998
G1Z0F500
Y96.802F1000
G0Z10
X71.999Y-96.998
G1Z0F500
Y96.802F1000
G0Z10
X75Y-96.998
G1Z0F500
Y96.802F1000
G0Z10
X78Y-96.998
G1Z0F500
Y96.802F1000
G0Z10
X81Y-96.998
G1Z0F500
Y96.802F1000
G0Z10
X83.999Y-96.998
G1Z0F500
Y96.802F1000
G0Z10
X86.999Y-96.998
G1Z0F500
Y96.802F1000
G0Z10
X90Y-96.998
G1Z0F500
Y96.802F1000
G0Z10
X93Y-96.998
G1Z0F500
Y96.802F1000
G0Z10
X96Y-96.998
G1Z0F500
Y96.802F1000
G0Z10
X-66Y-11.539
G1Z-2F500
Y-11.482Z-4
Y11.486F1000
Y11.544Z-2
G0Z10
X-63Y-22.739
G1Z-2F500
Y-22.682Z-4
Y22.686F1000
Y22.744Z-2
G0Z10
X-60Y-29.739
G1Z-2F500
Y-29.682Z-4
Y29.686F1000
Y29.744Z-2
G0Z10
X-57Y-35.139
G1Z-2F500
Y-35.082Z-4
Y35.086F1000
Y35.144Z-2
G0Z10
X-54Y-39.739
G1Z-2F500
Y-39.681Z-4
Y39.686F1000
Y39.744Z-2
G0Z10
X-50.999Y-43.539
G1Z-2F500
Y-43.481Z-4
Y43.486F1000
Y43.544Z-2
G0Z10
X-48Y-46.739
G1Z-2F500
Y-46.681Z-4
Y46.686F1000
Y46.744Z-2
G0Z10
X-45Y-49.739
G1Z-2F500
Y-49.681Z-4
Y49.686F1000
Y49.744Z-2
G0Z10
X-41.999Y-52.139
G1Z-2F500
Y-52.081Z-4
Y52.086F1000
Y52.144Z-2
G0Z10
X-39Y-54.539
G1Z-2F500
Y-54.481Z-4
Y54.486F1000
Y54.544Z-2
G0Z10
X-35.999Y-56.539
G1Z-2F500
Y-56.481Z-4
Y56.486F1000
Y56.544Z-2
G0Z10
X-33Y-58.339
G1Z-2F500
Y-58.281Z-4
Y58.286F1000
Y58.344Z-2
G0Z10
X-30Y-59.939
G1Z-2F500
Y-59.881Z-4
Y59.886F1000
Y59.944Z-2
G0Z10
X-27Y-61.339
G1Z-2F500
Y-61.281Z-4
Y61.286F1000
Y61.344Z-2
G0Z10
X-24Y-62.539
G1Z-2F500
Y-62.481Z-4
Y62.486F1000
Y62.544Z-2
G0Z10
X-21Y-63.739
G1Z-2F500
Y-63.681Z-4
Y63.486F1000
Y63.544Z-2
G0Z10
X-17.999Y-64.539
G1Z-2F500
Y-64.481Z-4
Y64.486F1000
Y64.544Z-2
G0Z10
X-15Y-65.339
G1Z-2F500
Y-65.282Z-4
Y65.286F1000
Y65.344Z-2
G0Z10
X-12Y-65.939
G1Z-2F500
Y-65.882Z-4
Y65.886F1000
Y65.944Z-2
G0Z10
X-9Y-66.339
G1Z-2F500
Y-66.282Z-4
Y66.286F1000
Y66.344Z-2
G0Z10
X-6Y-66.739
G1Z-2F500
Y-66.682Z-4
Y66.686F1000
Y66.744Z-2
G0Z10
X-3Y-66.939
G1Z-2F500
Y-66.882Z-4
Y66.886F1000
Y66.944Z-2
G0Z10
X0Y-67.139
G1Z-2F500
Y-67.082Z-4
Y66.886F1000
Y66.944Z-2
G0Z10
X3Y-66.939
G1Z-2F500
Y-66.882Z-4
Y66.886F1000
Y66.944Z-2
G0Z10
X6Y-66.739
G1Z-2F500
Y-66.682Z-4
Y66.686F1000
Y66.744Z-2
G0Z10
X9Y-66.339
G1Z-2F500
Y-66.282Z-4
Y66.286F1000
Y66.344Z-2
G0Z10
X12Y-65.939
G1Z-2F500
Y-65.882Z-4
Y65.886F1000
Y65.944Z-2
G0Z10
X15Y-65.339
G1Z-2F500
Y-65.282Z-4
Y65.286F1000
Y65.344Z-2
G0Z10
X17.999Y-64.539
G1Z-2F500
Y-64.481Z-4
Y64.486F1000
Y64.544Z-2
G0Z10
X21Y-63.739
G1Z-2F500
Y-63.681Z-4
Y63.486F1000
Y63.544Z-2
G0Z10
X24Y-62.539
G1Z-2F500
Y-62.481Z-4
Y62.486F1000
Y62.544Z-2
G0Z10
X27Y-61.339
G1Z-2F500
Y-61.281Z-4
Y61.286F1000
Y61.344Z-2
G0Z10
X30Y-59.939
G1Z-2F500
Y-59.881Z-4
Y59.886F1000
Y59.944Z-2
G0Z10
X33Y-58.339
G1Z-2F500
Y-58.281Z-4
Y58.286F1000
Y58.344Z-2
G0Z10
X35.999Y-56.539
G1Z-2F500
Y-56.481Z-4
Y56.486F1000
Y56.544Z-2
G0Z10
X39Y-54.539
G1Z-2F500
Y-54.481Z-4
Y54.486F1000
Y54.544Z-2
G0Z10
X41.999Y-52.139
G1Z-2F500
Y-52.081Z-4
Y52.086F1000
Y52.144Z-2
G0Z10
X45Y-49.739
G1Z-2F500
Y-49.681Z-4
Y49.686F1000
Y49.744Z-2
G0Z10
X48Y-46.739
G1Z-2F500
Y-46.681Z-4
Y46.686F1000
Y46.744Z-2
G0Z10
X50.999Y-43.539
G1Z-2F500
Y-43.481Z-4
Y43.486F1000
Y43.544Z-2
G0Z10
X54Y-39.739
G1Z-2F500
Y-39.681Z-4
Y39.686F1000
Y39.744Z-2
G0Z10
X57Y-35.139
G1Z-2F500
Y-35.082Z-4
Y35.086F1000
Y35.144Z-2
G0Z10
X60Y-29.739
G1Z-2F500
Y-29.682Z-4
Y29.686F1000
Y29.744Z-2
G0Z10
X63Y-22.739
G1Z-2F500
Y-22.682Z-4
Y22.686F1000
Y22.744Z-2
G0Z10
X66Y-11.539
G1Z-2F500
Y-11.482Z-4
Y11.486F1000
Y11.544Z-2
G0Z10
X-66Y-11.482
G1Z-4F500
Y-11.424Z-6
Y11.428F1000
Y11.486Z-4
G0Z10
X-63Y-22.682
G1Z-4F500
Y-22.624Z-6
Y22.628F1000
Y22.686Z-4
G0Z10
X-60Y-29.682
G1Z-4F500
Y-29.624Z-6
Y29.628F1000
Y29.686Z-4
G0Z10
X-57Y-35.082
G1Z-4F500
Y-35.024Z-6
Y35.028F1000
Y35.086Z-4
G0Z10
X-54Y-39.681
G1Z-4F500
Y-39.624Z-6
Y39.628F1000
Y39.686Z-4
G0Z10
X-50.999Y-43.481
G1Z-4F500
Y-43.424Z-6
Y43.428F1000
Y43.486Z-4
G0Z10
X-48Y-46.681
G1Z-4F500
Y-46.624Z-6
Y46.628F1000
Y46.686Z-4
G0Z10
X-45Y-49.681
G1Z-4F500
Y-49.624Z-6
Y49.628F1000
Y49.686Z-4
G0Z10
X-41.999Y-52.081
G1Z-4F500
Y-52.024Z-6
Y52.028F1000
Y52.086Z-4
G0Z10
X-39Y-54.481
G1Z-4F500
Y-54.424Z-6
Y54.428F1000
Y54.486Z-4
G0Z10
X-35.999Y-56.481
G1Z-4F500
Y-56.424Z-6
Y56.428F1000
Y56.486Z-4
G0Z10
X-33Y-58.281
G1Z-4F500
Y-58.224Z-6
Y58.228F1000
Y58.286Z-4
G0Z10
X-30Y-59.881
G1Z-4F500
Y-59.824Z-6
Y59.828F1000
Y59.886Z-4
G0Z10
X-27Y-61.281
G1Z-4F500
Y-61.224Z-6
Y61.228F1000
Y61.286Z-4
G0Z10
X-24Y-62.481
G1Z-4F500
Y-62.424Z-6
Y62.428F1000
Y62.486Z-4
G0Z10
X-21Y-63.681
G1Z-4F500
Y-63.624Z-6
Y63.428F1000
Y63.486Z-4
G0Z10
X-17.999Y-64.481
G1Z-4F500
Y-64.424Z-6
Y64.428F1000
Y64.486Z-4
G0Z10
X-15Y-65.282
G1Z-4F500
Y-65.224Z-6
Y65.228F1000
Y65.286Z-4
G0Z10
X-12Y-65.882
G1Z-4F500
Y-65.824Z-6
Y65.828F1000
Y65.886Z-4
G0Z10
X-9Y-66.282
G1Z-4F500
Y-66.224Z-6
Y66.228F1000
Y66.286Z-4
G0Z10
X-6Y-66.682
G1Z-4F500
Y-66.624Z-6
Y66.628F1000
Y66.686Z-4
G0Z10
X-3Y-66.882
G1Z-4F500
Y-66.824Z-6
Y66.828F1000
Y66.886Z-4
G0Z10
X0Y-67.082
G1Z-4F500
Y-67.024Z-6
Y66.828F1000
Y66.886Z-4
G0Z10
X3Y-66.882
G1Z-4F500
Y-66.824Z-6
Y66.828F1000
Y66.886Z-4
G0Z10
X6Y-66.682
G1Z-4F500
Y-66.624Z-6
Y66.628F1000
Y66.686Z-4
G0Z10
X9Y-66.282
G1Z-4F500
Y-66.224Z-6
Y66.228F1000
Y66.286Z-4
G0Z10
X12Y-65.882
G1Z-4F500
Y-65.824Z-6
Y65.828F1000
Y65.886Z-4
G0Z10
X15Y-65.282
G1Z-4F500
Y-65.224Z-6
Y65.228F1000
Y65.286Z-4
G0Z10
X17.999Y-64.481
G1Z-4F500
Y-64.424Z-6
Y64.428F1000
Y64.486Z-4
G0Z10
X21Y-63.681
G1Z-4F500
Y-63.624Z-6
Y63.428F1000
Y63.486Z-4
G0Z10
X24Y-62.481
G1Z-4F500
Y-62.424Z-6
Y62.428F1000
Y62.486Z-4
G0Z10
X27Y-61.281
G1Z-4F500
Y-61.224Z-6
Y61.228F1000
Y61.286Z-4
G0Z10
X30Y-59.881
G1Z-4F500
Y-59.824Z-6
Y59.828F1000
Y59.886Z-4
G0Z10
X33Y-58.281
G1Z-4F500
Y-58.224Z-6
Y58.228F1000
Y58.286Z-4
G0Z10
X35.999Y-56.481
G1Z-4F500
Y-56.424Z-6
Y56.428F1000
Y56.486Z-4
G0Z10
X39Y-54.481
G1Z-4F500
Y-54.424Z-6
Y54.428F1000
Y54.486Z-4
G0Z10
X41.999Y-52.081
G1Z-4F500
Y-52.024Z-6
Y52.028F1000
Y52.086Z-4
G0Z10
X45Y-49.681
G1Z-4F500
Y-49.624Z-6
Y49.628F1000
Y49.686Z-4
G0Z10
X48Y-46.681
G1Z-4F500
Y-46.624Z-6
Y46.628F1000
Y46.686Z-4
G0Z10
X50.999Y-43.481
G1Z-4F500
Y-43.424Z-6
Y43.428F1000
Y43.486Z-4
G0Z10
X54Y-39.681
G1Z-4F500
Y-39.624Z-6
Y39.628F1000
Y39.686Z-4
G0Z10
X57Y-35.082
G1Z-4F500
Y-35.024Z-6
Y35.028F1000
Y35.086Z-4
G0Z10
X60Y-29.682
G1Z-4F500
Y-29.624Z-6
Y29.628F1000
Y29.686Z-4
G0Z10
X63Y-22.682
G1Z-4F500
Y-22.624Z-6
Y22.628F1000
Y22.686Z-4
G0Z10
X66Y-11.482
G1Z-4F500
Y-11.424Z-6
Y11.428F1000
Y11.486Z-4
G0Z10
X-66Y-11.424
G1Z-6F500
Y-11.397Z-6.912
Y11.402F1000
Y11.428Z-6
G0Z10
X-63Y-22.624
G1Z-6F500
Y-22.597Z-6.912
Y22.602F1000
Y22.628Z-6
G0Z10
X-60Y-29.624
G1Z-6F500
Y-29.597Z-6.912
Y29.602F1000
Y29.628Z-6
G0Z10
X-57Y-35.024
G1Z-6F500
Y-34.997Z-6.912
Y35.002F1000
Y35.028Z-6
G0Z10
X-54Y-39.624
G1Z-6F500
Y-39.597Z-6.912
Y39.602F1000
Y39.628Z-6
G0Z10
X-50.999Y-43.424
G1Z-6F500
Y-43.397Z-6.912
Y43.402F1000
Y43.428Z-6
G0Z10
X-48Y-46.624
G1Z-6F500
Y-46.597Z-6.912
Y46.602F1000
Y46.628Z-6
G0Z10
X-45Y-49.624
G1Z-6F500
Y-49.597Z-6.912
Y49.602F1000
Y49.628Z-6
G0Z10
X-41.999Y-52.024
G1Z-6F500
Y-51.997Z-6.912
Y52.002F1000
Y52.028Z-6
G0Z10
X-39Y-54.424
G1Z-6F500
Y-54.397Z-6.912
Y54.402F1000
Y54.428Z-6
G0Z10
X-35.999Y-56.424
G1Z-6F500
Y-56.397Z-6.912
Y56.402F1000
Y56.428Z-6
G0Z10
X-33Y-58.224
G1Z-6F500
Y-58.197Z-6.912
Y58.202F1000
Y58.228Z-6
G0Z10
X-30Y-59.824
G1Z-6F500
Y-59.797Z-6.912
Y59.802F1000
Y59.828Z-6
G0Z10
X-27Y-61.224
G1Z-6F500
Y-61.197Z-6.912
Y61.202F1000
Y61.228Z-6
G0Z10
X-24Y-62.424
G1Z-6F500
Y-62.397Z-6.912
Y62.402F1000
Y62.428Z-6
G0Z10
X-21Y-63.624
G1Z-6F500
Y-63.597Z-6.912
Y63.402F1000
Y63.428Z-6
G0Z10
X-17.999Y-64.424
G1Z-6F500
Y-64.397Z-6.912
Y64.402F1000
Y64.428Z-6
G0Z10
X-15Y-65.224
G1Z-6F500
Y-65.197Z-6.912
Y65.202F1000
Y65.228Z-6
G0Z10
X-12Y-65.824
G1Z-6F500
Y-65.797Z-6.912
Y65.802F1000
Y65.828Z-6
G0Z10
X-9Y-66.224
G1Z-6F500
Y-66.197Z-6.912
Y66.202F1000
Y66.228Z-6
G0Z10
X-6Y-66.624
G1Z-6F500
Y-66.597Z-6.912
Y66.602F1000
Y66.628Z-6
G0Z10
X-3Y-66.824
G1Z-6F500
Y-66.797Z-6.912
Y66.802F1000
Y66.828Z-6
G0Z10
X0Y-67.024
G1Z-6F500
Y-66.997Z-6.912
Y66.802F1000
Y66.828Z-6
G0Z10
X3Y-66.824
G1Z-6F500
Y-66.797Z-6.912
Y66.802F1000
Y66.828Z-6
G0Z10
X6Y-66.624
G1Z-6F500
Y-66.597Z-6.912
Y66.602F1000
Y66.628Z-6
G0Z10
X9Y-66.224
G1Z-6F500
Y-66.197Z-6.912
Y66.202F1000
Y66.228Z-6
G0Z10
X12Y-65.824
G1Z-6F500
Y-65.797Z-6.912
Y65.802F1000
Y65.828Z-6
G0Z10
X15Y-65.224
G1Z-6F500
Y-65.197Z-6.912
Y65.202F1000
Y65.228Z-6
G0Z10
X17.999Y-64.424
G1Z-6F500
Y-64.397Z-6.912
Y64.402F1000
Y64.428Z-6
G0Z10
X21Y-63.624
G1Z-6F500
Y-63.597Z-6.912
Y63.402F1000
Y63.428Z-6
G0Z10
X24Y-62.424
G1Z-6F500
Y-62.397Z-6.912
Y62.402F1000
Y62.428Z-6
G0Z10
X27Y-61.224
G1Z-6F500
Y-61.197Z-6.912
Y61.202F1000
Y61.228Z-6
G0Z10
X30Y-59.824
G1Z-6F500
Y-59.797Z-6.912
Y59.802F1000
Y59.828Z-6
G0Z10
X33Y-58.224
G1Z-6F500
Y-58.197Z-6.912
Y58.202F1000
Y58.228Z-6
G0Z10
X35.999Y-56.424
G1Z-6F500
Y-56.397Z-6.912
Y56.402F1000
Y56.428Z-6
G0Z10
X39Y-54.424
G1Z-6F500
Y-54.397Z-6.912
Y54.402F1000
Y54.428Z-6
G0Z10
X41.999Y-52.024
G1Z-6F500
Y-51.997Z-6.912
Y52.002F1000
Y52.028Z-6
G0Z10
X45Y-49.624
G1Z-6F500
Y-49.597Z-6.912
Y49.602F1000
Y49.628Z-6
G0Z10
X48Y-46.624
G1Z-6F500
Y-46.597Z-6.912
Y46.602F1000
Y46.628Z-6
G0Z10
X50.999Y-43.424
G1Z-6F500
Y-43.397Z-6.912
Y43.402F1000
Y43.428Z-6
G0Z10
X54Y-39.624
G1Z-6F500
Y-39.597Z-6.912
Y39.602F1000
Y39.628Z-6
G0Z10
X57Y-35.024
G1Z-6F500
Y-34.997Z-6.912
Y35.002F1000
Y35.028Z-6
G0Z10
X60Y-29.624
G1Z-6F500
Y-29.597Z-6.912
Y29.602F1000
Y29.628Z-6
G0Z10
X63Y-22.624
G1Z-6F500
Y-22.597Z-6.912
Y22.602F1000
Y22.628Z-6
G0Z10
X66Y-11.424
G1Z-6F500
Y-11.397Z-6.912
Y11.402F1000
Y11.428Z-6
G0Z10
 
