(Created with grbl post processor 2025/04/18 10:36)
G21
(G-code Generated with Fabex and NC library)
G17G90
(Tool: D = 6.0 mm  type END flutes 2)
S12000M03
G00 Z10.0

G0X0.75Z10
G1Z-1.943F500
X0.846Y0.231F1000
X0.867Y0.468
X0.83Y0.695
X0.744Y0.904
X0.62Y1.088
X0.465Y1.244
X0.288Y1.37
X0.095Y1.465
X-0.109Y1.53
X-0.319Y1.563
X-0.531Y1.568
X-0.741Y1.544
X-0.946Y1.495
X-1.142Y1.42
X-1.328Y1.324
X-1.501Y1.207
X-1.66Y1.072
X-1.803Y0.92
X-1.929Y0.755
X-2.037Y0.578
X-2.127Y0.392
X-2.25Y-0.001
X-2.298Y-0.41
X-2.271Y-0.82
X-2.175Y-1.219
X-2.014Y-1.596
X-1.794Y-1.941
X-1.523Y-2.247
X-1.21Y-2.508
X-0.861Y-2.72
X-0.486Y-2.879
X-0.093Y-2.983
X0.31Y-3.032
X0.717Y-3.027
X1.119Y-2.968
X1.509Y-2.857
X1.883Y-2.698
X2.233Y-2.494
X2.556Y-2.249
X2.847Y-1.967
X3.103Y-1.653
X3.32Y-1.311
X3.497Y-0.947
X3.632Y-0.565
X3.724Y-0.171
X3.772Y0.229
X3.776Y0.633
X3.738Y1.036
X3.657Y1.432
X3.536Y1.817
X3.377Y2.188
X3.181Y2.541
X2.823Y3.03
X2.398Y3.46
X1.916Y3.825
X1.386Y4.117
X0.821Y4.333
X0.232Y4.469
X-0.368Y4.523
X-0.972Y4.497
X-1.567Y4.392
X-2.143Y4.21
X-2.691Y3.956
X-3.202Y3.635
X-3.669Y3.252
X-4.085Y2.815
X-4.445Y2.33
X-4.743Y1.806
X-4.977Y1.25
X-5.144Y0.67
X-5.242Y0.075
X-5.271Y-0.527
X-5.231Y-1.128
X-5.123Y-1.722
X-4.949Y-2.299
X-4.713Y-2.854
X-4.417Y-3.379
X-4.066Y-3.869
X-3.664Y-4.318
X-3.217Y-4.722
X-2.729Y-5.077
X-2.207Y-5.378
X-1.657Y-5.624
X-1.084Y-5.811
X-0.496Y-5.939
X0.102Y-6.007
X0.704Y-6.014
X1.503Y-5.93
X2.284Y-5.743
X3.033Y-5.455
X3.739Y-5.073
X4.391Y-4.605
X4.978Y-4.058
X5.493Y-3.442
X5.927Y-2.767
X6.275Y-2.044
X6.532Y-1.283
X6.696Y-0.498
X6.764Y0.301
X6.737Y1.102
X6.616Y1.896
X6.404Y2.669
X6.103Y3.413
X5.719Y4.117
X5.258Y4.773
X4.725Y5.373
X4.128Y5.909
X3.476Y6.375
X2.775Y6.766
X2.037Y7.078
X1.268Y7.308
X0.48Y7.453
X-0.319Y7.513
X-1.121Y7.487
X-1.915Y7.376
X-2.693Y7.182
X-3.446Y6.908
X-4.167Y6.558
X-4.848Y6.134
X-5.482Y5.643
X-6.062Y5.09
X-6.584Y4.481
X-7.041Y3.823
X-7.43Y3.122
X-7.816Y2.197
X-8.084Y1.232
X-8.232Y0.241
X-8.258Y-0.759
X-8.164Y-1.757
X-7.95Y-2.735
X-7.622Y-3.682
X-7.183Y-4.582
X-6.642Y-5.425
X-6.007Y-6.199
X-5.285Y-6.894
X-4.489Y-7.501
X-3.628Y-8.013
X-2.714Y-8.424
X-1.76Y-8.729
X-0.778Y-8.924
X0.219Y-9.008
X1.22Y-8.981
X2.212Y-8.844
X3.183Y-8.598
X4.121Y-8.248
X5.016Y-7.799
X5.856Y-7.255
X6.634Y-6.624
X7.34Y-5.913
X7.966Y-5.132
X8.506Y-4.289
X8.955Y-3.394
X9.307Y-2.457
X9.561Y-1.488
X9.712Y-0.498
X9.761Y0.501
X9.707Y1.501
X9.552Y2.49
X9.297Y3.458
X8.946Y4.396
X8.502Y5.293
X7.855Y6.305
X7.091Y7.233
X6.223Y8.063
X5.264Y8.785
X4.226Y9.39
X3.125Y9.87
X1.976Y10.219
X0.794Y10.433
X-0.404Y10.51
X-1.603Y10.45
X-2.788Y10.254
X-3.944Y9.925
X-5.055Y9.469
X-6.108Y8.891
X-7.09Y8.2
X-7.989Y7.404
X-8.796Y6.514
X-9.499Y5.541
X-10.093Y4.496
X-10.569Y3.394
X-10.924Y2.247
X-11.153Y1.068
X-11.254Y-0.128
X-11.227Y-1.329
X-11.073Y-2.52
X-10.794Y-3.688
X-10.393Y-4.82
X-9.876Y-5.904
X-9.249Y-6.928
X-8.519Y-7.881
X-7.694Y-8.754
X-6.784Y-9.537
X-5.798Y-10.223
X-4.747Y-10.805
X-3.643Y-11.276
X-2.497Y-11.634
X-1.32Y-11.873
X-0.125Y-11.994
X1.075
X2.467Y-11.843
X3.833Y-11.532
X5.154Y-11.066
X6.413Y-10.452
X7.593Y-9.697
X8.68Y-8.814
X9.66Y-7.813
X10.522Y-6.709
X11.253Y-5.514
X11.847Y-4.246
X12.296Y-2.919
X12.596Y-1.551
X12.743Y-0.158
X12.735Y1.242
X12.575Y2.634
X12.264Y3.999
X11.807Y5.323
X11.209Y6.59
X10.479Y7.785
X9.625Y8.895
X8.657Y9.907
X7.586Y10.811
X6.426Y11.596
X5.19Y12.254
X3.891Y12.779
X2.545Y13.164
X1.166Y13.407
X-0.231Y13.506
X-1.63Y13.459
X-3.018Y13.267
X-4.378Y12.934
X-5.697Y12.464
X-6.962Y11.861
X-8.158Y11.132
X-9.274Y10.286
X-10.299Y9.332
X-11.223Y8.279
X-12.036Y7.139
X-12.82Y5.744
X-13.441Y4.268
X-13.89Y2.732
X-14.164Y1.155
X-14.257Y-0.441
X-14.172Y-2.039
X-13.908Y-3.618
X-13.47Y-5.157
X-12.865Y-6.639
X-12.099Y-8.044
X-11.184Y-9.357
X-10.13Y-10.561
X-8.951Y-11.644
X-7.661Y-12.591
X-6.276Y-13.393
X-4.812Y-14.04
X-3.287Y-14.526
X-1.719Y-14.845
X-0.126Y-14.995
X1.474Y-14.974
X3.063Y-14.783
X4.622Y-14.425
X6.136Y-13.904
X7.586Y-13.227
X8.957Y-12.402
X10.234Y-11.437
X11.404Y-10.345
X12.454Y-9.138
X13.374Y-7.828
X14.153Y-6.43
X14.785Y-4.96
X15.263Y-3.432
X15.581Y-1.864
X15.739Y-0.272
X15.734Y1.328
X15.567Y2.919
X15.24Y4.486
X14.756Y6.012
X14.123Y7.481
X13.345Y8.88
X12.309Y10.352
X11.114Y11.699
X9.777Y12.904
X8.315Y13.953
X6.745Y14.834
X5.087Y15.537
X3.362Y16.052
X1.592Y16.376
X-0.203Y16.504
X-2.002Y16.436
X-3.783Y16.173
X-5.525Y15.718
X-7.207Y15.078
X-8.811Y14.261
X-10.318Y13.277
X-11.711Y12.136
X-12.975Y10.854
X-14.095Y9.445
X-15.06Y7.925
X-15.858Y6.312
X-16.483Y4.623
X-16.926Y2.879
X-17.184Y1.097
X-17.255Y-0.701
X-17.138Y-2.497
X-16.835Y-4.271
X-16.349Y-6.005
X-15.688Y-7.679
X-14.858Y-9.276
X-13.868Y-10.78
X-12.729Y-12.174
X-11.454Y-13.445
X-10.056Y-14.579
X-8.55Y-15.566
X-6.952Y-16.395
X-5.279Y-17.058
X-3.547Y-17.549
X-1.775Y-17.864
X0.019Y-18
X2.018Y-17.94
X3.999Y-17.659
X5.936Y-17.161
X7.806Y-16.453
X9.588Y-15.544
X11.259Y-14.446
X12.801Y-13.172
X14.195Y-11.738
X15.425Y-10.161
X16.478Y-8.461
X17.341Y-6.656
X18.005Y-4.77
X18.462Y-2.823
X18.709Y-0.838
X18.743Y1.16
X18.564Y3.152
X18.175Y5.114
X17.58Y7.024
X16.787Y8.86
X15.805Y10.602
X14.645Y12.232
X13.322Y13.731
X11.849Y15.084
X10.243Y16.276
X8.522Y17.295
X6.705Y18.13
X4.811Y18.773
X2.861Y19.217
X0.876Y19.458
X-1.123Y19.495
X-3.116Y19.326
X-5.081Y18.955
X-6.998Y18.386
X-8.848Y17.625
X-10.611Y16.681
X-12.269Y15.563
X-13.807Y14.284
X-15.208Y12.857
X-16.459Y11.296
X-17.547Y9.618
X-18.544Y7.657
X-19.32Y5.599
X-19.866Y3.468
X-20.178Y1.29
X-20.25Y-0.907
X-20.085Y-3.101
X-19.682Y-5.263
X-19.05Y-7.37
X-18.194Y-9.397
X-17.125Y-11.32
X-15.857Y-13.117
X-14.404Y-14.769
X-12.784Y-16.257
X-11.015Y-17.564
X-9.117Y-18.676
X-7.112Y-19.581
X-5.023Y-20.27
X-2.873Y-20.736
X-0.686Y-20.973
X1.513Y-20.979
X3.702Y-20.756
X5.855Y-20.306
X7.95Y-19.635
X9.964Y-18.75
X11.875Y-17.661
X13.664Y-16.38
X15.311Y-14.923
X16.8Y-13.303
X18.115Y-11.54
X19.243Y-9.651
X20.172Y-7.657
X20.893Y-5.579
X21.399Y-3.438
X21.685Y-1.257
X21.75Y0.941
X21.592Y3.135
X21.214Y5.302
X20.62Y7.42
X19.816Y9.468
X18.812Y11.425
X17.5Y13.434
X15.977Y15.289
X14.262Y16.968
X12.376Y18.451
X10.341Y19.722
X8.181Y20.767
X5.921Y21.574
X3.587Y22.134
X1.207Y22.441
X-1.191Y22.493
X-3.582Y22.29
X-5.937Y21.833
X-8.232Y21.13
X-10.439Y20.188
X-12.534Y19.019
X-14.495Y17.635
X-16.3Y16.054
X-17.929Y14.292
X-19.365Y12.369
X-20.592Y10.307
X-21.598Y8.129
X-22.373Y5.858
X-22.908Y3.518
X-23.198Y1.136
X-23.241Y-1.262
X-23.037Y-3.653
X-22.588Y-6.01
X-21.899Y-8.309
X-20.979Y-10.525
X-19.837Y-12.636
X-18.487Y-14.619
X-16.941Y-16.455
X-15.217Y-18.124
X-13.333Y-19.611
X-11.309Y-20.899
X-9.165Y-21.976
X-6.923Y-22.832
X-4.606Y-23.459
X-2.239Y-23.85
X0.155Y-24.002
X2.752Y-23.896
X5.323Y-23.511
X7.837Y-22.85
X10.266Y-21.924
X12.581Y-20.742
X14.757Y-19.319
X16.768Y-17.673
X18.592Y-15.821
X20.209Y-13.785
X21.601Y-11.59
X22.753Y-9.259
X23.652Y-6.82
X24.288Y-4.3
X24.656Y-1.726
X24.751Y0.87
X24.573Y3.464
X24.125Y6.024
X23.413Y8.524
X22.443Y10.936
X21.228Y13.234
X19.781Y15.394
X18.118Y17.392
X16.257Y19.207
X14.22Y20.821
X12.026Y22.216
X9.701Y23.379
X7.269Y24.296
X4.756Y24.96
X2.188Y25.364
X-0.407Y25.504
X-3.004Y25.379
X-5.574Y24.99
X-8.092Y24.343
X-10.531Y23.444
X-12.867Y22.304
X-15.076Y20.934
X-17.136Y19.348
X-19.026Y17.563
X-20.728Y15.598
X-22.224Y13.473
X-23.59Y11.029
X-24.685Y8.453
X-25.497Y5.774
X-26.019Y3.024
X-26.244Y0.233
X-26.171Y-2.564
X-25.8Y-5.339
X-25.137Y-8.058
X-24.19Y-10.693
X-22.97Y-13.212
X-21.49Y-15.589
X-19.769Y-17.796
X-17.825Y-19.81
X-15.681Y-21.61
X-13.36Y-23.175
X-10.888Y-24.488
X-8.292Y-25.537
X-5.601Y-26.309
X-2.845Y-26.798
X-0.053Y-26.998
X2.744Y-26.908
X5.518Y-26.53
X8.237Y-25.867
X10.874Y-24.927
X13.401Y-23.721
X15.79Y-22.263
X18.017Y-20.567
X20.06Y-18.652
X21.896Y-16.539
X23.507Y-14.25
X24.877Y-11.809
X25.992Y-9.241
X26.841Y-6.574
X27.416Y-3.834
X27.711Y-1.05
X27.724Y1.748
X27.456Y4.535
X26.908Y7.28
X26.088Y9.957
X25.004Y12.538
X23.667Y14.997
X21.971Y17.47
X20.02Y19.748
X17.837Y21.806
X15.448Y23.619
X12.881Y25.169
X10.163Y26.438
X7.327Y27.412
X4.403Y28.082
X1.425Y28.44
X-1.573Y28.482
X-4.559Y28.21
X-7.501Y27.626
X-10.366Y26.737
X-13.122Y25.554
X-15.739Y24.09
X-18.19Y22.361
X-20.448Y20.387
X-22.489Y18.189
X-24.292Y15.792
X-25.837Y13.222
X-27.108Y10.505
X-28.093Y7.672
X-28.781Y4.753
X-29.166Y1.779
X-29.244Y-1.219
X-29.014Y-4.209
X-28.481Y-7.16
X-27.648Y-10.042
X-26.527Y-12.824
X-25.129Y-15.477
X-23.469Y-17.975
X-21.564Y-20.291
X-19.434Y-22.403
X-17.102Y-24.29
X-14.592Y-25.931
X-11.929Y-27.311
X-9.141Y-28.417
X-6.256Y-29.237
X-3.303Y-29.764
X-0.313Y-29.993
X2.884Y-29.906
X6.055Y-29.481
X9.162Y-28.721
X12.172Y-27.636
X15.05Y-26.238
X17.764Y-24.545
X20.284Y-22.574
X22.583Y-20.35
X24.635Y-17.896
X26.419Y-15.24
X27.914Y-12.412
X29.106Y-9.443
X29.981Y-6.366
X30.53Y-3.215
X30.749Y-0.023
X30.635Y3.173
X30.189Y6.341
X29.418Y9.446
X28.33Y12.454
X26.937Y15.334
X25.255Y18.055
X23.302Y20.589
X21.098Y22.908
X18.669Y24.989
X16.039Y26.811
X13.236Y28.353
X10.291Y29.602
X7.233Y30.543
X4.096Y31.169
X0.911Y31.472
X-2.287Y31.451
X-5.468Y31.105
X-8.597Y30.44
X-11.643Y29.462
X-14.574Y28.181
X-17.362Y26.612
X-19.978Y24.771
X-22.396Y22.676
X-24.592Y20.349
X-26.543Y17.814
X-28.328Y14.921
X-29.796Y11.856
X-30.932Y8.652
X-31.722Y5.347
X-32.159Y1.976
X-32.239Y-1.421
X-31.961Y-4.809
X-31.328Y-8.148
X-30.349Y-11.403
X-29.035Y-14.538
X-27.4Y-17.518
X-25.462Y-20.31
X-23.245Y-22.886
X-20.771Y-25.217
X-18.068Y-27.279
X-15.166Y-29.048
X-12.097Y-30.508
X-8.893Y-31.643
X-5.589Y-32.44
X-2.22Y-32.892
X1.177Y-32.995
X4.567Y-32.749
X7.913Y-32.155
X11.182Y-31.222
X14.337Y-29.958
X17.347Y-28.379
X20.18Y-26.501
X22.807Y-24.344
X25.201Y-21.931
X27.337Y-19.287
X29.194Y-16.44
X30.752Y-13.419
X31.997Y-10.257
X32.917Y-6.984
X33.501Y-3.636
X33.745Y-0.245
X33.647Y3.151
X33.208Y6.522
X32.432Y9.831
X31.33Y13.046
X29.911Y16.135
X28.08Y19.234
X25.933Y22.122
X23.493Y24.767
X20.788Y27.141
X17.848Y29.217
X14.707Y30.973
X11.399Y32.39
X7.961Y33.454
X4.43Y34.152
X0.846Y34.477
X-2.751Y34.428
X-6.325Y34.004
X-9.836Y33.211
X-13.245Y32.058
X-16.516Y30.558
X-19.615Y28.727
X-22.508Y26.587
X-25.164Y24.159
X-27.556Y21.47
X-29.659Y18.549
X-31.451Y15.428
X-32.913Y12.14
X-34.03Y8.719
X-34.792Y5.201
X-35.19Y1.624
X-35.221Y-1.973
X-34.885Y-5.557
X-34.186Y-9.087
X-33.132Y-12.528
X-31.735Y-15.845
X-30.008Y-19.002
X-27.971Y-21.969
X-25.644Y-24.715
X-23.052Y-27.212
X-20.222Y-29.435
X-17.182Y-31.361
X-13.964Y-32.973
X-10.601Y-34.253
X-7.126Y-35.19
X-3.574Y-35.774
X0.016Y-36
X3.812Y-35.848
X7.571Y-35.297
X11.251Y-34.355
X14.811Y-33.032
X18.214Y-31.342
X21.421Y-29.306
X24.398Y-26.946
X27.112Y-24.289
X29.534Y-21.362
X31.639Y-18.2
X33.403Y-14.836
X34.809Y-11.307
X35.841Y-7.651
X36.49Y-3.908
X36.748Y-0.118
X36.613Y3.677
X36.087Y7.44
X35.177Y11.128
X33.893Y14.703
X32.248Y18.127
X30.261Y21.364
X27.952Y24.381
X25.347Y27.146
X22.474Y29.631
X19.361Y31.809
X16.043Y33.659
X12.554Y35.161
X8.931Y36.302
X5.21Y37.068
X1.431Y37.454
X-2.367Y37.455
X-6.146Y37.072
X-9.868Y36.309
X-13.493Y35.175
X-16.986Y33.681
X-20.311Y31.844
X-23.435Y29.682
X-26.326Y27.218
X-28.955Y24.476
X-31.297Y21.485
X-33.328Y18.275
X-35.109Y14.694
X-36.504Y10.947
X-37.499Y7.074
X-38.083Y3.118
X-38.25Y-0.876
X-38Y-4.867
X-37.335Y-8.809
X-36.263Y-12.662
X-34.796Y-16.382
X-32.951Y-19.929
X-30.748Y-23.266
X-28.211Y-26.357
X-25.368Y-29.169
X-22.25Y-31.672
X-18.89Y-33.841
X-15.325Y-35.651
X-11.592Y-37.085
X-7.732Y-38.128
X-3.785Y-38.769
X0.206Y-39.001
X4.201Y-38.824
X8.156Y-38.239
X12.032Y-37.254
X15.786Y-35.878
X19.381Y-34.126
X22.779Y-32.018
X25.945Y-29.576
X28.847Y-26.825
X31.454Y-23.793
X33.742Y-20.514
X35.686Y-17.019
X37.267Y-13.346
X38.47Y-9.533
X39.282Y-5.617
X39.696Y-1.64
X39.708Y2.357
X39.318Y6.337
X38.531Y10.258
X37.356Y14.08
X35.804Y17.765
X33.787Y21.447
X31.395Y24.898
X28.655Y28.079
X25.598Y30.957
X22.257Y33.499
X18.669Y35.68
X14.874Y37.475
X10.912Y38.866
X6.828Y39.837
X2.664Y40.38
X-1.532Y40.488
X-5.718Y40.162
X-9.847Y39.404
X-13.877Y38.225
X-17.763Y36.636
X-21.465Y34.655
X-24.943Y32.304
X-28.162Y29.608
X-31.087Y26.596
X-33.688Y23.3
X-35.937Y19.755
X-37.813Y15.998
X-39.295Y12.07
X-40.368Y8.011
X-41.023Y3.864
X-41.252Y-0.328
X-41.053Y-4.522
X-40.43Y-8.674
X-39.389Y-12.741
X-37.941Y-16.682
X-36.102Y-20.457
X-33.891Y-24.026
X-31.331Y-27.354
X-28.449Y-30.407
X-25.273Y-33.153
X-21.838Y-35.567
X-18.177Y-37.623
X-14.329Y-39.302
X-10.331Y-40.586
X-6.225Y-41.463
X-2.052Y-41.926
X2.345Y-41.96
X6.723Y-41.535
X11.032Y-40.655
X15.227Y-39.331
X19.26Y-37.577
X23.089Y-35.413
X26.673Y-32.862
X29.972Y-29.954
X32.953Y-26.719
X35.582Y-23.193
X37.832Y-19.414
X39.68Y-15.422
X41.107Y-11.262
X42.097Y-6.976
X42.64Y-2.611
X42.732Y1.785
X42.371Y6.169
X41.563Y10.492
X40.316Y14.71
X38.644Y18.779
X36.565Y22.654
X34.1Y26.298
X31.277Y29.671
X28.125Y32.738
X24.677Y35.469
X20.969Y37.835
X17.04Y39.813
X12.931Y41.381
X8.684Y42.525
X4.343Y43.234
X-0.047Y43.5
X-4.442Y43.321
X-8.796Y42.7
X-13.066Y41.643
X-17.207Y40.161
X-21.179Y38.271
X-24.941Y35.991
X-28.455Y33.346
X-31.686Y30.362
X-34.602Y27.069
X-37.174Y23.501
X-39.468Y19.516
X-41.334Y15.313
X-42.752Y10.939
X-43.707Y6.441
X-44.19Y1.868
X-44.194Y-2.73
X-43.722Y-7.304
X-42.779Y-11.804
X-41.375Y-16.183
X-39.526Y-20.393
X-37.252Y-24.39
X-34.578Y-28.13
X-31.532Y-31.576
X-28.149Y-34.69
X-24.463Y-37.439
X-20.514Y-39.795
X-16.345Y-41.734
X-11.998Y-43.236
X-7.521Y-44.285
X-2.96Y-44.87
X1.636Y-44.987
X6.22Y-44.634
X10.745Y-43.816
X15.164Y-42.541
X19.429Y-40.824
X23.498Y-38.682
X27.329Y-36.138
X30.882Y-33.219
X34.122Y-29.955
X37.014Y-26.381
X39.531Y-22.532
X41.646Y-18.449
X43.339Y-14.174
X44.593Y-9.75
X45.395Y-5.222
X45.738Y-0.636
X45.619Y3.96
X45.039Y8.521
X44.006Y13.002
X42.529Y17.357
X40.623Y21.542
X38.2Y25.684
X35.359Y29.55
X32.132Y33.1
X28.553Y36.296
X24.661Y39.103
X20.5Y41.492
X16.113Y43.437
X11.549Y44.918
X6.857Y45.919
X2.086Y46.431
X-2.711Y46.448
X-7.486Y45.971
X-12.186Y45.005
X-16.761Y43.561
X-21.165Y41.655
X-25.35Y39.307
X-29.272Y36.543
X-32.89Y33.392
X-36.168Y29.888
X-39.071Y26.067
X-41.568Y21.97
X-43.635Y17.64
X-45.25Y13.122
X-46.398Y8.463
X-47.066Y3.711
X-47.248Y-1.083
X-46.943Y-5.871
X-46.155Y-10.604
X-44.891Y-15.233
X-43.166Y-19.711
X-40.998Y-23.991
X-38.409Y-28.031
X-35.426Y-31.79
X-32.08Y-35.229
X-28.405Y-38.314
X-24.438Y-41.014
X-20.221Y-43.302
X-15.795Y-45.156
X-11.206Y-46.557
X-6.499Y-47.492
X-1.723Y-47.951
X3.274Y-47.92
X8.242Y-47.37
X13.125Y-46.307
X17.873Y-44.743
X22.432Y-42.696
X26.756Y-40.188
X30.796Y-37.246
X34.512Y-33.903
X37.862Y-30.194
X40.813Y-26.16
X43.332Y-21.843
X45.394Y-17.29
X46.977Y-12.549
X48.065Y-7.671
X48.647Y-2.707
X48.718Y2.29
X48.276Y7.268
X47.328Y12.176
X45.884Y16.961
X43.959Y21.573
X41.573Y25.965
X38.753Y30.092
X35.527Y33.91
X31.931Y37.38
X28Y40.468
X23.776Y43.14
X19.304Y45.371
X14.628Y47.138
X9.798Y48.423
X4.862Y49.213
X-0.127Y49.5
X-5.12Y49.283
X-10.066Y48.565
X-14.915Y47.351
X-19.617Y45.657
X-24.125Y43.499
X-28.394Y40.899
X-32.381Y37.884
X-36.045Y34.485
X-39.351Y30.736
X-42.266Y26.676
X-44.851Y22.166
X-46.955Y17.413
X-48.554Y12.467
X-49.633Y7.382
X-50.179Y2.213
X-50.189Y-2.984
X-49.662Y-8.155
X-48.604Y-13.244
X-47.027Y-18.198
X-44.949Y-22.962
X-42.392Y-27.488
X-39.383Y-31.726
X-35.955Y-35.634
X-32.145Y-39.169
X-27.992Y-42.296
X-23.541Y-44.981
X-18.839Y-47.197
X-13.935Y-48.921
X-8.881Y-50.135
X-3.729Y-50.828
X1.465Y-50.992
X6.65Y-50.627
X11.772Y-49.736
X16.776Y-48.33
X21.612Y-46.423
X26.229Y-44.036
X30.581Y-41.193
X34.623Y-37.925
X38.314Y-34.265
X41.616Y-30.25
X44.497Y-25.923
X46.926Y-21.328
X48.88Y-16.511
X50.34Y-11.522
X51.291Y-6.412
X51.723Y-1.232
X51.634Y3.965
X51.024Y9.127
X49.9Y14.202
X48.274Y19.139
X46.162Y23.889
X43.479Y28.573
X40.324Y32.953
X36.733Y36.983
X32.745Y40.621
X28.402Y43.826
X23.751Y46.567
X18.843Y48.813
X13.729Y50.541
X8.465Y51.734
X3.105Y52.379
X-2.291Y52.47
X-7.669Y52.007
X-12.971Y50.994
X-18.141Y49.444
X-23.126Y47.373
X-27.873Y44.802
X-32.332Y41.76
X-36.458Y38.279
X-40.206Y34.395
X-43.54Y30.15
X-46.424Y25.587
X-48.83Y20.755
X-50.731Y15.703
X-52.11Y10.484
X-52.953Y5.152
X-53.251Y-0.237
X-53.002Y-5.629
X-52.209Y-10.968
X-50.88Y-16.2
X-49.029Y-21.271
X-46.677Y-26.13
X-43.847Y-30.726
X-40.568Y-35.015
X-36.875Y-38.951
X-32.804Y-42.497
X-28.399Y-45.616
X-23.702Y-48.277
X-18.762Y-50.454
X-13.63Y-52.125
X-8.355Y-53.274
X-2.992Y-53.89
X2.404Y-53.967
X7.98Y-53.478
X13.476Y-52.415
X18.833Y-50.789
X23.993Y-48.62
X28.903Y-45.93
X33.509Y-42.749
X37.763Y-39.11
X41.62Y-35.054
X45.04Y-30.622
X47.987Y-25.863
X50.431Y-20.827
X52.346Y-15.566
X53.712Y-10.138
X54.516Y-4.598
X54.749Y0.994
X54.41Y6.582
X53.503Y12.105
X52.038Y17.508
X50.03Y22.734
X47.501Y27.728
X44.477Y32.439
X40.991Y36.818
X37.078Y40.822
X32.78Y44.408
X28.14Y47.54
X23.207Y50.186
X18.032Y52.321
X12.668Y53.921
X7.17Y54.972
X1.593Y55.463
X-4.003Y55.389
X-9.565Y54.753
X-15.034Y53.56
X-20.356Y51.823
X-25.476Y49.561
X-30.344Y46.797
X-34.91Y43.558
X-39.129Y39.879
X-42.958Y35.796
X-46.36Y31.35
X-49.397Y26.411
X-51.907Y21.185
X-53.864Y15.728
X-55.248Y10.098
X-56.043Y4.355
X-56.243Y-1.439
X-55.846Y-7.223
X-54.855Y-12.935
X-53.283Y-18.516
X-51.147Y-23.906
X-48.469Y-29.048
X-45.278Y-33.889
X-41.609Y-38.377
X-37.499Y-42.467
X-32.993Y-46.115
X-28.138Y-49.285
X-22.985Y-51.942
X-17.588Y-54.06
X-12.004Y-55.617
X-6.289Y-56.598
X-0.505Y-56.993
X5.288Y-56.798
X11.033Y-56.016
X16.669Y-54.655
X22.138Y-52.73
X27.384Y-50.262
X32.353Y-47.275
X36.995Y-43.801
X41.263Y-39.876
X45.112Y-35.541
X48.505Y-30.84
X51.407Y-25.82
X53.789Y-20.534
X55.627Y-15.036
X56.903Y-9.38
X57.605Y-3.625
X57.726Y2.171
X57.266Y7.95
X56.229Y13.655
X54.626Y19.227
X52.474Y24.61
X49.795Y29.752
X46.498Y34.762
X42.702Y39.405
X38.447Y43.632
X33.779Y47.399
X28.749Y50.665
X23.409Y53.396
X17.817Y55.564
X12.032Y57.147
X6.115Y58.129
X0.129Y58.498
X-5.862Y58.253
X-11.799Y57.396
X-17.616Y55.937
X-23.254Y53.891
X-28.654Y51.28
X-33.759Y48.132
X-38.517Y44.481
X-42.879Y40.364
X-46.799Y35.825
X-50.238Y30.911
X-53.16Y25.673
X-55.535Y20.166
X-57.34Y14.446
X-58.556Y8.573
X-59.171Y2.607
X-59.18Y-3.39
X-58.582Y-9.358
X-57.385Y-15.235
X-55.602Y-20.961
X-53.25Y-26.478
X-50.354Y-31.731
X-46.944Y-36.665
X-43.056Y-41.231
X-38.728Y-45.384
X-34.005Y-49.081
X-28.935Y-52.285
X-23.569Y-54.965
X-17.962Y-57.095
X-12.17Y-58.652
X-6.252Y-59.622
X-0.066Y-59.999
X6.125Y-59.735
X12.257Y-58.834
X18.263Y-57.307
X24.081Y-55.169
X29.647Y-52.445
X34.905Y-49.163
X39.797Y-45.359
X44.274Y-41.073
X48.288Y-36.351
X51.797Y-31.243
X54.765Y-25.802
X57.161Y-20.086
X58.961Y-14.156
X60.146Y-8.073
X60.705Y-1.9
X60.631Y4.296
X59.927Y10.453
X58.6Y16.507
X56.664Y22.395
X54.14Y28.055
X51.055Y33.43
X47.44Y38.464
X43.334Y43.107
X38.779Y47.309
X33.822Y51.029
X28.514Y54.229
X22.91Y56.876
X17.068Y58.943
X11.046Y60.411
X4.908Y61.265
X-1.285Y61.496
X-7.47Y61.103
X-13.584Y60.089
X-19.566Y58.467
X-25.354Y56.252
X-30.891Y53.467
X-36.121Y50.142
X-40.991Y46.309
X-45.454Y42.008
X-49.464Y37.283
X-52.981Y32.18
X-56.059Y26.572
X-58.543Y20.676
X-60.407Y14.556
X-61.632Y8.277
X-62.206Y1.906
X-62.122Y-4.49
X-61.382Y-10.845
X-59.995Y-17.09
X-57.976Y-23.161
X-55.346Y-28.992
X-52.133Y-34.525
X-48.372Y-39.7
X-44.102Y-44.464
X-39.368Y-48.767
X-34.221Y-52.566
X-28.713Y-55.821
X-22.902Y-58.498
X-16.85Y-60.57
X-10.618Y-62.016
X-4.271Y-62.822
X2.123Y-62.98
X8.502Y-62.488
X14.798Y-61.353
X20.946Y-59.586
X26.885Y-57.206
X32.552Y-54.239
X37.891Y-50.713
X40.883Y-48.371Z-1.945
X42.25Y-47.2Z-2.022
X45.727Y-43.893Z-1.943
X47.1Y-42.438Z-2.204
X48.296Y-41.093Z-2.25
X49.453Y-39.714Z-2.104
X50.079Y-38.934Z-1.944
X50.449Y-38.462Z-1.943
X50.571Y-38.303Z-1.962
X51.648Y-36.861Z-2.316
X52.684Y-35.389Z-2.478
X53.678Y-33.889Z-2.45
X54.629Y-32.36Z-2.231
X54.936Y-31.845Z-2.12
X55.037Y-31.672Z-2.123
X55.925Y-30.106Z-2.502
X56.767Y-28.516Z-2.698
X57.565Y-26.902Z-2.703
X58.316Y-25.266Z-2.517
X58.713Y-24.348Z-2.349
X58.791Y-24.164Z-2.372
X59.464Y-22.495Z-2.749
X60.09Y-20.807Z-2.936
X60.667Y-19.102Z-2.932
X61.196Y-17.382Z-2.738
X61.416Y-16.612Z-2.592
X61.469Y-16.42Z-2.585
X61.97Y-14.483Z-2.994
X62.368Y-12.728Z-3.173
X62.716Y-10.962Z-3.162
X63.014Y-9.187Z-2.96
X63.13Y-8.395Z-2.817
X63.158Y-8.197Z-2.827
X63.378Y-6.41Z-3.206
X63.547Y-4.618Z-3.4
X63.666Y-2.822Z-3.403
X63.733Y-1.023Z-3.216
X63.747Y-0.224Z-3.072
X63.749Y-0.024Z-3.048
X63.75Y0.175Z-3.072
X63.733Y1.975Z-3.449
X63.666Y3.774Z-3.636
X63.547Y5.57Z-3.634
X63.378Y7.362Z-3.441
X63.287Y8.157Z-3.295
X63.263Y8.356Z-3.283
X62.984Y10.336Z-3.691
X62.681Y12.11Z-3.873
X62.328Y13.875Z-3.865
X61.925Y15.63Z-3.668
X61.73Y16.406Z-3.522
X61.68Y16.599Z-3.52
X61.145Y18.526Z-3.93
X60.611Y20.245Z-4.108
X60.03Y21.949Z-4.097
X59.401Y23.635Z-3.895
X59.106Y24.379Z-3.751
X59.03Y24.564Z-3.758
X58.328Y26.222Z-4.138
X57.579Y27.859Z-4.334
X56.784Y29.474Z-4.34
X55.945Y31.066Z-4.157
X55.459Y31.94Z-3.983
X55.36Y32.114Z-3.996
X54.447Y33.665Z-4.376
X53.49Y35.189Z-4.569
X52.491Y36.687Z-4.572
X51.45Y38.155Z-4.387
X50.854Y38.958Z-4.215
X50.733Y39.118Z-4.232
X49.625Y40.536Z-4.612
X48.477Y41.922Z-4.803
X47.29Y43.276Z-4.805
X46.066Y44.596Z-4.618
X45.371Y45.314Z-4.448
X45.23Y45.457Z-4.468
X43.946Y46.718Z-4.846
X42.626Y47.942Z-5.037
X41.273Y49.13Z-5.038
X39.888Y50.278Z-4.851
X39.104Y50.9Z-4.681
X38.946Y51.022Z-4.702
X37.508Y52.105Z-5.08
X36.04Y53.147Z-5.271
X34.544Y54.147Z-5.272
X33.02Y55.106Z-5.086
X32.162Y55.619Z-4.915
X31.99Y55.72Z-4.934
X30.423Y56.606Z-5.312
X28.832Y57.448Z-5.504
X27.218Y58.245Z-5.507
X25.582Y58.996Z-5.321
X24.664Y59.394Z-5.149
X24.48Y59.472Z-5.164
X22.811Y60.146Z-5.544
X21.124Y60.773Z-5.737
X19.42Y61.353Z-5.742
X17.7Y61.885Z-5.558
X16.739Y62.159Z-5.383
X16.546Y62.213Z-5.393
X14.803Y62.664Z-5.773
X13.049Y63.066Z-5.969
X11.284Y63.419Z-5.976
X9.51Y63.723Z-5.796
X8.52Y63.87Z-5.619
X8.322Y63.898Z-5.621
X6.337Y64.14Z-6.033
X4.545Y64.305Z-6.211
X2.748Y64.42Z-6.202
X0.949Y64.485Z-6.004
X0.15Y64.498Z-5.857
X-0.049Y64.5Z-5.851
X-2.049Y64.482Z-6.26
X-3.848Y64.413Z-6.443
X-5.644Y64.294Z-6.437
X-7.436Y64.124Z-6.244
X-8.231Y64.033Z-6.098
X-8.429Y64.009Z-6.08
X-8.628Y63.984Z-6.11
X-10.41Y63.732Z-6.485
X-12.185Y63.43Z-6.673
X-13.95Y63.079
X-15.705Y62.679Z-6.486
X-16.675Y62.435Z-6.314
X-16.869Y62.385Z-6.331
X-18.603Y61.904Z-6.71
X-20.324Y61.374Z-6.904
X-22.029Y60.797Z-6.911
X-23.717Y60.173Z-6.73
X-24.647Y59.806Z-6.552
X-24.832Y59.731Z-6.554
X-26.673Y58.948Z-6.965
X-28.308Y58.196Z-7.145
X-29.922Y57.398Z-7.137
X-31.512Y56.555Z-6.943
X-32.212Y56.167Z-6.796
X-32.386Y56.068Z-6.781
X-34.28Y54.949Z-7.218
X-35.801Y53.987Z-7.384
X-37.295Y52.982Z-7.364
X-38.76Y51.936Z-7.156
X-39.401Y51.459Z-7.014
X-39.561Y51.338Z-7.028
X-40.98Y50.23Z-7.408
X-42.367Y49.083Z-7.604
X-43.722Y47.898Z-7.614
X-45.043Y46.676Z-7.436
X-45.763Y45.981Z-7.257
X-45.905Y45.841Z-7.25
X-47.307Y44.415Z-7.659
X-48.53Y43.094Z-7.844
X-49.717Y41.74Z-7.841
X-50.865Y40.354Z-7.652
X-51.486Y39.571Z-7.48
X-51.609Y39.413Z-7.497
X-52.692Y37.975Z-7.877
X-53.735Y36.508Z-8.072
X-54.737Y35.013Z-8.08
X-55.697Y33.49Z-7.902
X-56.212Y32.633Z-7.724
X-56.314Y32.461Z-7.716
X-57.299Y30.72Z-8.126
X-58.139Y29.128Z-8.311
X-58.935Y27.513Z-8.31
X-59.685Y25.878Z-8.122
X-60.083Y24.96Z-7.947
X-60.161Y24.776Z-7.961
X-60.835Y23.107Z-8.341
X-61.464Y21.42Z-8.538
X-62.045Y19.716Z-8.549
X-62.579Y17.997Z-8.374
X-62.855Y17.036Z-8.196
X-62.908Y16.844Z-8.181
X-63.457Y14.713Z-8.617
X-63.852Y12.957Z-8.786
X-64.199Y11.191Z-8.768
X-64.496Y9.415Z-8.565
X-64.613Y8.624Z-8.419
X-64.641Y8.426Z-8.42
X-64.883Y6.441Z-8.832
X-65.049Y4.648Z-9.014
X-65.166Y2.852Z-9.01
X-65.233Y1.053Z-8.82
X-65.249Y0.053Z-8.647
X-65.25Y-0.146Z-8.663
X-65.234Y-1.946Z-9.043
X-65.169Y-3.744Z-9.24
X-65.054Y-5.541Z-9.25
X-64.89Y-7.333Z-9.075
X-64.777Y-8.327Z-8.898
X-64.753Y-8.525Z-8.88
X-64.728Y-8.724Z-8.909
X-64.476Y-10.506Z-9.285
X-64.175Y-12.281Z-9.476
X-63.825Y-14.047Z-9.482
X-63.427Y-15.802Z-9.302
X-63.185Y-16.772Z-9.123
X-63.135Y-16.966Z-9.116
X-62.6Y-18.893Z-9.526
X-62.069Y-20.613Z-9.712
X-61.491Y-22.317Z-9.713
X-60.866Y-24.005Z-9.529
X-60.498Y-24.936Z-9.351
X-60.423Y-25.121Z-9.353
X-59.641Y-26.962Z-9.765
X-58.889Y-28.597Z-9.948
X-58.092Y-30.211Z-9.945
X-57.251Y-31.803Z-9.758
X-56.765Y-32.677Z-9.582
X-56.666Y-32.851Z-9.591
X-55.754Y-34.402Z-9.972
X-52.765Y-38.898Z-9.998
X-52.647Y-39.059Z-9.988
X-52.051Y-39.862Z-9.814
X-51.93Y-40.022Z-9.829
X-51.565Y-40.498Z-9.975
X-51.428Y-40.675Z-10
X-47.133Y-45.651
X-42.343Y-50.189
X-37.123Y-54.222
X-31.524Y-57.712
X-25.603Y-60.623
X-19.421Y-62.927
X-13.04Y-64.601
X-6.523Y-65.629
X0.064Y-66
X6.854Y-65.692
X13.577Y-64.689
X20.161Y-63
X26.537Y-60.644
X32.638Y-57.647
X38.399Y-54.041
X43.761Y-49.863
X48.668Y-45.159
X53.068Y-39.978
X56.915Y-34.374
X60.17Y-28.407
X62.799Y-22.139
X64.776Y-15.635
X66.079Y-8.964
X66.697Y-2.195
X66.623Y4.601
X65.859Y11.355
X64.412Y17.997
X62.299Y24.457
X59.541Y30.67
X56.168Y36.571
X52.214Y42.101
X47.721Y47.201
X42.735Y51.821
X37.308Y55.914
X31.495Y59.437
X25.356Y62.356
X18.954Y64.641
X12.355Y66.269
X5.625Y67.224
X-1.166Y67.497
X-7.951Y67.086
X-14.66Y65.994
X-21.226Y64.235
X-27.582Y61.826
X-33.664Y58.791
X-39.412Y55.162
X-44.767Y50.976
X-49.677Y46.275
X-54.092Y41.106
X-57.968Y35.522
X-61.355Y29.4
X-64.096Y22.962
X-66.161Y16.276
X-67.53Y9.414
X-68.188Y2.448
X-68.129Y-4.548
X-67.355Y-11.502
X-65.873Y-18.341
X-63.7Y-24.992
X-60.859Y-31.386
X-57.381Y-37.458
X-53.302Y-43.143
X-48.664Y-48.382
X-43.517Y-53.123
X-37.914Y-57.314
X-31.914Y-60.915
X-25.58Y-63.886
X-18.976Y-66.2
X-12.171Y-67.831
X-5.237Y-68.764
X1.756Y-68.989
X8.736Y-68.504
X15.632Y-67.317
X22.372Y-65.437
X28.888Y-62.887
X35.113Y-59.691
X40.984Y-55.883
X46.44Y-51.503
X51.428Y-46.596
X55.896Y-41.21
X59.799Y-35.403
X63.099Y-29.233
X65.762Y-22.762
X67.761Y-16.056
X69.078Y-9.184
X69.699Y-2.214
X69.618Y4.781
X68.837Y11.735
X67.363Y18.575
X65.213Y25.234
X62.408Y31.645
X58.871Y37.912
X54.708Y43.783
X49.965Y49.197
X44.692Y54.095
X38.946Y58.428
X32.786Y62.15
X26.277Y65.222
X19.489Y67.612
X12.491Y69.297
X5.359Y70.259
X-1.834Y70.488
X-9.013Y69.982
X-16.104Y68.748
X-23.032Y66.799
X-29.725Y64.154
X-36.116Y60.843
X-42.136Y56.9
X-47.726Y52.366
X-52.827Y47.289
X-57.386Y41.72
X-61.358Y35.718
X-64.702Y29.345
X-67.384Y22.666
X-69.377Y15.75
X-70.661Y8.669
X-71.223Y1.494
X-71.059Y-5.701
X-70.17Y-12.843
X-68.566Y-19.859
X-66.263Y-26.678
X-63.286Y-33.23
X-59.665Y-39.45
X-55.437Y-45.275
X-50.646Y-50.645
X-45.34Y-55.508
X-39.573Y-59.814
X-33.403Y-63.52
X-26.893Y-66.59
X-20.109Y-68.993
X-13.118Y-70.705
X-5.992Y-71.709
X1.199Y-71.997
X8.582Y-71.543
X15.879Y-70.335
X23.015Y-68.385
X29.913Y-65.715
X36.502Y-62.353
X42.713Y-58.335
X48.48Y-53.704
X53.745Y-48.508
X58.452Y-42.802
X62.552Y-36.645
X66.004Y-30.103
X68.772Y-23.243
X70.827Y-16.137
X72.149Y-8.859
X72.724Y-1.485
X72.547Y5.909
X71.621Y13.248
X69.956Y20.455
X67.568Y27.456
X64.483Y34.179
X60.734Y40.556
X56.359Y46.52
X51.403Y52.012
X45.918Y56.975
X39.96Y61.358
X33.59Y65.118
X26.873Y68.217
X19.878Y70.624
X12.677Y72.313
X5.342Y73.27
X-2.051Y73.484
X-9.429Y72.954
X-16.717Y71.685
X-23.84Y69.692
X-30.728Y66.994
X-37.31Y63.619
X-43.521Y59.602
X-49.299Y54.983
X-54.586Y49.809
X-59.329Y44.133
X-63.585Y37.84
X-67.173Y31.144
X-70.056Y24.115
X-72.205Y16.829
X-73.596Y9.36
X-74.216Y1.789
X-74.059Y-5.806
X-73.128Y-13.345
X-71.431Y-20.75
X-68.988Y-27.944
X-65.825Y-34.851
X-61.974Y-41.399
X-57.477Y-47.522
X-52.381Y-53.156
X-46.738Y-58.242
X-40.607Y-62.729
X-34.052Y-66.569
X-27.142Y-69.725
X-19.947Y-72.164
X-12.542Y-73.862
X-5.004Y-74.8
X2.59Y-74.971
X10.164Y-74.372
X17.638Y-73.012
X24.936Y-70.903
X31.985Y-68.069
X38.711Y-64.537
X45.047Y-60.346
X50.929Y-55.537
X56.296Y-50.161
X61.095Y-44.272
X65.278Y-37.93
X68.802Y-31.2
X71.632Y-24.149
X73.741Y-16.851
X75.106Y-9.378
X75.716Y-1.805
X75.564Y5.789
X74.652Y13.332
X72.99Y20.745
X70.596Y27.954
X67.402Y35.067
X63.604Y41.647
X59.044Y47.971
X53.86Y53.795
X48.108Y59.058
X41.848Y63.706
X35.146Y67.69
X28.072Y70.969
X20.7Y73.509
X13.108Y75.284
X5.375Y76.276
X-2.418Y76.476
X-10.192Y75.881
X-17.866Y74.499
X-25.359Y72.344
X-32.594Y69.439
X-39.498Y65.815
X-45.997Y61.509
X-52.027Y56.566
X-57.525Y51.037
X-62.435Y44.981
X-66.707Y38.458
X-70.297Y31.537
X-73.17Y24.288
X-75.296Y16.787
X-76.653Y9.109
X-77.229Y1.334
X-77.018Y-6.459
X-76.024Y-14.193
X-74.255Y-21.786
X-71.732Y-29.164
X-68.479Y-36.25
X-64.53Y-42.973
X-59.926Y-49.265
X-54.714Y-55.064
X-48.947Y-60.31
X-42.682Y-64.952
X-35.984Y-68.943
X-28.92Y-72.244
X-21.561Y-74.82
X-13.981Y-76.648
X-6.257Y-77.709
X1.734Y-77.991
X9.514Y-77.476
X17.399Y-76.144
X25.106Y-74.013
X32.556Y-71.105
X39.67Y-67.453
X46.373Y-63.093
X52.597Y-58.072
X58.277Y-52.442
X63.354Y-46.264
X67.775Y-39.601
X71.496Y-32.522
X74.477Y-25.102
X76.69Y-17.417
X78.11Y-9.548
X78.724Y-1.575
X78.526Y6.419
X77.519Y14.352
X75.714Y22.142
X73.129Y29.71
X69.791Y36.977
X65.736Y43.869
X61.005Y50.316
X55.647Y56.253
X49.717Y61.618
X43.277Y66.358
X36.391Y70.425
X29.131Y73.776
X21.57Y76.38
X13.785Y78.21
X5.856Y79.248
X-2.137Y79.483
X-10.113Y78.915
X-17.992Y77.548
X-25.695Y75.398
X-33.143Y72.486
X-40.261Y68.843
X-46.979Y64.505
X-53.229Y59.516
X-58.949Y53.928
X-64.082Y47.795
X-68.576Y41.18
X-72.473Y33.97
X-75.613Y26.398
X-77.962Y18.545
X-79.497Y10.494
X-80.202Y2.327
X-80.069Y-5.867
X-79.102Y-14.006
X-77.311Y-22.005
X-74.714Y-29.779
X-71.34Y-37.249
X-67.223Y-44.337
X-62.407Y-50.97
X-56.942Y-57.078
X-50.885Y-62.601
X-44.298Y-67.48
X-37.251Y-71.667
X-29.816Y-75.117
X-22.07Y-77.797
X-14.092Y-79.679
X-5.965Y-80.744
X2.227Y-80.982
X10.402Y-80.39
X18.476Y-78.976
X26.366Y-76.755
X33.992Y-73.749
X41.275Y-69.989
X48.143Y-65.515
X54.525Y-60.371
X60.358Y-54.612
X65.581Y-48.296
X70.144Y-41.486
X73.999Y-34.252
X77.108Y-26.668
X79.441Y-18.811
X80.974Y-10.758
X81.693Y-2.593
X81.59Y5.602
X80.667Y13.747
X78.934Y21.758
X76.408Y29.556
X73.116Y37.063
X69.09Y44.203
X64.249Y51.063
X58.732Y57.393
X52.598Y63.126
X45.91Y68.204
X38.74Y72.572
X31.161Y76.187
X23.254Y79.011
X15.1Y81.015
X6.784Y82.18
X-1.605Y82.493
X-9.984Y81.951
X-18.265Y80.561
X-26.362Y78.337
X-34.191Y75.304
X-41.673Y71.492
X-48.729Y66.942
X-55.289Y61.7
X-61.284Y55.821
X-66.654Y49.366
X-71.344Y42.401
X-75.306Y34.998
X-78.5Y27.233
X-80.894Y19.185
X-82.464Y10.936
X-83.194Y2.571
X-83.078Y-5.823
X-82.118Y-14.165
X-80.322Y-22.367
X-77.711Y-30.348
X-74.311Y-38.025
X-70.156Y-45.322
X-65.291Y-52.165
X-59.763Y-58.485
X-53.628Y-64.219
X-46.95Y-69.309
X-39.796Y-73.705
X-32.238Y-77.362
X-24.351Y-80.244
X-16.216Y-82.324
X-7.914Y-83.58
X0.471Y-84
X9.056Y-83.561
X17.552Y-82.247
X25.869Y-80.073
X33.92Y-77.062
X41.623Y-73.245
X48.897Y-68.663
X55.666Y-63.364
X61.861Y-57.404
X67.417Y-50.844
X72.277Y-43.754
X76.392Y-36.206
X79.719Y-28.279
X82.224Y-20.056
X83.882Y-11.621
X84.677Y-3.061
X84.599Y5.534
X83.652Y14.078
X81.845Y22.482
X79.197Y30.661
X75.735Y38.53
X71.497Y46.009
X66.525Y53.022
X60.871Y59.497
X54.592Y65.369
X47.753Y70.578
X40.425Y75.071
X32.681Y78.803
X24.6Y81.738
X16.266Y83.844
X7.762Y85.102
X-0.825Y85.5
X-9.408Y85.033
X-17.902Y83.707
X-26.22Y81.535
X-34.278Y78.541
X-41.996Y74.754
X-49.296Y70.214
X-56.104Y64.966
X-62.354Y59.063
X-67.983Y52.565
X-73.04Y45.368
X-77.336Y37.692
X-80.825Y29.618
X-83.473Y21.229
X-85.251Y12.614
X-86.141Y3.863
X-86.136Y-4.932
X-85.234Y-13.682
X-83.447Y-22.295
X-80.793Y-30.682
X-77.3Y-38.755
X-73.005Y-46.431
X-67.953Y-53.632
X-62.196Y-60.283
X-55.794Y-66.316
X-48.814Y-71.669
X-41.327Y-76.287
X-33.411Y-80.123
X-25.148Y-83.138
X-16.622Y-85.302
X-7.921Y-86.594
X0.866Y-86.999
X9.649Y-86.516
X18.338Y-85.148
X26.845Y-82.911
X35.084Y-79.827
X42.969Y-75.929
X50.422Y-71.257
X57.368Y-65.859
X63.734Y-59.789
X69.459Y-53.11
X74.483Y-45.89
X78.757Y-38.202
X82.238Y-30.123
X84.891Y-21.736
X86.689Y-13.125
X87.615Y-4.378
X87.661Y4.418
X86.826Y13.174
X85.12Y21.804
X82.559Y30.219
X79.084Y38.517
X74.884Y46.246
X69.812Y53.676
X64.008Y60.55
X57.534Y66.797
X50.457Y72.351
X42.851Y77.156
X34.796Y81.161
X26.375Y84.326
X17.675Y86.618
X8.788Y88.014
X-0.194Y88.5
X-9.18Y88.071
X-18.077Y86.733
X-26.791Y84.5
X-35.235Y81.394
X-43.32Y77.45
X-50.965Y72.707
X-58.09Y67.215
X-64.624Y61.03
X-70.498Y54.217
X-75.655Y46.845
X-80.04Y38.99
X-83.611Y30.733
X-86.331Y22.157
X-88.172Y13.351
X-89.117Y4.405
X-89.156Y-4.59
X-88.289Y-13.545
X-86.525Y-22.367
X-83.884Y-30.967
X-80.392Y-39.258
X-76.085Y-47.156
X-71.007Y-54.582
X-65.21Y-61.462
X-58.752Y-67.725
X-51.699Y-73.31
X-44.122Y-78.16
X-36.097Y-82.227
X-27.706Y-85.47
X-19.032Y-87.859
X-9.964Y-89.391
X-0.788Y-89.991
X8.401Y-89.65
X17.508Y-88.375
X26.438Y-86.177
X35.097Y-83.081
X43.396Y-79.119
X51.249Y-74.332
X58.574Y-68.772
X65.296Y-62.496
X71.345Y-55.57
X76.659Y-48.065
X81.185Y-40.059
X84.875Y-31.635
X87.691Y-22.881
X89.606Y-13.887
X90.6Y-4.744
X90.663Y4.451
X89.795Y13.606
X88.006Y22.627
X85.315Y31.42
X81.749Y39.897
X77.345Y47.97
X72.149Y55.558
X66.215Y62.583
X59.602Y68.974
X52.379Y74.666
X44.619Y79.602
X36.403Y83.732
X27.812Y87.014
X18.935Y89.416
X9.861Y90.914
X0.683Y91.493
X-8.505Y91.148
X-17.614Y89.882
X-26.55Y87.709
X-35.223Y84.651
X-43.546Y80.74
X-51.436Y76.016
X-58.814Y70.525
X-65.605Y64.324
X-71.742Y57.475
X-77.165Y50.048
X-81.911Y41.938
X-85.731Y33.573
X-88.753Y24.676
X-90.852Y15.518
X-92.008Y6.193
X-92.209Y-3.2
X-91.454Y-12.566
X-89.751Y-21.806
X-87.118Y-30.826
X-83.582Y-39.532
X-79.182Y-47.833
X-73.962Y-55.646
X-67.976Y-62.889
X-61.287Y-69.488
X-53.964Y-75.376
X-46.083Y-80.492
X-37.725Y-84.785
X-28.975Y-88.21
X-19.924Y-90.734
X-10.665Y-92.33
X-1.291Y-92.983
X8.099Y-92.687
X17.413Y-91.445
X26.554Y-89.271
X35.429Y-86.186
X43.949Y-82.224
X52.027Y-77.424
X59.58Y-71.835
X66.534Y-65.516
X72.818Y-58.53
X78.368Y-50.948
X83.128Y-42.847
X87.052Y-34.309
X90.1Y-25.421
X92.241Y-16.272
X93.455Y-6.954
X93.729Y2.437
X93.062Y11.809
X91.461Y21.068
X88.943Y30.121
X85.532Y38.876
X81.164Y47.42
X79.198Y50.672Z-9.993
X77.777Y52.849Z-9.891
X73.163Y59.136Z-9.997
X71.382Y61.296Z-9.698
X69.671Y63.253Z-9.682
X67.906Y65.163Z-9.934
X67.63Y65.452Z-9.992
X65.663Y67.445
X63.784Y69.242Z-9.576
X61.857Y70.987Z-9.424
X59.882Y72.678Z-9.54
X57.861Y74.314Z-9.924
X57.483Y74.609Z-10
X57.219Y74.814
X57.072Y74.928Z-9.979
X54.99Y76.485Z-9.463
X52.865Y77.984Z-9.215
X50.701Y79.424Z-9.235
X48.497Y80.804Z-9.523
X47.122Y81.623Z-9.832
X44.859Y82.903Z-9.282
X42.562Y84.12Z-8.999
X40.232Y85.274Z-8.984
X37.871Y86.362Z-9.237
X36.219Y87.078Z-9.569
X36.035Y87.155Z-9.584
X33.623Y88.128Z-9.04
X31.186Y89.033Z-8.762
X28.725Y89.871Z-8.753
X26.242Y90.641Z-9.012
X24.511Y91.134Z-9.348
X24.318Y91.187Z-9.338
X21.8Y91.835Z-8.799
X19.265Y92.413Z-8.526
X16.715Y92.922Z-8.522
X14.152Y93.36Z-8.785
X12.371Y93.622Z-9.124
X12.173Y93.649Z-9.094
X9.592Y93.961Z-8.559
X7.003Y94.203Z-8.291
X4.409Y94.373Z-8.29
X1.811Y94.472Z-8.557
X0.011Y94.498Z-8.899
X-2.588Y94.476Z-8.352
X-5.186Y94.382Z-8.066
X-7.781Y94.217Z-8.048
X-10.37Y93.98Z-8.298
X-12.357Y93.75Z-8.665
X-14.931Y93.388Z-8.114
X-17.495Y92.955Z-7.831
X-20.046Y92.452Z-7.815
X-22.582Y91.879Z-8.066
X-24.521Y91.391Z-8.426
X-27.026Y90.695Z-7.877
X-29.512Y89.931Z-7.596
X-31.975Y89.099Z-7.582
X-34.414Y88.2Z-7.835
X-36.088Y87.538Z-8.166
X-36.273Y87.462Z-8.19
X-38.666Y86.445Z-7.643
X-41.03Y85.363Z-7.363
X-43.364Y84.217Z-7.349
X-45.665Y83.006Z-7.602
X-47.238Y82.132Z-7.934
X-47.412Y82.033Z-7.957
X-49.652Y80.712Z-7.41
X-51.854Y79.331Z-7.129
X-54.018Y77.889Z-7.115
X-56.141Y76.389Z-7.368
X-57.746Y75.196Z-7.725
X-59.795Y73.594Z-7.177
X-61.798Y71.937Z-6.896
X-63.756Y70.226Z-6.881
X-65.666Y68.462Z-7.132
X-67.101Y67.07Z-7.496
X-68.923Y65.215Z-6.946
X-70.694Y63.311Z-6.663
X-72.412Y61.359Z-6.646
X-74.075Y59.361Z-6.895
X-75.317Y57.794Z-7.268
X-76.882Y55.717Z-6.716
X-78.39Y53.599Z-6.43
X-79.838Y51.44Z-6.41
X-81.228Y49.242Z-6.657
X-82.255Y47.526Z-7.027
X-83.632Y45.089Z-6.455
X-84.846Y42.79Z-6.186
X-85.997Y40.458Z-6.183
X-87.083Y38.096Z-6.446
X-87.798Y36.444Z-6.784
X-87.875Y36.259Z-6.766
X-88.846Y33.847Z-6.227
X-89.751Y31.41Z-5.954
X-90.588Y28.949Z-5.946
X-91.358Y26.465Z-6.205
X-91.851Y24.734Z-6.539
X-91.904Y24.541Z-6.544
X-92.553Y22.024Z-6
X-93.133Y19.489Z-5.722
X-93.644Y16.94Z-5.71
X-94.084Y14.377Z-5.963
X-94.376Y12.399Z-6.326
X-94.692Y9.818Z-5.777
X-94.938Y7.23Z-5.493
X-95.113Y4.636Z-5.474
X-95.217Y2.038Z-5.721
X-95.249Y0.038Z-6.092
X-95.218Y-2.961Z-5.493
X-95.114Y-5.559Z-5.243
X-94.94Y-8.153Z-5.258
X-94.695Y-10.741Z-5.538
X-94.51Y-12.33Z-5.843
X-94.484Y-12.529Z-5.844
X-94.12Y-15.103Z-5.301
X-93.686Y-17.667Z-5.023
X-93.182Y-20.217Z-5.01
X-92.609Y-22.753Z-5.263
X-92.121Y-24.693Z-5.632
X-91.427Y-27.198Z-5.081
X-90.664Y-29.684Z-4.795
X-89.833Y-32.148Z-4.773
X-88.936Y-34.588Z-5.017
X-88.201Y-36.448Z-5.384
X-88.126Y-36.633Z-5.37
X-87.107Y-39.025Z-4.83
X-86.023Y-41.389Z-4.555
X-84.876Y-43.722Z-4.544
X-83.666Y-46.023Z-4.798
X-82.692Y-47.77Z-5.162
X-81.372Y-50.01Z-4.612
X-79.992Y-52.213Z-4.327
X-78.552Y-54.378Z-4.306
X-77.054Y-56.503Z-4.549
X-75.862Y-58.109Z-4.917
X-75.741Y-58.269Z-4.904
X-74.138Y-60.316Z-4.363
X-72.48Y-62.318Z-4.087
X-70.768Y-64.275Z-4.076
X-69.004Y-66.185Z-4.328
X-67.612Y-67.62Z-4.7
X-65.757Y-69.443Z-4.148
X-63.854Y-71.214Z-3.86
X-61.904Y-72.933Z-3.836
X-59.907Y-74.599Z-4.077
X-58.341Y-75.842Z-4.442
X-58.183Y-75.965Z-4.445
X-56.105Y-77.528Z-3.902
X-53.986Y-79.034Z-3.622
X-51.826Y-80.482Z-3.606
X-49.628Y-81.871Z-3.855
X-47.912Y-82.898Z-4.226
X-45.299Y-84.371Z-3.629
X-42.998Y-85.581Z-3.376
X-40.665Y-86.729Z-3.388
X-38.301Y-87.812Z-3.663
X-36.648Y-88.524Z-3.999
X-34.237Y-89.498Z-3.449
X-31.801Y-90.406Z-3.162
X-29.341Y-91.248Z-3.139
X-26.859Y-92.022Z-3.379
X-24.936Y-92.572Z-3.743
X-24.743Y-92.625Z-3.753
X-22.226Y-93.274Z-3.208
X-19.692Y-93.855Z-2.926
X-17.143Y-94.367Z-2.907
X-14.581Y-94.81Z-3.152
X-12.602Y-95.103Z-3.52
X-12.404Y-95.131Z-3.507
X-9.823Y-95.445Z-2.966
X-7.235Y-95.689Z-2.689
X-4.64Y-95.862Z-2.675
X-2.043Y-95.966Z-2.924
X-0.043Y-95.998Z-3.295
X2.956Y-95.967Z-2.696
X5.554Y-95.865Z-2.443
X8.148Y-95.692Z-2.452
X10.737Y-95.449Z-2.725
X12.525Y-95.24Z-3.068
X15.297Y-94.849Z-2.488
X17.86Y-94.413Z-2.217
X20.411Y-93.908Z-2.208
X22.946Y-93.334Z-2.463
X24.886Y-92.846Z-2.834
X27.391Y-92.151Z-2.282
X29.877Y-91.389Z-1.992
X32.342Y-90.56Z-1.965
X34.782Y-89.665Z-2.201
X36.828Y-88.856Z-2.596
X39.222Y-87.84Z-2.045
X39.77Y-87.597Z-1.955
X46.049Y-84.505Z-1.944
X48.147Y-83.341Z-2.36
X49.702Y-82.434Z-1.952
X57.85Y-76.995Z-1.943
X58.649Y-76.395Z-2.129
X59.126Y-76.03Z-1.979
X59.284Y-75.908Z-1.943
X66.719Y-69.53
X73.469Y-62.431
X79.463Y-54.683
X84.641Y-46.367
X88.949Y-37.569
X92.343Y-28.38
X94.79Y-18.894
X96.264Y-9.21
X96.75Y0.573
X96.245Y10.356
X94.753Y20.038
X92.29Y29.519
X88.883Y38.703
X84.566Y47.497
X79.385Y55.811
X73.392Y63.559
X66.648Y70.665
X59.223Y77.055
X51.193Y82.665
X42.639Y87.439
X33.648Y91.328
X24.312Y94.294
X14.725Y96.307
X4.984Y97.346
X-4.811Y97.403
X-14.563Y96.477
X-24.173Y94.577
X-33.545Y91.724
X-42.583Y87.947
X-51.198Y83.283
X-59.303Y77.781
X-66.817Y71.496
X-73.664Y64.491
X-79.778Y56.837
X-85.196Y48.437
X-89.73Y39.528
X-93.333Y30.205
X-95.97Y20.563
X-97.611Y10.702
X-98.242Y0.727
X-97.856Y-9.261
X-96.458Y-19.158
X-94.062Y-28.863
X-90.694Y-38.274
X-86.388Y-47.295
X-81.191Y-55.834
X-75.155Y-63.801
X-68.343Y-71.117
X-60.826Y-77.705
X-52.68Y-83.5
X-43.991Y-88.441
X-34.847Y-92.478
X-25.342Y-95.572
X-15.573Y-97.689
X-5.64Y-98.81
X4.354Y-98.924
X14.31Y-98.029
X24.125Y-96.136
X33.699Y-93.263
X42.936Y-89.441
X51.741Y-84.709
X60.025Y-79.115
X67.705Y-72.717
X74.703Y-65.579
X80.949Y-57.775
X86.38Y-49.384
X90.942Y-40.489
X94.589Y-31.182
X97.285Y-21.557
X99.002Y-11.709
X99.725Y-1.74
X99.447Y8.252
X98.169Y18.166
X95.907Y27.902
X92.683Y37.364
X88.437Y46.634
X83.27Y55.423
X77.234Y63.64
X70.394Y71.201
X62.821Y78.028
X54.593Y84.049
X45.796Y89.203
X36.521Y93.437
X26.864Y96.708
X16.925Y98.981
X6.807Y100.235
X-3.386Y100.458
X-13.549Y99.646
X-23.578Y97.81
X-33.37Y94.967
X-42.824Y91.15
X-51.843Y86.395
X-60.336Y80.754
X-68.216Y74.283
X-75.402Y67.05
X-81.821Y59.129
X-87.409Y50.601
X-92.108Y41.552
X-95.871Y32.076
X-98.661Y22.269
X-100.449Y12.232
X-101.217Y2.065
X-100.96Y-8.127
X-99.679Y-18.242
X-97.388Y-28.177
X-94.11Y-37.832
X-89.881Y-47.109
X-84.741Y-55.915
X-78.744Y-64.16
X-71.951Y-71.764
X-64.431Y-78.648
X-56.258Y-84.744
X-47.516Y-89.992
X-38.293Y-94.338
X-28.681Y-97.74
X-18.778Y-100.164
X-8.682Y-101.587
X1.705Y-101.992
X12.08Y-101.337
X22.335Y-99.631
X32.363Y-96.89
X42.06Y-93.145
X51.327Y-88.434
X60.068Y-82.806
X68.192Y-76.32
X75.616Y-69.043
X82.264Y-61.051
X88.068Y-52.427
X92.969Y-43.258
X96.916Y-33.641
X99.869Y-23.674
X101.799Y-13.459
X102.687Y-3.101
X102.523Y7.292
X101.31Y17.617
X99.061Y27.767
X95.799Y37.637
X91.558Y47.129
X86.381Y56.144
X80.322Y64.591
X73.443Y72.386
X65.814Y79.448
X57.513Y85.706
X48.625Y91.098
X39.24Y95.569
X29.453Y99.074
X19.363Y101.578
X9.073Y103.057
X-1.312Y103.496
X-11.69Y102.89
X-21.955Y101.247
X-32.004Y98.584
X-41.736Y94.927
X-51.052Y90.314
X-59.86Y84.791
X-68.071Y78.416
X-75.603Y71.251
X-82.505Y63.211
X-88.552Y54.51
X-93.682Y45.24
X-97.842Y35.495
X-100.991Y25.378
X-103.095Y14.994
X-104.133Y4.449
X-104.095Y-6.146
X-102.982Y-16.683
X-100.807Y-27.052
X-97.591Y-37.148
X-93.368Y-46.866
X-88.183Y-56.106
X-82.088Y-64.773
X-75.148Y-72.78
X-67.434Y-80.043
X-59.025Y-86.489
X-50.007Y-92.053
X-40.474Y-96.677
X-30.522Y-100.315
X-20.254Y-102.93
X-9.775Y-104.496
X0.808Y-104.998
X11.388Y-104.43
X21.858Y-102.8
X32.11Y-100.123
X42.04Y-96.428
X51.549Y-91.753
X60.539Y-86.145
X68.92Y-79.662
X76.607Y-72.37
X83.524Y-64.343
X89.6Y-55.663
X94.774Y-46.416
X98.995Y-36.698
X102.221Y-26.605
X104.419Y-16.24
X105.568Y-5.707
X105.658Y4.888
X104.687Y15.439
X102.665Y25.84
X99.613Y35.986
X95.563Y45.778
X90.452Y55.286
X84.4Y64.226
X77.471Y72.505
X69.737Y80.036
X61.277Y86.743
X52.181Y92.556
X42.541Y97.417
X32.459Y101.275
X22.037Y104.091
X11.383Y105.836
X0.608Y106.493
X-10.178Y106.056
X-20.865Y104.53
X-31.343Y101.93
X-41.504Y98.284
X-51.245Y93.63
X-60.466Y88.016
X-69.073Y81.5
X-76.978Y74.148
X-84.102Y66.036
X-90.371Y57.248
X-95.723Y47.872
X-100.103Y38.005
X-103.467Y27.747
X-105.782Y17.202
X-107.024Y6.478
X-107.181Y-4.315
X-106.253Y-15.071
X-104.248Y-25.679
X-101.188Y-36.031
X-97.105Y-46.025
X-92.039Y-55.558
X-86.043Y-64.535
X-79.177Y-72.866
X-71.51Y-80.467
X-63.122Y-87.262
X-54.095Y-93.183
X-44.52Y-98.171
X-34.495Y-102.176
X-24.12Y-105.159
X-13.498Y-107.091
X-2.537Y-107.957
X8.454Y-107.704
X19.364Y-106.335
X30.079Y-103.865
X40.487Y-100.319
X50.481Y-95.735
X59.958Y-90.161
X68.822Y-83.654
X76.98Y-76.282
X84.349Y-68.121
X90.854Y-59.256
X96.428Y-49.778
X101.014Y-39.785
X104.566Y-29.379
X107.048Y-18.668
X108.435Y-7.76
X108.713Y3.231
X107.88Y14.195
X105.945Y25.018
X102.927Y35.592
X98.859Y45.807
X93.781Y55.56
X87.747Y64.751
X80.818Y73.289
X73.064Y81.085
X64.566Y88.062
X55.409Y94.149
X45.686Y99.285
X35.497Y103.417
X24.944Y106.506
X14.135Y108.519
X3.177Y109.438
X-7.816Y109.253
X-18.736Y107.967
X-29.472Y105.592
X-39.916Y102.155
X-49.964Y97.689
X-59.514Y92.239
X-68.471Y85.861
X-76.745Y78.62
X-84.254Y70.587
X-90.923Y61.845
X-96.781Y52.305
X-101.639Y42.219
X-105.448Y31.691
X-108.168Y20.831
X-109.772Y9.751
X-110.243Y-1.433
X-109.578Y-12.609
X-107.783Y-23.659
X-104.878Y-34.471
X-100.893Y-44.933
X-95.869Y-54.938
X-89.859Y-64.383
X-82.925Y-73.172
X-75.137Y-81.215
X-66.576Y-88.429
X-57.33Y-94.742
X-47.494Y-100.089
X-37.168Y-104.415
X-26.459Y-107.679
X-15.475Y-109.845
X-4.329Y-110.894
X6.865Y-110.814
X17.995Y-109.607
X28.948Y-107.286
X39.611Y-103.875
X49.877Y-99.408
X59.641Y-93.933
X68.807Y-87.503
X77.28Y-80.186
X84.975Y-72.055
X91.816Y-63.192
X97.733Y-53.688
X102.666Y-43.638
X106.568Y-33.145
X109.399Y-22.313
X111.131Y-11.253
X111.747Y-0.074
X111.241Y11.109
X109.619Y22.186
X106.898Y33.046
X103.028Y43.764
X98.089Y54.033
X92.131Y63.747
X85.218Y72.806
X77.421Y81.115
X68.82Y88.591
X59.506Y95.155
X49.574Y100.742
X39.127Y105.292
X28.272Y108.76
X17.122Y111.111
X5.791Y112.322
X-5.603Y112.379
X-16.946Y111.285
X-28.119Y109.049
X-39.01Y105.695
X-49.506Y101.258
X-59.501Y95.785
X-68.892Y89.33
X-77.584Y81.961
X-85.488Y73.753
X-92.525Y64.79
X-98.624Y55.164
X-103.721Y44.973
X-107.767Y34.32
X-110.721Y23.314
X-112.552Y12.067
X-113.243Y0.692
X-112.787Y-10.693
X-111.19Y-21.976
X-108.468Y-33.041
X-104.648Y-43.778
X-99.772Y-54.077
X-93.886Y-63.835
X-87.053Y-72.953
X-79.34Y-81.342
X-70.825Y-88.915
X-61.595Y-95.598
X-51.743Y-101.324
X-41.367Y-106.036
X-30.572Y-109.686
X-19.467Y-112.239
X-7.962Y-113.685
X3.629Y-113.955
X15.188Y-113.045
X26.596Y-110.967
X37.733Y-107.742
X48.486Y-103.403
X58.744Y-97.996
X68.4Y-91.578
X77.357Y-84.214
X85.522Y-75.981
X92.811Y-66.964
X99.151Y-57.255
X104.476Y-46.955
X108.733Y-36.17
X111.878Y-25.009
X113.88Y-13.588
X114.718Y-2.023
X114.385Y9.566
X112.885Y21.064
X110.232Y32.352
X106.456Y43.315
X101.594Y53.841
X95.696Y63.825
X88.823Y73.164
X81.045Y81.763
X72.441Y89.536
X63.1Y96.405
X53.115Y102.301
X42.588Y107.163
X31.627Y110.944
X20.341Y113.605
X8.845Y115.12
X-2.744Y115.475
X-14.311Y114.666
X-25.738Y112.702
X-36.912Y109.603
X-47.719Y105.4
X-58.051Y100.138
X-67.805Y93.867
X-76.882Y86.653
X-85.194Y78.568
X-92.655Y69.692
X-99.297Y59.945
X-104.828Y49.754
X-109.382Y38.874
X-112.809Y27.587
X-115.072Y16.011
X-116.151Y4.266
X-116.034Y-7.528
X-114.722Y-19.25
X-112.23Y-30.779
X-108.584Y-41.996
X-103.821Y-52.787
X-97.992Y-63.041
X-91.156Y-72.653
X-83.383Y-81.525
X-74.754Y-89.566
X-65.357Y-96.695
X-55.289Y-102.84
X-44.652Y-107.937
X-33.555Y-111.935
X-22.112Y-114.794
X-15.405Y-115.913
G0Z10
X16.494Y-115.896
G1Z-1.943F500
X28.082Y-113.695F1000
X39.39Y-110.339
X50.303Y-105.864
X60.711Y-100.314
X70.509Y-93.747
X79.598Y-86.229
X87.886Y-77.837
X95.291Y-68.655
X101.737Y-58.777
X107.16Y-48.303
X111.506Y-37.338
X114.732Y-25.992
X116.806Y-14.381
X117.707Y-2.62
X117.426Y9.171
X115.968Y20.876
X113.347Y32.376
X109.59Y43.557
X104.643Y54.484
X98.612Y64.853
X91.559Y74.555
X83.559Y83.492
X74.693Y91.571
X65.054Y98.71
X54.741Y104.836
X43.86Y109.886
X32.525Y113.807
X24.185Y115.902
G0Z10
X-25.248Y115.88
G1Z-1.943F500
X-36.837Y112.783F1000
X-48.054Y108.533
X-58.784Y103.172
X-68.919Y96.756
X-78.355Y89.35
X-86.996Y81.031
X-94.756Y71.884
X-101.554Y62.001
X-107.323Y51.485
X-112.004Y40.441
X-115.55Y28.982
X-117.926Y17.224
X-119.107Y5.288
X-119.083Y-6.706
X-117.855Y-18.638
X-115.435Y-30.387
X-111.848Y-41.833
X-107.13Y-52.862
X-101.331Y-63.362
X-94.509Y-73.227
X-86.732Y-82.36
X-78.08Y-90.668
X-68.639Y-98.068
X-58.506Y-104.486
X-47.781Y-109.858
X-36.572Y-114.131
X-30.629Y-115.893
G0Z10
X31.65Y-115.88
G1Z-1.943F500
X43.251Y-112.12F1000
X54.411Y-107.204
X65.015Y-101.182
X74.955Y-94.117
X84.129Y-86.083
X92.443Y-77.161
X99.812Y-67.444
X106.161Y-57.032
X111.425Y-46.032
X115.551Y-34.556
X118.496Y-22.723
X120.233Y-10.652
X120.742Y1.531
X120.02Y13.705
X118.075Y25.744
X114.926Y37.525
X110.606Y48.929
X105.16Y59.841
X98.643Y70.148
X91.122Y79.748
X82.673Y88.542
X73.383Y96.443
X63.347Y103.369
X52.664Y109.252
X41.445Y114.032
X35.956Y115.904
G0Z10
X-36.905Y115.909
G1Z-1.943F500
X-48.342Y111.675F1000
X-59.298Y106.319
X-69.663Y99.893
X-79.333Y92.463
X-88.212Y84.104
X-96.211Y74.899
X-103.251Y64.941
X-109.351Y54.151
X-114.324Y42.798
X-118.121Y30.999
X-120.703Y18.876
X-122.044Y6.554
X-122.129Y-5.84
X-120.959Y-18.179
X-118.546Y-30.337
X-114.915Y-42.188
X-110.104Y-53.611
X-104.163Y-64.489
X-97.154Y-74.712
X-89.147Y-84.174
X-80.227Y-92.779
X-70.483Y-100.44
X-60.016Y-107.08
X-48.933Y-112.629
X-40.756Y-115.876
G0Z10
X41.621Y-115.915
G1Z-1.943F500
X53.08Y-111.189F1000
X64.006Y-105.336
X74.288Y-98.415
X83.824Y-90.497
X92.518Y-81.662
X100.281Y-71.999
X107.036Y-61.607
X112.715Y-50.589
X117.261Y-39.058
X120.629Y-27.13
X122.786Y-14.924
X123.711Y-2.563
X123.394Y9.827
X121.84Y22.124
X119.064Y34.204
X115.021Y46.132
X109.789Y57.589
X103.421Y68.455
X95.984Y78.62
X87.555Y87.978
X78.221Y96.434
X68.079Y103.901
X57.232Y110.302
X45.793Y115.573
X45.05Y115.868
G0Z10
X-45.989Y115.884
G1Z-1.943F500
X-57.466Y110.697F1000
X-68.361Y104.378
X-78.564Y96.993
X-87.97Y88.618
X-96.485Y79.337
X-104.022Y69.247
X-110.505Y58.449
X-115.869Y47.053
X-120.06Y35.176
X-123.035Y22.938
X-124.766Y10.463
X-125.233Y-2.123
X-124.435Y-14.692
X-122.379Y-27.118
X-119.086Y-39.275
X-114.591Y-51.04
X-108.938Y-62.295
X-102.186Y-72.927
X-94.402Y-82.829
X-85.666Y-91.901
X-76.065Y-100.053
X-65.697Y-107.204
X-54.665Y-113.281
X-49.027Y-115.859
G0Z10
X50.026Y-115.849
G1Z-1.943F500
X61.521Y-110.231F1000
X72.389Y-103.478
X82.517Y-95.661
X91.803Y-86.859
X100.152Y-77.163
X107.477Y-66.673
X113.706Y-55.497
X118.774Y-43.749
X122.63Y-31.549
X125.235Y-19.022
X126.562Y-6.297
X126.601Y6.497
X125.348Y19.23
X122.82Y31.773
X119.041Y43.997
X114.051Y55.778
X107.9Y66.997
X100.652Y77.541
X92.38Y87.302
X83.168Y96.182
X73.111Y104.091
X62.31Y110.95
X52.698Y115.868
G0Z10
X-53.74Y115.836
G1Z-1.943F500
X-65.084Y109.919F1000
X-75.78Y102.897
X-85.719Y94.84
X-94.804Y85.831
X-102.943Y75.958
X-110.055Y65.322
X-116.155Y53.848
X-121.06Y41.815
X-124.721Y29.347
X-127.101Y16.572
X-128.174Y3.622
X-127.932Y-9.369
X-126.376Y-22.27
X-123.524Y-34.948
X-119.404Y-47.272
X-114.06Y-59.117
X-107.547Y-70.362
X-99.931Y-80.89
X-91.291Y-90.597
X-81.716Y-99.381
X-71.303Y-107.156
X-60.16Y-113.84
X-56.243Y-115.844
G0Z10
X57.147Y-115.885
G1Z-1.943F500
X68.522Y-109.601F1000
X79.207Y-102.207
X89.097Y-93.777
X98.091Y-84.398
X106.099Y-74.164
X113.041Y-63.179
X118.847Y-51.554
X123.459Y-39.405
X126.831Y-26.856
X128.93Y-14.032
X129.736Y-1.062
X129.24Y11.922
X127.448Y24.793
X124.378Y37.42
X120.061Y49.676
X114.448Y61.617
X107.653Y72.927
X99.746Y83.49
X90.81Y93.198
X80.937Y101.951
X70.229Y109.66
X59.507Y115.88
G0Z10
X-60.591Y115.832
G1Z-1.943F500
X-71.984Y109.175F1000
X-82.648Y101.405
X-92.474Y92.599
X-101.364Y82.849
X-109.228Y72.254
X-115.985Y60.921
X-121.569Y48.966
X-125.922Y36.51
X-129.001Y23.68
X-130.776Y10.606
X-131.228Y-2.58
X-130.354Y-15.746
X-128.162Y-28.757
X-124.676Y-41.483
X-119.931Y-53.795
X-113.977Y-65.569
X-106.872Y-76.688
X-98.689Y-87.038
X-89.51Y-96.518
X-79.429Y-105.03
X-68.547Y-112.491
X-62.663Y-115.9
G0Z10
X63.729Y-115.862
G1Z-1.943F500
X75.149Y-108.862F1000
X85.802Y-100.743
X95.58Y-91.589
X104.383Y-81.493
X112.121Y-70.56
X118.716Y-58.902
X124.1Y-46.637
X128.218Y-33.892
X131.031Y-20.796
X132.508Y-7.483
X132.635Y5.91
X131.413Y19.248
X128.852Y32.396
X124.981Y45.219
X119.839Y57.587
X113.479Y69.375
X105.966Y80.464
X97.375Y90.741
X87.796Y100.102
X77.324Y108.454
X66.066Y115.712
X65.719Y115.911
G0Z10
X-66.739Y115.898
G1Z-1.943F500
X-78.023Y108.682F1000
X-88.529Y100.373
X-98.152Y91.056
X-106.796Y80.823
X-114.48Y69.609
X-120.987Y57.673
X-126.251Y45.14
X-130.22Y32.137
X-132.823Y18.998
X-134.111Y5.465
X-134.024Y-8.128
X-132.563Y-21.643
X-129.743Y-34.942
X-125.594Y-47.888
X-120.158Y-60.348
X-113.492Y-72.196
X-105.664Y-83.31
X-96.755Y-93.578
X-86.855Y-102.895
X-76.067Y-111.166
X-68.836Y-115.819
G0Z10
X69.809Y-115.839
G1Z-1.943F500
X81.112Y-108.286F1000
X91.6Y-99.637
X101.168Y-89.979
X109.719Y-79.411
X117.167Y-68.039
X123.439Y-55.977
X128.471Y-43.348
X132.213Y-30.279
X134.627Y-16.901
X135.69Y-3.348
X135.392Y10.242
X133.736Y23.735
X130.74Y36.995
X126.434Y49.89
X120.77Y62.468
X113.861Y74.407
X105.778Y85.585
X96.605Y95.887
X86.437Y105.208
X75.377Y113.452
X71.682Y115.841
G0Z10
X-72.585Y115.905
G1Z-1.943F500
X-83.919Y108.043F1000
X-94.405Y99.079
X-103.934Y89.106
X-112.412Y78.224
X-119.752Y66.545
X-125.88Y54.186
X-130.735Y41.275
X-134.268Y27.94
X-136.443Y14.319
X-137.24Y0.547
X-136.65Y-13.233
X-134.679Y-26.886
X-131.348Y-40.272
X-126.692Y-53.257
X-120.758Y-65.71
X-113.605Y-77.505
X-105.308Y-88.524
X-95.948Y-98.657
X-85.621Y-107.803
X-74.43Y-115.869
G0Z10
X75.415Y-115.879
G1Z-1.943F500
X86.771Y-107.701F1000
X97.242Y-98.418
X106.722Y-88.124
X115.115Y-76.925
X122.334Y-64.937
X128.306Y-52.281
X132.972Y-39.088
X136.283Y-25.491
X138.207Y-11.63
X138.726Y2.354
X137.832Y16.32
X135.537Y30.124
X131.863Y43.628
X126.849Y56.693
X120.545Y69.187
X113.017Y80.984
X104.342Y91.964
X94.606Y102.017
X83.91Y111.041
X77.243Y115.812
G0Z10
X-78.139Y115.892
G1Z-1.943F500
X-89.365Y107.536F1000
X-99.699Y98.099
X-109.039Y87.678
X-117.4Y76.208
X-124.557Y63.95
X-130.436Y51.031
X-134.977Y37.583
X-138.135Y23.744
X-138.938Y18.607
G0Z10
X-138.952Y-19.474
G1Z-1.943F500
X-136.321Y-33.422F1000
X-132.295Y-47.033
X-126.916Y-60.169
X-120.238Y-72.694
X-112.33Y-84.481
X-103.275Y-95.411
X-93.163Y-105.372
X-82.098Y-114.263
X-79.813Y-115.881
G0Z10
X80.898Y-115.826
G1Z-1.943F500
X92.141Y-107.162F1000
X102.458Y-97.414
X111.746Y-86.68
X119.911Y-75.07
X126.872Y-62.7
X132.558Y-49.694
X136.914Y-36.185
X138.926Y-27.619
G0Z10
X138.919Y28.605
G1Z-1.943F500
X135.411Y42.359F1000
X130.546Y55.693
X124.277Y68.65
X116.729Y80.906
X107.979Y92.335
X98.117Y102.82
X87.246Y112.254
X82.444Y115.851
G0Z10
X-83.392Y115.897
G1Z-1.943F500
X-94.667Y106.949F1000
X-104.985Y96.912
X-114.24Y85.888
X-122.339Y73.989
X-129.201Y61.336
X-134.757Y48.057
X-138.949Y34.287
G0Z10
X-138.912Y-35.406
G1Z-1.943F500
X-134.707Y-49.172F1000
X-129.144Y-62.447
X-122.278Y-75.099
X-114.179Y-86.998
X-104.929Y-98.027
X-94.622Y-108.074
X-84.977Y-115.862
G0Z10
X85.953Y-115.905
G1Z-1.943F500
X97.251Y-106.667F1000
X107.558Y-96.336
X116.77Y-85.017
X124.793Y-72.826
X131.546Y-59.888
X136.959Y-46.335
X138.951Y-40.044
G0Z10
X138.938Y41.056
G1Z-1.943F500
X134.147Y54.841F1000
X127.995Y68.075
X120.544Y80.623
X111.869Y92.359
X102.059Y103.164
X91.213Y112.929
X87.439Y115.895
G0Z10
X-88.549Y115.833
G1Z-1.943F500
X-99.717Y106.438F1000
X-109.889Y95.973
X-118.965Y84.545
X-126.954Y72.093
X-133.642Y58.897
X-138.897Y45.283
G0Z10
X-138.927Y-46.157
G1Z-1.943F500
X-133.603Y-59.96F1000
X-126.915Y-73.156
X-118.929Y-85.609
X-109.729Y-97.194
X-99.407Y-107.792
X-89.973Y-115.834
G0Z10
X91.04Y-115.802
G1Z-1.943F500
X102.228Y-106.123F1000
X112.389Y-95.371
X121.421Y-83.654
X129.234Y-71.091
X135.748Y-57.809
X138.912Y-49.813
G0Z10
X138.934Y50.737
G1Z-1.943F500
X133.216Y64.381F1000
X126.163Y77.386
X117.727Y89.781
X108.08Y101.259
X97.472Y111.571
X92.421Y115.818
G0Z10
X-93.427Y115.832
G1Z-1.943F500
X-104.641Y105.879F1000
X-114.796Y94.848
X-123.791Y82.852
X-131.534Y70.012
X-137.947Y56.46
X-138.919Y54.048
G0Z10
X-138.941Y-54.97
G1Z-1.943F500
X-132.776Y-68.638F1000
X-125.273Y-81.619
X-116.508Y-93.784
X-106.568Y-105.01
X-95.555Y-115.185
X-94.785Y-115.823
G0Z10
X95.711Y-115.916
G1Z-1.943F500
X106.955Y-105.697F1000
X117.111Y-94.396
X126.074Y-82.129
X133.755Y-69.02
X138.939Y-57.979
G0Z10
X138.892Y59.061
G1Z-1.943F500
X132.293Y72.747F1000
X124.352Y85.7
X115.149Y97.79
X104.779Y108.895
X97.065Y115.866
G0Z10
X-98.054Y115.903
G1Z-1.943F500
X-109.181Y105.556F1000
X-119.342Y93.993
X-128.173Y81.63
X-135.816Y68.268
X-138.917Y61.77
G0Z10
X-138.876Y-62.857
G1Z-1.943F500
X-131.872Y-76.565F1000
X-123.521Y-89.496
X-113.909Y-101.52
X-103.134Y-112.514
X-99.404Y-115.844
G0Z10
X100.463Y-115.826
G1Z-1.943F500
X111.605Y-105.203F1000
X121.625Y-93.518
X130.423Y-80.886
X137.912Y-67.437
X138.957Y-65.276
G0Z10
X138.927Y66.332
G1Z-1.943F500
X131.547Y80.069F1000
X122.816Y92.989
X112.823Y104.96
X101.672Y115.86
G0Z10
X-102.765Y115.821
G1Z-1.943F500
X-113.926Y104.931F1000
X-123.936Y92.975
X-132.694Y80.073
X-138.881Y68.872
G0Z10
X-138.886Y-69.842
G1Z-1.943F500
X-131.232Y-83.428F1000
X-122.256Y-96.179
X-112.048Y-107.967
X-103.869Y-115.904
G0Z10
X104.965Y-115.858
G1Z-1.943F500
X116.153Y-104.711F1000
X126.16Y-92.492
X134.883Y-79.326
X138.875Y-72.164
G0Z10
X138.926Y73.063
G1Z-1.943F500
X130.922Y86.678F1000
X121.59Y99.42
X111.025Y111.16
X106.126Y115.874
G0Z10
X-107.229Y115.81
G1Z-1.943F500
X-118.301Y104.547F1000
X-128.192Y92.234
X-136.904Y78.822
X-138.866Y75.336
G0Z10
X-138.952Y-76.18
G1Z-1.943F500
X-130.607Y-89.824F1000
X-120.929Y-102.557
X-110.018Y-114.251
X-108.282Y-115.908
G0Z10
X109.425Y-115.838
G1Z-1.943F500
X120.52Y-104.319F1000
X130.406Y-91.747
X138.883Y-78.421
G0Z10
X138.923Y79.341
G1Z-1.943F500
X130.347Y92.841F1000
X120.335Y105.568
X110.54Y115.842
G0Z10
X-111.642Y115.796
G1Z-1.943F500
X-122.754Y104.017F1000
X-132.626Y91.181
X-138.877Y81.412
G0Z10
X-138.904Y-82.375
G1Z-1.943F500
X-129.997Y-95.899F1000
X-119.78Y-108.462
X-112.721Y-115.823
G0Z10
X113.767Y-115.835
G1Z-1.943F500
X124.902Y-103.804F1000
X134.768Y-90.713
X138.881Y-84.323
G0Z10
X138.906Y85.277
G1Z-1.943F500
X129.677Y98.826F1000
X119.134Y111.379
X114.827Y115.839
G0Z10
X-115.807Y115.914
G1Z-1.943F500
X-126.846Y103.795F1000
X-136.619Y90.633
X-138.906Y87.111
G0Z10
X-138.931Y-88.093
G1Z-1.943F500
X-129.39Y-101.669F1000
X-118.53Y-114.215
X-116.998Y-115.793
G0Z10
X118.045Y-115.806
G1Z-1.943F500
X129.092Y-103.425F1000
X138.844Y-89.999
X138.953Y-89.832
G0Z10
X138.885Y90.941
G1Z-1.943F500
X129.026Y104.535F1000
X119.102Y115.777
G0Z10
X-120.052Y115.902
G1Z-1.943F500
X-131.13Y103.281F1000
X-138.91Y92.621
G0Z10
X-138.884Y-93.684
G1Z-1.943F500
X-128.847Y-107.147F1000
X-121.152Y-115.825
G0Z10
X122.233Y-115.796
G1Z-1.943F500
X133.319Y-102.917F1000
X138.873Y-95.335
G0Z10
X138.902Y96.301
G1Z-1.943F500
X128.568Y109.791F1000
X123.111Y115.911
G0Z10
X-124.209Y115.88
G1Z-1.943F500
X-135.323Y102.762F1000
X-138.88Y97.931
G0Z10
X-138.845Y-99.005
G1Z-1.943F500
X-128.208Y-112.512F1000
X-125.273Y-115.79
G0Z10
X126.242Y-115.896
G1Z-1.943F500
X137.255Y-102.695F1000
X138.921Y-100.444
G0Z10
X138.943Y101.435
G1Z-1.943F500
X128.029Y114.977F1000
X127.226Y115.869
G0Z10
X-128.331Y115.844
G1Z-1.943F500
X-138.882Y103.037F1000
G0Z10
X-138.875Y-104.082
G1Z-1.943F500
X-129.271Y-115.858F1000
G0Z10
X130.312Y-115.894
G1Z-1.943F500
X138.851Y-105.572F1000
G0Z10
X138.845Y106.595
G1Z-1.943F500
X131.242Y115.876F1000
G0Z10
X-132.352Y115.834
G1Z-1.943F500
X-138.864Y107.986F1000
G0Z10
X-138.846Y-109.041
G1Z-1.943F500
X-133.259Y-115.839F1000
G0Z10
X134.327Y-115.858
G1Z-1.943F500
X138.932Y-110.324F1000
G0Z10
X138.891Y111.382
G1Z-1.943F500
X135.201Y115.857F1000
G0Z10
X-136.232Y115.902
G1Z-1.943F500
X-138.925Y112.679F1000
G0Z10
X-138.833Y-113.837
G1Z-1.943F500
X-137.175Y-115.84F1000
G0Z10
X138.228Y-115.906
G1Z-1.943F500
X138.871Y-115.14F1000
G0Z10
X-55.575Y-34.694
G1Z-10F500
X-52.999Y-38.573Z-10.012F1000
X-52.79Y-38.863Z-10
G0Z10
X-51.428Y-40.675
G1Z-10F500
X-48.358Y-44.332Z-10.103F1000
X-46.437Y-46.369Z-10.005
X-42.948Y-49.664Z-10.173
X-40.02Y-52.087Z-10.068
X-36.131Y-54.898Z-10.236
X-32.913Y-56.918Z-10.13
X-28.69Y-59.198Z-10.298
X-25.235Y-60.781Z-10.193
X-20.751Y-62.491Z-10.361
X-17.12Y-63.61Z-10.256
X-12.256Y-64.76Z-10.423
X-8.508Y-65.386Z-10.32
X-3.733Y-65.867Z-10.486
X0.064Y-66Z-10.381
X4.86Y-65.855Z-10.548
X8.643Y-65.494Z-10.443
X13.38Y-64.728Z-10.611
X17.084Y-63.879Z-10.505
X21.682Y-62.505Z-10.674
X25.43Y-61.107Z-10.57
X29.805Y-59.135Z-10.736
X33.161Y-57.353Z-10.631
X37.244Y-54.831Z-10.799
X40.34Y-52.629Z-10.693
X44.213Y-49.468Z-10.861
X46.991Y-46.876Z-10.757
X50.281Y-43.382Z-10.924
X52.701Y-40.453Z-10.818
X55.512Y-36.563Z-10.987
X57.635Y-33.173Z-10.882
X59.907Y-28.946Z-11.049
X61.487Y-25.491Z-10.943
X63.26Y-20.817Z-11.112
X64.371Y-17.183Z-11.006
X65.474Y-12.512Z-11.175
X66.107Y-8.766Z-11.068
X66.614Y-3.793Z-11.237
X66.749Y0.004Z-11.13
X66.597Y5Z-11.3
X66.232Y8.782Z-11.194
X65.465Y13.52Z-11.363
X64.567Y17.417Z-11.258
X63.184Y22.013Z-11.425
X61.858Y25.574Z-11.318
X59.81Y30.134Z-11.488
X58.028Y33.49Z-11.38
X55.4Y37.742Z-11.55
X53.194Y40.836Z-11.443
X50.032Y44.708Z-11.613
X47.441Y47.487Z-11.505
X43.799Y50.912Z-11.675
X40.867Y53.328Z-11.568
X36.81Y56.248Z-11.738
X33.587Y58.261Z-11.631
X29.183Y60.627Z-11.801
X25.725Y62.202Z-11.693
X21.05Y63.973Z-11.863
X17.417Y65.084Z-11.755
X12.551Y66.231Z-11.926
X8.804Y66.859Z-11.818
X3.83Y67.363Z-11.989
X0.033Y67.499Z-11.88
X-4.963Y67.351Z-12.051
X-8.745Y66.992Z-11.943
X-13.681Y66.197Z-12.114
X-17.578Y65.3Z-12.006
X-22.365Y63.856Z-12.176
X-25.923Y62.525Z-12.068
X-30.482Y60.474Z-12.239
X-33.838Y58.693Z-12.13
X-38.093Y56.068Z-12.302
X-41.35Y53.746Z-12.194
X-45.219Y50.581Z-12.364
X-47.998Y47.99Z-12.255
X-51.426Y44.351Z-12.427
X-53.969Y41.264Z-12.321
X-56.886Y37.205Z-12.49
X-58.899Y33.982Z-12.38
X-61.267Y29.579Z-12.552
X-62.925Y25.94Z-12.445
X-64.692Y21.263Z-12.615
X-65.803Y17.63Z-12.505
X-66.953Y12.765Z-12.678
X-67.614Y8.82Z-12.569
X-68.113Y3.846Z-12.74
X-68.249Y0.049Z-12.63
X-68.104Y-4.947Z-12.803
X-67.726Y-8.929Z-12.693
X-66.926Y-13.863Z-12.866
X-66.027Y-17.761Z-12.756
X-64.587Y-22.548Z-12.928
X-63.185Y-26.293Z-12.82
X-61.128Y-30.85Z-12.991
X-59.346Y-34.206Z-12.88
X-56.723Y-38.462Z-13.054
X-54.406Y-41.721Z-12.943
X-51.248Y-45.597Z-13.116
X-48.524Y-48.525Z-13.005
X-44.886Y-51.954Z-13.179
X-41.803Y-54.501Z-13.068
X-37.748Y-57.426Z-13.242
X-34.358Y-59.548Z-13.13
X-29.956Y-61.918Z-13.304
X-26.318Y-63.58Z-13.193
X-21.645Y-65.355Z-13.367
X-17.822Y-66.528Z-13.255
X-12.957Y-67.68Z-13.429
X-9.013Y-68.345Z-13.318
X-4.04Y-68.853Z-13.492
X-0.043Y-68.999Z-13.38
X5.153Y-68.842Z-13.554
X9.133Y-68.455Z-13.446
X14.067Y-67.65Z-13.617
X17.964Y-66.749Z-13.506
X22.751Y-65.31Z-13.68
X26.498Y-63.911Z-13.568
X31.058Y-61.862Z-13.743
X34.592Y-59.989Z-13.63
X39.014Y-57.255Z-13.805
X42.269Y-54.931Z-13.695
X46.141Y-51.768Z-13.868
X49.067Y-49.042Z-13.755
X52.497Y-45.405Z-13.93
X55.046Y-42.323Z-13.818
X58.087Y-38.107Z-13.993
X60.208Y-34.715Z-13.88
X62.578Y-30.314Z-14.056
X64.242Y-26.677Z-13.943
X66.089Y-21.817Z-14.118
X67.259Y-17.992Z-14.005
X68.41Y-13.128Z-14.181
X69.105Y-8.986Z-14.07
X69.606Y-4.012Z-14.244
X69.749Y-0.015Z-14.13
X69.592Y5.181Z-14.306
X69.208Y9.162Z-14.193
X68.409Y14.097Z-14.369
X67.466Y18.189Z-14.258
X66.025Y22.976Z-14.431
X64.629Y26.724Z-14.317
X62.497Y31.466Z-14.494
X60.622Y34.998Z-14.38
X57.887Y39.42Z-14.557
X55.564Y42.676Z-14.443
X52.274Y46.701Z-14.619
X49.545Y49.625Z-14.506
X45.757Y53.186Z-14.682
X42.669Y55.728Z-14.569
X38.614Y58.651Z-14.745
X35.054Y60.879Z-14.632
X30.651Y63.248Z-14.807
X26.831Y64.991Z-14.694
X21.968Y66.829Z-14.87
X18.142Y67.996Z-14.757
X13.081Y69.184Z-14.932
X9.136Y69.842Z-14.818
X3.963Y70.361Z-14.995
X-0.034Y70.499Z-14.88
X-5.23Y70.34Z-15.058
X-9.211Y69.958Z-14.943
X-14.343Y69.124Z-15.12
X-18.241Y68.227Z-15.005
X-23.221Y66.734Z-15.183
X-27.155Y65.264Z-15.071
X-31.892Y63.123Z-15.246
X-35.423Y61.243Z-15.131
X-39.843Y58.506Z-15.308
X-43.1Y56.184Z-15.193
X-47.128Y52.898Z-15.371
X-50.199Y50.033Z-15.258
X-53.757Y46.243Z-15.433
X-56.3Y43.155Z-15.318
X-59.338Y38.936Z-15.496
X-61.46Y35.546Z-15.38
X-63.927Y30.969Z-15.559
X-65.671Y27.149Z-15.443
X-67.513Y22.288Z-15.622
X-68.685Y18.464Z-15.505
X-69.885Y13.405Z-15.684
X-70.581Y9.263Z-15.568
X-71.104Y4.091Z-15.747
X-71.25Y-0.105Z-15.633
X-71.087Y-5.302Z-15.809
X-70.705Y-9.283Z-15.693
X-69.875Y-14.415Z-15.872
X-68.933Y-18.508Z-15.755
X-67.436Y-23.487Z-15.935
X-65.965Y-27.42Z-15.819
X-63.828Y-32.16Z-15.997
X-61.952Y-35.692Z-15.88
X-59.113Y-40.284Z-16.06
X-56.791Y-43.541Z-15.942
X-53.507Y-47.571Z-16.122
X-50.646Y-50.645Z-16.005
X-46.862Y-54.211Z-16.185
X-43.624Y-56.885Z-16.068
X-39.407Y-59.925Z-16.248
X-35.846Y-62.153Z-16.13
X-31.268Y-64.616Z-16.311
X-27.447Y-66.359Z-16.193
X-22.586Y-68.204Z-16.373
X-18.571Y-69.433Z-16.255
X-13.511Y-70.628Z-16.436
X-9.37Y-71.324Z-16.318
X-4.197Y-71.849Z-16.498
X-0Y-71.999Z-16.38
X5.195Y-71.846Z-16.561
X9.376Y-71.449Z-16.443
X14.705Y-70.581Z-16.623
X18.602Y-69.683Z-16.505
X23.773Y-68.131Z-16.686
X27.706Y-66.658Z-16.569
X32.446Y-64.523Z-16.749
X36.155Y-62.552Z-16.631
X40.578Y-59.819Z-16.812
X43.999Y-57.384Z-16.693
X48.181Y-53.969Z-16.874
X51.25Y-51.103Z-16.758
X54.812Y-47.315Z-16.937
X57.484Y-44.076Z-16.818
X60.525Y-39.859Z-17
X62.756Y-36.301Z-16.88
X65.315Y-31.547Z-17.062
X67.056Y-27.725Z-16.943
X68.901Y-22.865Z-17.125
X70.134Y-18.85Z-17.005
X71.376Y-13.596Z-17.187
X72.069Y-9.454Z-17.068
X72.595Y-4.282Z-17.25
X72.75Y0.114Z-17.133
X72.547Y5.909Z-17.303
X72.19Y9.491Z-17.192
X71.077Y15.995Z-17.318
X70.378Y18.912Z-17.256
X68.283Y25.588Z-17.332
X65.384Y32.394Z-17.355
X61.916Y38.7Z-17.358
X57.844Y44.635Z-17.341
X53.207Y50.14Z-17.38
X47.902Y55.294Z-17.405
X42.103Y59.887Z-17.413
X36.391Y63.572Z-17.393
X29.998Y66.878Z-17.43
X23.122Y69.606Z-17.455
X16.007Y71.627Z-17.463
X9.319Y72.845Z-17.443
X2.147Y73.454Z-17.48
X-5.248Y73.346Z-17.506
X-12.596Y72.495Z-17.513
X-19.242Y71.067Z-17.492
X-26.103Y68.893Z-17.531
X-32.899Y65.972Z-17.556
X-39.368Y62.385Z-17.562
X-45.128Y58.411Z-17.543
X-50.632Y53.773Z-17.581
X-55.792Y48.473Z-17.606
X-60.395Y42.683Z-17.613
X-64.197Y36.808Z-17.593
X-67.511Y30.419Z-17.632
X-70.253Y23.549Z-17.657
X-72.297Y16.439Z-17.662
X-73.569Y9.558Z-17.642
X-74.196Y2.388Z-17.683
X-74.1Y-5.207Z-17.707
X-73.262Y-12.556Z-17.713
X-71.8Y-19.4Z-17.692
X-69.633Y-26.263Z-17.733
X-66.638Y-33.245Z-17.757
X-63.052Y-39.715Z-17.763
X-59.086Y-45.48Z-17.742
X-54.325Y-51.141Z-17.783
X-48.877Y-56.435Z-17.808
X-43.081Y-61.032Z-17.814
X-37.206Y-64.833Z-17.793
X-30.637Y-68.235Z-17.833
X-23.576Y-71.036Z-17.858
X-16.266Y-73.107Z-17.867
X-9.38Y-74.35Z-17.847
X-2.008Y-74.96Z-17.881
X5.587Y-74.826Z-17.908
X13.13Y-73.926Z-17.918
X19.965Y-72.426Z-17.9
X27.006Y-70.156Z-17.93
X33.968Y-67.116Z-17.959
X40.588Y-63.39Z-17.969
X46.325Y-59.383Z-17.951
X51.958Y-54.588Z-17.98
X57.224Y-49.113Z-18.009
X61.914Y-43.136Z-18.019
X65.681Y-37.239Z-18.001
X69.051Y-30.654Z-18.031
X71.825Y-23.581Z-18.059
X73.876Y-16.266Z-18.069
X75.106Y-9.378Z-18.05
X75.71Y-2.005Z-18.082
X75.578Y5.59Z-18.11
X74.686Y13.134Z-18.118
X73.2Y19.973Z-18.097
X70.952Y27.02Z-18.134
X67.94Y33.994Z-18.16
X64.247Y40.633Z-18.167
X60.275Y46.394Z-18.144
X55.518Y52.06Z-18.186
X49.935Y57.502Z-18.211
X43.987Y62.228Z-18.217
X37.944Y66.138Z-18.195
X31.378Y69.545Z-18.236
X24.135Y72.43Z-18.261
X16.83Y74.516Z-18.267
X9.75Y75.813Z-18.246
X2.38Y76.447Z-18.286
X-5.415Y76.341Z-18.311
X-12.963Y75.475Z-18.317
X-20.001Y73.969Z-18.295
X-27.242Y71.67Z-18.336
X-34.399Y68.577Z-18.362
X-41.205Y64.774Z-18.37
X-46.957Y60.788Z-18.347
X-52.763Y55.889Z-18.386
X-58.189Y50.289Z-18.412
X-63.019Y44.169Z-18.42
X-66.908Y38.112Z-18.401
X-70.38Y31.355Z-18.434
X-73.234Y24.099Z-18.462
X-75.34Y16.592Z-18.472
X-76.603Y9.506Z-18.453
X-77.213Y1.933Z-18.484
X-77.063Y-5.861Z-18.512
X-76.128Y-13.602Z-18.523
X-74.577Y-20.63Z-18.504
X-72.239Y-27.859Z-18.534
X-69.115Y-35.002Z-18.563
X-65.288Y-41.796Z-18.573
X-61.167Y-47.696Z-18.554
X-56.243Y-53.482Z-18.584
X-50.626Y-58.89Z-18.613
X-44.496Y-63.707Z-18.623
X-38.434Y-67.588Z-18.603
X-31.676Y-71.058Z-18.636
X-24.421Y-73.917Z-18.664
X-16.918Y-76.035Z-18.672
X-9.835Y-77.315Z-18.65
X-2.265Y-77.952Z-18.688
X5.531Y-77.837Z-18.714
X13.276Y-76.944Z-18.72
X20.508Y-75.386Z-18.7
X27.747Y-73.082Z-18.739
X35.088Y-69.91Z-18.764
X41.897Y-66.111Z-18.772
X47.818Y-62.019Z-18.748
X53.632Y-57.129Z-18.79
X59.21Y-51.399Z-18.815
X64.06Y-45.294Z-18.82
X68.079Y-39.083Z-18.798
X71.579Y-32.34Z-18.84
X74.542Y-24.913Z-18.865
X76.69Y-17.417Z-18.87
X78.031Y-10.143Z-18.847
X78.699Y-2.374Z-18.89
X78.582Y5.621Z-18.915
X77.689Y13.366Z-18.921
X76.138Y20.599Z-18.899
X73.777Y28.03Z-18.94
X70.606Y35.372Z-18.966
X66.709Y42.355Z-18.973
X62.614Y48.274Z-18.949
X57.59Y54.237Z-18.99
X51.854Y59.809Z-19.016
X45.585Y64.773Z-19.023
X39.367Y68.781Z-19.001
X32.44Y72.359Z-19.04
X25.004Y75.303Z-19.066
X17.311Y77.484Z-19.074
X10.032Y78.803Z-19.052
X2.262Y79.453Z-19.09
X-5.733Y79.327Z-19.117
X-13.676Y78.398Z-19.124
X-20.906Y76.832Z-19.102
X-28.334Y74.464Z-19.141
X-35.675Y71.292Z-19.167
X-42.662Y67.401Z-19.172
X-48.747Y63.196Z-19.15
X-54.858Y58.037Z-19.155
X-60.422Y52.293Z-19.128
X-65.383Y46.021Z-19.121
X-69.293Y39.978Z-19.149
X-72.897Y33.064Z-19.102
X-75.877Y25.643Z-19.078
X-78.102Y17.962Z-19.075
X-79.497Y10.494Z-19.098
X-80.187Y2.727Z-19.051
X-80.095Y-5.468Z-19.027
X-79.201Y-13.415Z-19.023
X-77.624Y-20.846Z-19.048
X-75.283Y-28.284Z-19.001
X-72.058Y-35.819Z-18.977
X-68.188Y-42.818Z-18.973
X-63.886Y-49.08Z-18.998
X-58.877Y-55.055Z-18.951
X-53.016Y-60.785Z-18.927
X-46.765Y-65.773Z-18.923
X-40.397Y-69.917Z-18.948
X-33.305Y-73.612Z-18.901
X-25.694Y-76.653Z-18.876
X-18.008Y-78.862Z-18.872
X-10.538Y-80.248Z-18.897
X-2.571Y-80.943Z-18.851
X5.624Y-80.837Z-18.826
X13.57Y-79.936Z-18.822
X21.002Y-78.358Z-18.848
X28.629Y-75.955Z-18.8
X36.162Y-72.725Z-18.776
X43.332Y-68.752Z-18.77
X49.588Y-64.441Z-18.795
X55.708Y-59.294Z-18.751
X61.427Y-53.422Z-18.725
X66.525Y-47.003Z-18.72
X70.653Y-40.625Z-18.745
X74.336Y-33.527Z-18.701
X77.371Y-25.912Z-18.675
X79.626Y-18.032Z-18.669
X81.002Y-10.56Z-18.695
X81.693Y-2.593Z-18.65
X81.59Y5.602Z-18.625
X80.667Y13.747Z-18.62
X79.088Y21.178Z-18.646
X76.689Y28.807Z-18.598
X73.47Y36.345Z-18.574
X69.514Y43.524Z-18.571
X65.104Y49.955Z-18.597
X59.968Y56.085Z-18.548
X53.961Y61.951Z-18.524
X47.549Y67.057Z-18.519
X41.006Y71.298Z-18.544
X33.91Y74.985Z-18.499
X26.11Y78.095Z-18.474
X18.23Y80.35Z-18.469
X10.759Y81.731Z-18.496
X2.793Y82.435Z-18.447
X-5.602Y82.341Z-18.423
X-13.748Y81.427Z-18.42
X-21.376Y79.811Z-18.446
X-29.005Y77.415Z-18.397
X-36.728Y74.118Z-18.373
X-43.906Y70.16Z-18.37
X-50.498Y65.634Z-18.394
X-56.77Y60.356Z-18.349
X-62.622Y54.334Z-18.322
X-67.718Y47.914Z-18.317
X-71.955Y41.369Z-18.343
X-75.727Y34.091Z-18.299
X-78.827Y26.288Z-18.272
X-81.124Y18.212Z-18.266
X-82.491Y10.738Z-18.293
X-83.194Y2.571Z-18.248
X-83.078Y-5.823Z-18.222
X-82.118Y-14.165Z-18.216
X-80.529Y-21.595Z-18.245
X-78.064Y-29.412Z-18.197
X-74.756Y-37.13Z-18.172
X-70.689Y-44.476Z-18.167
X-66.27Y-50.9Z-18.194
X-61Y-57.178Z-18.146
X-54.991Y-63.043Z-18.121
X-48.424Y-68.275Z-18.117
X-41.885Y-72.522Z-18.144
X-34.616Y-76.311Z-18.096
X-26.823Y-79.437Z-18.071
X-18.756Y-81.767Z-18.068
X-10.893Y-83.227Z-18.093
X-2.727Y-83.939Z-18.046
X5.668Y-83.84Z-18.021
X14.012Y-82.903Z-18.017
X21.835Y-81.241Z-18.043
X29.652Y-78.775Z-17.995
X37.552Y-75.384Z-17.97
X44.895Y-71.312Z-17.965
X51.319Y-66.894Z-17.994
X57.603Y-61.63Z-17.944
X63.611Y-55.481Z-17.92
X68.846Y-48.916Z-17.916
X73.202Y-42.209Z-17.943
X76.988Y-34.939Z-17.894
X80.183Y-26.959Z-17.869
X82.507Y-18.89Z-17.866
X83.966Y-11.027Z-17.893
X84.685Y-2.861Z-17.843
X84.587Y5.733Z-17.819
X83.652Y14.078Z-17.816
X81.948Y22.096Z-17.841
X79.408Y30.099Z-17.795
X76.003Y37.993Z-17.769
X71.817Y45.501Z-17.762
X67.382Y51.915Z-17.79
X61.972Y58.336Z-17.745
X55.805Y64.325Z-17.718
X49.065Y69.661Z-17.712
X42.515Y73.892Z-17.74
X35.061Y77.758Z-17.694
X27.074Y80.937Z-17.668
X18.807Y83.296Z-17.662
X11.139Y84.707Z-17.692
X2.774Y85.439Z-17.643
X-5.821Y85.334Z-17.618
X-14.363Y84.366Z-17.613
X-22.185Y82.7Z-17.641
X-30.193Y80.174Z-17.593
X-38.095Y76.788Z-17.567
X-45.618Y72.629Z-17.564
X-52.369Y67.979Z-17.589
X-58.792Y62.571Z-17.543
X-64.789Y56.412Z-17.517
X-70.14Y49.684Z-17.513
X-74.492Y42.974Z-17.541
X-78.369Y35.526Z-17.492
X-81.632Y27.357Z-17.467
X-84Y19.093Z-17.462
X-85.452Y11.229Z-17.491
X-86.186Y2.864Z-17.441
X-86.078Y-5.931Z-17.416
X-85.108Y-14.472Z-17.412
X-83.396Y-22.489Z-17.438
X-80.862Y-30.494Z-17.392
X-77.388Y-38.575Z-17.366
X-73.217Y-46.092Z-17.361
X-68.563Y-52.84Z-17.387
X-63.157Y-59.265Z-17.341
X-56.853Y-65.4Z-17.315
X-50.123Y-70.749Z-17.311
X-43.242Y-75.204Z-17.338
X-36.877Y-78.565Z-17.238
X-31.932Y-80.733Z-17.298
X-26.102Y-82.838Z-17.179
X-22.459Y-83.92Z-17.307
X-16.229Y-85.38Z-17.105
X-11.297Y-86.199Z-17.257
X-5.13Y-86.819Z-17.041
X0.065Y-86.999Z-17.193
X6.261Y-86.808Z-16.979
X11.437Y-86.307Z-17.13
X17.554Y-85.309Z-16.916
X22.62Y-84.137Z-17.067
X28.555Y-82.348Z-16.853
X33.425Y-80.526Z-17.006
X39.076Y-77.978Z-16.791
X43.666Y-75.536Z-16.944
X48.937Y-72.274Z-16.728
X53.17Y-69.255Z-16.884
X57.971Y-65.334Z-16.665
X61.775Y-61.79Z-16.822
X66.026Y-57.277Z-16.603
X69.336Y-53.268Z-16.757
X73.075Y-48.075Z-16.54
X75.826Y-43.664Z-16.691
X78.757Y-38.202Z-16.477
X80.913Y-33.47Z-16.632
X83.109Y-27.674Z-16.415
X84.632Y-22.702Z-16.571
X86.097Y-16.473Z-16.352
X86.95Y-11.344Z-16.503
X87.58Y-4.977Z-16.29
X87.749Y0.019Z-16.447
X87.549Y6.414Z-16.228
X87.068Y11.391Z-16.382
X86.042Y17.707Z-16.165
X84.872Y22.772Z-16.321
X83.023Y28.898Z-16.102
X81.271Y33.581Z-16.256
X78.646Y39.416Z-16.039
X76.205Y44.007Z-16.197
X72.835Y49.446Z-15.977
X69.812Y53.676Z-16.129
X65.757Y58.626Z-15.914
X62.345Y62.28Z-16.07
X57.685Y66.665Z-15.851
X53.672Y69.972Z-16.01
X48.477Y73.708Z-15.789
X44.066Y76.46Z-15.943
X38.426Y79.482Z-15.726
X33.877Y81.555Z-15.88
X27.895Y83.826Z-15.663
X22.923Y85.349Z-15.819
X16.695Y86.818Z-15.6
X11.567Y87.677Z-15.759
X5.201Y88.318Z-15.538
X0.005Y88.499Z-15.698
X-6.39Y88.302Z-15.476
X-11.565Y87.803Z-15.635
X-17.881Y86.773Z-15.413
X-22.946Y85.601Z-15.572
X-29.073Y83.756Z-15.35
X-33.943Y81.934Z-15.51
X-39.776Y79.304Z-15.288
X-44.367Y76.863Z-15.448
X-49.808Y73.495Z-15.225
X-54.041Y70.477Z-15.384
X-58.997Y66.429Z-15.162
X-62.801Y62.885Z-15.32
X-67.188Y58.226Z-15.1
X-70.621Y54.059Z-15.253
X-74.353Y48.861Z-15.038
X-77.104Y44.449Z-15.194
X-80.129Y38.811Z-14.975
X-82.283Y34.079Z-15.135
X-84.55Y28.095Z-14.912
X-86.071Y23.123Z-15.07
X-87.581Y16.7Z-14.849
X-88.433Y11.57Z-15.005
X-89.069Y5.203Z-14.786
X-89.249Y0.007Z-14.947
X-89.055Y-6.388Z-14.723
X-88.534Y-11.762Z-14.878
X-87.498Y-18.076Z-14.661
X-86.326Y-23.142Z-14.822
X-84.481Y-29.269Z-14.599
X-82.588Y-34.325Z-14.753
X-79.953Y-40.156Z-14.536
X-77.51Y-44.746Z-14.698
X-74.144Y-50.188Z-14.474
X-71.007Y-54.582Z-14.63
X-66.955Y-59.535Z-14.411
X-63.409Y-63.337Z-14.57
X-58.601Y-67.857Z-14.348
X-54.587Y-71.161Z-14.509
X-49.394Y-74.9Z-14.285
X-44.814Y-77.76Z-14.443
X-39.176Y-80.785Z-14.223
X-34.445Y-82.942Z-14.381
X-28.275Y-85.28Z-14.161
X-23.302Y-86.8Z-14.321
X-16.879Y-88.309Z-14.098
X-11.75Y-89.165Z-14.26
X-5.384Y-89.808Z-14.035
X0.011Y-89.998Z-14.198
X6.407Y-89.804Z-13.973
X11.782Y-89.287Z-14.134
X18.097Y-88.259Z-13.91
X23.358Y-87.044Z-14.07
X29.485Y-85.2Z-13.847
X34.543Y-83.309Z-14.008
X40.377Y-80.681Z-13.784
X45.144Y-78.147Z-13.946
X50.586Y-74.78Z-13.722
X54.982Y-71.646Z-13.885
X59.939Y-67.599Z-13.659
X63.889Y-63.918Z-13.822
X68.408Y-59.11Z-13.597
X71.714Y-55.097Z-13.757
X75.569Y-49.742Z-13.534
X78.426Y-45.16Z-13.691
X81.451Y-39.521Z-13.471
X83.688Y-34.607Z-13.631
X86.019Y-28.434Z-13.409
X87.535Y-23.46Z-13.572
X89.044Y-17.037Z-13.346
X89.901Y-11.908Z-13.506
X90.563Y-5.343Z-13.283
X90.749Y0.052Z-13.444
X90.54Y6.647Z-13.221
X90.038Y11.823Z-13.384
X88.976Y18.335Z-13.159
X87.757Y23.595Z-13.318
X85.847Y29.911Z-13.096
X84.022Y34.78Z-13.26
X81.31Y40.796Z-13.034
X78.771Y45.561Z-13.194
X75.292Y51.168Z-12.971
X72.27Y55.399Z-13.133
X68.096Y60.509Z-12.908
X64.412Y64.457Z-13.071
X59.602Y68.974Z-12.845
X55.432Y72.404Z-13.004
X50.071Y76.251Z-12.783
X45.659Y79.003Z-12.946
X39.847Y82.127Z-12.72
X34.933Y84.365Z-12.885
X28.761Y86.699Z-12.657
X23.597Y88.274Z-12.819
X17.172Y89.781Z-12.595
X11.846Y90.666Z-12.754
X5.28Y91.319Z-12.532
X0.083Y91.499Z-12.693
X-6.711Y91.288Z-12.469
X-11.886Y90.787Z-12.631
X-18.399Y89.729Z-12.406
X-23.661Y88.516Z-12.569
X-29.98Y86.616Z-12.343
X-35.038Y84.727Z-12.507
X-41.055Y82.019Z-12.281
X-45.824Y79.486Z-12.444
X-51.436Y76.016Z-12.219
X-55.833Y72.882Z-12.381
X-61.096Y68.578Z-12.156
X-65.039Y64.89Z-12.316
X-69.554Y60.078Z-12.094
X-72.984Y55.908Z-12.255
X-76.834Y50.548Z-12.031
X-79.692Y45.967Z-12.195
X-82.812Y40.153Z-11.968
X-85.05Y35.239Z-12.135
X-87.387Y29.068Z-11.905
X-88.967Y23.906Z-12.069
X-90.522Y17.287Z-11.844
X-91.407Y11.961Z-12.006
X-92.062Y5.395Z-11.781
X-92.248Y-0Z-11.949
X-92.046Y-6.596Z-11.718
X-91.531Y-11.971Z-11.881
X-90.436Y-18.681Z-11.656
X-89.217Y-23.941Z-11.821
X-87.313Y-30.259Z-11.593
X-85.423Y-35.316Z-11.757
X-82.628Y-41.514Z-11.53
X-80.089Y-46.279Z-11.695
X-76.615Y-51.889Z-11.467
X-73.481Y-56.286Z-11.63
X-69.179Y-61.55Z-11.404
X-65.494Y-65.496Z-11.573
X-60.688Y-70.018Z-11.342
X-56.366Y-73.578Z-11.505
X-51.008Y-77.429Z-11.279
X-46.429Y-80.291Z-11.444
X-40.439Y-83.507Z-11.217
X-35.525Y-85.743Z-11.385
X-29.354Y-88.082Z-11.154
X-24Y-89.719Z-11.32
X-17.576Y-91.23Z-11.091
X-12.053Y-92.152Z-11.255
X-5.488Y-92.809Z-11.029
X0.107Y-92.999Z-11.19
X6.703Y-92.792Z-10.966
X12.077Y-92.274Z-11.131
X18.787Y-91.18Z-10.904
X24.048Y-89.965Z-11.07
X30.558Y-88.003Z-10.841
X35.615Y-86.111Z-11.008
X41.813Y-83.317Z-10.779
X46.579Y-80.78Z-10.946
X52.359Y-77.201Z-10.716
X56.754Y-74.065Z-10.883
X62.019Y-69.763Z-10.654
X65.967Y-66.081Z-10.819
X70.626Y-61.129Z-10.591
X74.185Y-56.806Z-10.755
X78.147Y-51.281Z-10.529
X81.001Y-46.698Z-10.694
X84.212Y-40.705Z-10.465
X86.445Y-35.79Z-10.634
X88.848Y-29.43Z-10.403
X90.424Y-24.266Z-10.571
X91.98Y-17.647Z-10.34
X92.899Y-12.124Z-10.503
X93.568Y-5.358Z-10.278
X93.749Y0.037Z-10.446
X93.534Y6.832Z-10.215
X93.013Y12.206Z-10.383
X91.919Y18.916Z-10.152
X90.655Y24.371Z-10.318
X88.687Y30.879Z-10.089
X86.791Y35.934Z-10.26
X83.996Y42.132Z-10.026
X81.363Y47.073Z-10.192
X79.332Y50.458Z-10
G0Z10
X76.444Y54.781
G1Z-10F500
X74.638Y57.242Z-10.134F1000
X73.194Y59.096Z-10
G0Z10
X67.517Y65.57
G1Z-10F500
X66.513Y66.598Z-10.068F1000
X65.753Y67.357Z-10
G0Z10
X57.483Y74.609
G1Z-10F500
X57.219Y74.814F1000
G0Z10
 
