O0(C:\Users\Henrik\Documents\blendercam\scripts\addons\fabex\tests\test_data\4axistest\Op_Plane_1.tap)
G21
(G-code Generated with Fabex and NC library)
G17G90
T2M06
(Tool: D = 6.0 mm  type BALLNOSE flutes 2)
S12000M03
G00 Z50.0

G01Z25.5F1000
G01Y250Z25
G01Z30
G01Y0B1.909
G01Z25.385F500
G01Y250Z25F1000
G01Z30
G01Y0B3.819
G01Z25.025F500
G01Y250Z25F1000
G01Z30
G01Y0B5.729
G01Z25F500
G01Y250F1000
G01Z30
G01Y0Z29.999B7.639
G01Z25F500
G01Y250F1000
G01Z29.999
G01Y0Z30B9.549
G01Z25F500
G01Y250F1000
G01Z30
G01Y0B11.459
G01Z25F500
G01Y250F1000
G01Z30
G01Y0Z29.999B13.369
G01Z25F500
G01Y250F1000
G01Z29.999
G01Y0Z30B15.278
G01Z25F500
G01Y250F1000
G01Z30
G01Y0B17.188
G01Z25F500
G01Y250F1000
G01Z30
G01Y0B19.098
G01Z25F500
G01Y250F1000
G01Z30
G01Y0Z29.999B21.008
G01Z25F500
G01Y250F1000
G01Z29.999
G01Y0B22.918
G01Z25F500
G01Y250F1000
G01Z29.999
G01Y0Z30B24.828
G01Z25F500
G01Y250F1000
G01Z30
G01Y0B26.738
G01Z25F500
G01Y250F1000
G01Z30
G01Y0B28.647
G01Z25F500
G01Y250F1000
G01Z30
G01Y0B30.557
G01Z25F500
G01Y250F1000
G01Z30
G01Y0B32.467
G01Z25F500
G01Y250F1000
G01Z30
G01Y0B34.377
G01Z25F500
G01Y250F1000
G01Z30
G01Y0B36.287
G01Z25F500
G01Y250F1000
G01Z30
G01Y0B38.197
G01Z25F500
G01Y250F1000
G01Z30
G01Y0B40.107
G01Z25F500
G01Y250F1000
G01Z30
G01Y0B42.016
G01Z25F500
G01Y250Z25.215F1000
G01Z30
G01Y0B43.926
G01Z25F500
G01Y250Z25.464F1000
G01Z30
G01Y0B45.836
G01Z25F500
G01Y250Z25.478F1000
G01Z30
G01Y0B47.746
G01Z25F500
G01Y250Z25.26F1000
G01Z30
G01Y0Z29.999B49.656
G01Z24.999F500
G01Y250F1000
G01Z29.999
G01Y0Z30B51.566
G01Z25F500
G01Y250F1000
G01Z30
G01Y0Z29.999B53.476
G01Z24.999F500
G01Y250F1000
G01Z29.999
G01Y0Z30B55.385
G01Z25F500
G01Y250F1000
G01Z30
G01Y0Z29.999B57.295
G01Z25.267F500
G01Y250Z24.999F1000
G01Z29.999
G01Y0Z30B59.205
G01Z25.48F500
G01Y250Z25F1000
G01Z30
G01Y0B61.115
G01Z25.461F500
G01Y250Z25F1000
G01Z30
G01Y0B63.025
G01Z25.206F500
G01Y250Z25F1000
G01Z30
G01Y0B64.935
G01Z25F500
G01Y250F1000
G01Z30
G01Y0B66.845
G01Z25F500
G01Y250F1000
G01Z30
G01Y0B68.754
G01Z25F500
G01Y250F1000
G01Z30
G01Y0Z29.999B70.664
G01Z24.999F500
G01Y250F1000
G01Z29.999
G01Y0Z30B72.574
G01Z25F500
G01Y250F1000
G01Z30
G01Y0B74.484
G01Z25F500
G01Y250F1000
G01Z30
G01Y0Z29.999B76.394
G01Z25F500
G01Y250F1000
G01Z29.999
G01Y0Z30B78.304
G01Z25F500
G01Y250F1000
G01Z30
G01Y0B80.214
G01Z25F500
G01Y250F1000
G01Z30
G01Y0B82.123
G01Z25F500
G01Y250F1000
G01Z30
G01Y0B84.033
G01Z25F500
G01Y250F1000
G01Z30
G01Y0B85.943
G01Z25F500
G01Y250F1000
G01Z30
G01Y0B87.853
G01Z25F500
G01Y250F1000
G01Z30
G01Y0B89.763
G01Z25F500
G01Y250F1000
G01Z30
G01Y0Z29.999B91.673
G01Z25F500
G01Y250F1000
G01Z29.999
G01Y0Z30B93.583
G01Z25F500
G01Y250F1000
G01Z30
G01Y0Z29.999B95.492
G01Z25F500
G01Y250F1000
G01Z29.999
G01Y0Z30B97.402
G01Z25F500
G01Y250F1000
G01Z30
G01Y0B99.312
G01Z25F500
G01Y250F1000
G01Z30
G01Y0B101.222
G01Z25F500
G01Y250Z25.036F1000
G01Z30
G01Y0B103.132
G01Z25F500
G01Y250Z25.39F1000
G01Z30
G01Y0B105.042
G01Z25F500
G01Y250Z25.499F1000
G01Z30
G01Y0B106.952
G01Z25F500
G01Y250Z25.38F1000
G01Z30
G01Y0Z29.999B108.861
G01Z25F500
G01Y250Z25.015F1000
G01Z29.999
G01Y0Z30B110.771
G01Z25F500
G01Y250F1000
G01Z30
G01Y0B112.681
G01Z25F500
G01Y250F1000
G01Z30
G01Y0Z29.999B114.591
G01Z25F500
G01Y250F1000
G01Z29.999
G01Y0Z30B116.501
G01Z25.103F500
G01Y250Z25F1000
G01Z30
G01Y0B118.411
G01Z25.421F500
G01Y250Z25F1000
G01Z30
G01Y0B120.321
G01Z25.496F500
G01Y250Z25F1000
G01Z30
G01Y0B122.231
G01Z25.343F500
G01Y250Z25F1000
G01Z30
G01Y0B124.14
G01Z25F500
G01Y250F1000
G01Z30
G01Y0B126.05
G01Z25F500
G01Y250F1000
G01Z30
G01Y0B127.96
G01Z25F500
G01Y250F1000
G01Z30
G01Y0B129.87
G01Z25F500
G01Y250F1000
G01Z30
G01Y0B131.78
G01Z25F500
G01Y250F1000
G01Z30
G01Y0B133.69
G01Z25F500
G01Y250F1000
G01Z30
G01Y0Z29.999B135.6
G01Z25F500
G01Y250F1000
G01Z29.999
G01Y0Z30B137.509
G01Z25F500
G01Y250F1000
G01Z30
G01Y0B139.419
G01Z25F500
G01Y250F1000
G01Z30
G01Y0Z29.999B141.329
G01Z24.999F500
G01Y250F1000
G01Z29.999
G01Y0B143.239
G01Z24.999F500
G01Y250F1000
G01Z29.999
G01Y0Z30B145.149
G01Z25F500
G01Y250F1000
G01Z30
G01Y0B147.059
G01Z25F500
G01Y250F1000
G01Z30
G01Y0B148.969
G01Z25F500
G01Y250F1000
G01Z30
G01Y0Z29.999B150.878
G01Z24.999F500
G01Y250F1000
G01Z29.999
G01Y0Z30B152.788
G01Z25F500
G01Y250F1000
G01Z30
G01Y0B154.698
G01Z25F500
G01Y250F1000
G01Z30
G01Y0B156.608
G01Z25F500
G01Y250F1000
G01Z30
G01Y0Z29.999B158.518
G01Z25F500
G01Y250F1000
G01Z29.999
G01Y0B160.428
G01Z24.999F500
G01Y250F1000
G01Z29.999
G01Y0Z30B162.338
G01Z25F500
G01Y250Z25.274F1000
G01Z30
G01Y0Z29.999B164.247
G01Z24.999F500
G01Y250Z25.482F1000
G01Z29.999
G01Y0Z30B166.157
G01Z25F500
G01Y250Z25.458F1000
G01Z30
G01Y0B168.067
G01Z25F500
G01Y250Z25.198F1000
G01Z30
G01Y0B169.977
G01Z25F500
G01Y250F1000
G01Z30
G01Y0B171.887
G01Z25F500
G01Y250F1000
G01Z30
G01Y0B173.797
G01Z25F500
G01Y250F1000
G01Z30
G01Y0B175.707
G01Z25F500
G01Y250F1000
G01Z30
G01Y0Z29.999B177.616
G01Z25.32F500
G01Y250Z24.999F1000
G01Z29.999
G01Y0Z30B179.526
G01Z25.493F500
G01Y250Z25F1000
G01Z30
G01Y0B181.436
G01Z25.435F500
G01Y250Z25F1000
G01Z30
G01Y0Z29.999B183.346
G01Z25.138F500
G01Y250Z25F1000
G01Z29.999
G01Y0Z30B185.256
G01Z25F500
G01Y250F1000
G01Z30
G01Y0B187.166
G01Z25F500
G01Y250F1000
G01Z30
G01Y0B189.076
G01Z25F500
G01Y250F1000
G01Z30
G01Y0Z29.999B190.985
G01Z25F500
G01Y250F1000
G01Z29.999
G01Y0Z30B192.895
G01Z25F500
G01Y250F1000
G01Z30
G01Y0B194.805
G01Z25F500
G01Y250F1000
G01Z30
G01Y0B196.715
G01Z25F500
G01Y250F1000
G01Z30
G01Y0B198.625
G01Z25F500
G01Y250F1000
G01Z30
G01Y0B200.535
G01Z25F500
G01Y250F1000
G01Z30
G01Y0B202.445
G01Z25F500
G01Y250F1000
G01Z30
G01Y0Z29.999B204.354
G01Z25F500
G01Y250F1000
G01Z29.999
G01Y0Z30B206.264
G01Z25F500
G01Y250F1000
G01Z30
G01Y0B208.174
G01Z25F500
G01Y250F1000
G01Z30
G01Y0B210.084
G01Z25F500
G01Y250F1000
G01Z30
G01Y0B211.994
G01Z25F500
G01Y250F1000
G01Z30
G01Y0B213.904
G01Z25F500
G01Y250F1000
G01Z30
G01Y0B215.814
G01Z25F500
G01Y250F1000
G01Z30
G01Y0B217.723
G01Z25F500
G01Y250F1000
G01Z30
G01Y0B219.633
G01Z25F500
G01Y250F1000
G01Z30
G01Y0B221.543
G01Z25F500
G01Y250Z25.113F1000
G01Z30
G01Y0B223.453
G01Z25F500
G01Y250Z25.425F1000
G01Z30
G01Y0B225.363
G01Z25F500
G01Y250Z25.495F1000
G01Z30
G01Y0B227.273
G01Z25F500
G01Y250Z25.336F1000
G01Z30
G01Y0B229.183
G01Z25F500
G01Y250F1000
G01Z30
G01Y0B231.092
G01Z25F500
G01Y250F1000
G01Z30
G01Y0B233.002
G01Z25F500
G01Y250F1000
G01Z30
G01Y0B234.912
G01Z25F500
G01Y250F1000
G01Z30
G01Y0B236.822
G01Z25.175F500
G01Y250Z25F1000
G01Z30
G01Y0B238.732
G01Z25.449F500
G01Y250Z25F1000
G01Z30
G01Y0Z29.999B240.642
G01Z25.487F500
G01Y250Z25F1000
G01Z29.999
G01Y0Z30B242.552
G01Z25.293F500
G01Y250Z25F1000
G01Z30
G01Y0B244.462
G01Z25F500
G01Y250F1000
G01Z30
G01Y0B246.371
G01Z25F500
G01Y250F1000
G01Z30
G01Y0Z29.999B248.281
G01Z25F500
G01Y250F1000
G01Z29.999
G01Y0Z30B250.191
G01Z25F500
G01Y250F1000
G01Z30
G01Y0B252.101
G01Z25F500
G01Y250F1000
G01Z30
G01Y0Z29.999B254.011
G01Z24.999F500
G01Y250F1000
G01Z29.999
G01Y0Z30B255.921
G01Z25F500
G01Y250F1000
G01Z30
G01Y0B257.831
G01Z25F500
G01Y250F1000
G01Z30
G01Y0B259.74
G01Z24.999F500
G01Y250F1000
G01Z30
G01Y0B261.65
G01Z25F500
G01Y250F1000
G01Z30
G01Y0Z29.999B263.56
G01Z25F500
G01Y250F1000
G01Z29.999
G01Y0Z30B265.47
G01Z25F500
G01Y250F1000
G01Z30
G01Y0Z29.999B267.38
G01Z24.999F500
G01Y250F1000
G01Z29.999
G01Y0Z30B269.29
G01Z25F500
G01Y250F1000
G01Z30
G01Y0Z29.999B271.2
G01Z25F500
G01Y250F1000
G01Z29.999
G01Y0B273.109
G01Z25F500
G01Y250F1000
G01Z29.999
G01Y0Z30B275.019
G01Z25F500
G01Y250F1000
G01Z30
G01Y0B276.929
G01Z25F500
G01Y250F1000
G01Z30
G01Y0B278.839
G01Z25F500
G01Y250F1000
G01Z30
G01Y0Z29.999B280.749
G01Z25F500
G01Y250F1000
G01Z29.999
G01Y0Z30B282.659
G01Z25F500
G01Y250Z25.326F1000
G01Z30
G01Y0B284.569
G01Z25F500
G01Y250Z25.494F1000
G01Z30
G01Y0B286.478
G01Z25F500
G01Y250Z25.431F1000
G01Z30
G01Y0B288.388
G01Z25F500
G01Y250Z25.129F1000
G01Z30
G01Y0B290.298
G01Z25F500
G01Y250F1000
G01Z30
G01Y0B292.208
G01Z25F500
G01Y250F1000
G01Z30
G01Y0B294.118
G01Z25F500
G01Y250F1000
G01Z30
G01Y0B296.028
G01Z25F500
G01Y250F1000
G01Z30
G01Y0Z29.999B297.938
G01Z25.366F500
G01Y250Z24.999F1000
G01Z29.999
G01Y0Z30B299.847
G01Z25.499F500
G01Y250Z25F1000
G01Z30
G01Y0B301.757
G01Z25.403F500
G01Y250Z25F1000
G01Z30
G01Y0B303.667
G01Z25.062F500
G01Y250Z25F1000
G01Z30
G01Y0B305.577
G01Z24.999F500
G01Y250F1000
G01Z30
G01Y0B307.487
G01Z25F500
G01Y250F1000
G01Z30
G01Y0B309.397
G01Z25F500
G01Y250F1000
G01Z30
G01Y0B311.307
G01Z25F500
G01Y250F1000
G01Z30
G01Y0B313.216
G01Z25F500
G01Y250F1000
G01Z30
G01Y0Z29.999B315.126
G01Z25F500
G01Y250F1000
G01Z29.999
G01Y0Z30B317.036
G01Z25F500
G01Y250F1000
G01Z30
G01Y0B318.946
G01Z25F500
G01Y250F1000
G01Z30
G01Y0Z29.999B320.856
G01Z24.999F500
G01Y250F1000
G01Z29.999
G01Y0Z30B322.766
G01Z25F500
G01Y250F1000
G01Z30
G01Y0B324.676
G01Z25F500
G01Y250F1000
G01Z30
G01Y0B326.585
G01Z25F500
G01Y250F1000
G01Z30
G01Y0B328.495
G01Z25F500
G01Y250F1000
G01Z30
G01Y0B330.405
G01Z25F500
G01Y250F1000
G01Z30
G01Y0B332.315
G01Z25F500
G01Y250F1000
G01Z30
G01Y0B334.225
G01Z25F500
G01Y250F1000
G01Z30
G01Y0B336.135
G01Z25F500
G01Y250F1000
G01Z30
G01Y0B338.045
G01Z25F500
G01Y250F1000
G01Z30
G01Y0B339.954
G01Z25F500
G01Y250F1000
G01Z30
G01Y0Z29.999B341.864
G01Z25F500
G01Y250Z25.184F1000
G01Z29.999
G01Y0B343.774
G01Z25F500
G01Y250Z25.453F1000
G01Z29.999
G01Y0Z30B345.684
G01Z25F500
G01Y250Z25.485F1000
G01Z30
G01Y0B347.594
G01Z25F500
G01Y250Z25.286F1000
G01Z30
G01Y0B349.504
G01Z25F500
G01Y250F1000
G01Z30
G01Y0B351.414
G01Z25F500
G01Y250F1000
G01Z30
G01Y0B353.323
G01Z25F500
G01Y250F1000
G01Z30
G01Y0B355.233
G01Z25F500
G01Y250F1000
G01Z30
G01Y0B357.143
G01Z25.239F500
G01Y250Z25F1000
G01Z30
G01Y0B359.053
G01Z25.472F500
G01Y250Z25F1000
G01Z30
G01Y0B0
G01Y60.299Z25
G01Y250Z23.038
G01Z30
G01Y0B1.909
G01Y37.627Z25
G01Y250Z22.821
G01Z30
G01Y0B3.819
G01Y17.988Z25
G01Y250Z22.637
G01Z30
G01Y0B5.729
G01Z24.589F500
G01Y250Z22.483F1000
G01Z30
G01Y0Z29.999B7.639
G01Z24.195F500
G01Y250Z22.359F1000
G01Z29.999
G01Y0Z30B9.549
G01Z23.842F500
G01Y250Z22.265F1000
G01Z30
G01Y0B11.459
G01Z23.527F500
G01Y250Z22.198F1000
G01Z30
G01Y0Z29.999B13.369
G01Z23.248F500
G01Y250Z22.161F1000
G01Z29.999
G01Y0Z30B15.278
G01Z23.004F500
G01Y250Z22.151F1000
G01Z30
G01Y0B17.188
G01Z22.792F500
G01Y250Z22.169F1000
G01Z30
G01Y0B19.098
G01Z22.613F500
G01Y250Z22.215F1000
G01Z30
G01Y0Z29.999B21.008
G01Z22.463F500
G01Y250Z22.289F1000
G01Z29.999
G01Y0B22.918
G01Z22.344F500
G01Y250Z22.392F1000
G01Z29.999
G01Y0Z30B24.828
G01Z22.253F500
G01Y250Z22.525F1000
G01Z30
G01Y0B26.738
G01Z22.191F500
G01Y250Z22.688F1000
G01Z30
G01Y0B28.647
G01Z22.157F500
G01Y250Z22.881F1000
G01Z30
G01Y0B30.557
G01Z22.152F500
G01Y250Z23.107F1000
G01Z30
G01Y0B32.467
G01Z22.174F500
G01Y250Z23.366F1000
G01Z30
G01Y0B34.377
G01Z22.224F500
G01Y250Z23.661F1000
G01Z30
G01Y0B36.287
G01Z22.303F500
G01Y250Z23.992F1000
G01Z30
G01Y0B38.197
G01Z22.41F500
G01Y250Z24.362F1000
G01Z30
G01Y0B40.107
G01Z22.547F500
G01Y250Z24.775F1000
G01Z30
G01Y0B42.016
G01Z22.714F500
G01Y223.782Z25F1000
G01Y223.799Z30
G01Y250
G01Y0B43.926
G01Z22.912F500
G01Y202.811Z25F1000
G01Y202.999Z30
G01Y250
G01Y0Z23.143B45.836
G01Y178.818Z25
G01Y178.999Z30
G01Y250
G01Y0B47.746
G01Z23.407F500
G01Y151.83Z25F1000
G01Y151.999Z30
G01Y250
G01Y0Z23.707B49.656
G01Y121.875Z24.999
G01Y121.999Z29.999
G01Y234.399
G01Y234.547Z24.999F500
G01Y250Z24.829F1000
G01Z29.999
G01Y0Z30B51.566
G01Z24.044F500
G01Y88.989Z25F1000
G01Y88.999Z30
G01Y195.799
G01Y195.97Z25F500
G01Y250Z24.411F1000
G01Z30
G01Y0Z29.999B53.476
G01Z24.42F500
G01Y53.206Z24.999F1000
G01Y53.399Z29.999
G01Y160.2
G01Y160.251Z24.999F500
G01Y250Z24.036F1000
G01Z29.999
G01Y0Z30B55.385
G01Z24.838F500
G01Y14.567Z25F1000
G01Y14.599Z30
G01Y127.399
G01Y127.429Z24.999F500
G01Y250Z23.7F1000
G01Z30
G01Y0Z29.999B57.295
G01Y97.539Z24.999
G01Y250Z23.401
G01Z29.999
G01Y0Z30B59.205
G01Y70.616Z25
G01Y250Z23.137
G01Z30
G01Y0B61.115
G01Y46.69Z25
G01Y250Z22.907
G01Z30
G01Y0B63.025
G01Y25.786Z25
G01Y250Z22.71
G01Z30
G01Y0B64.935
G01Z24.765F500
G01Y250Z22.543F1000
G01Z30
G01Y0B66.845
G01Z24.354F500
G01Y250Z22.407F1000
G01Z30
G01Y0B68.754
G01Z23.984F500
G01Y250Z22.3F1000
G01Z30
G01Y0Z29.999B70.664
G01Z23.654F500
G01Y250Z22.222F1000
G01Z29.999
G01Y0Z30B72.574
G01Z23.36F500
G01Y250Z22.173F1000
G01Z30
G01Y0B74.484
G01Z23.102F500
G01Y250Z22.151F1000
G01Z30
G01Y0Z29.999B76.394
G01Z22.876F500
G01Y250Z22.158F1000
G01Z29.999
G01Y0Z30B78.304
G01Z22.684F500
G01Y250Z22.192F1000
G01Z30
G01Y0B80.214
G01Z22.522F500
G01Y250Z22.255F1000
G01Z30
G01Y0B82.123
G01Z22.39F500
G01Y250Z22.346F1000
G01Z30
G01Y0B84.033
G01Z22.287F500
G01Y250Z22.466F1000
G01Z30
G01Y0B85.943
G01Z22.213F500
G01Y250Z22.616F1000
G01Z30
G01Y0B87.853
G01Z22.168F500
G01Y250Z22.797F1000
G01Z30
G01Y0B89.763
G01Z22.151F500
G01Y250Z23.009F1000
G01Z30
G01Y0Z29.999B91.673
G01Z22.161F500
G01Y250Z23.254F1000
G01Z29.999
G01Y0Z30B93.583
G01Z22.2F500
G01Y250Z23.534F1000
G01Z30
G01Y0Z29.999B95.492
G01Z22.266F500
G01Y250Z23.85F1000
G01Z29.999
G01Y0Z30B97.402
G01Z22.362F500
G01Y250Z24.203F1000
G01Z30
G01Y0B99.312
G01Z22.486F500
G01Y250Z24.598F1000
G01Z30
G01Y0B101.222
G01Z22.641F500
G01Y231.61Z25F1000
G01Y231.799Z30
G01Y250
G01Y0B103.132
G01Z22.826F500
G01Y211.903Z25F1000
G01Y211.999Z30
G01Y250
G01Y0Z23.043B105.042
G01Y189.164Z25
G01Y189.199Z30
G01Y250
G01Y0B106.952
G01Z23.293F500
G01Y163.418Z25F1000
G01Y163.599Z30
G01Y250
G01Y0Z23.578B108.861
G01Y134.693Z25
G01Y134.8Z29.999
G01Y250
G01Y0Z30B110.771
G01Z23.899F500
G01Y103.022Z25F1000
G01Y103.199Z30
G01Y211.599
G01Y211.669Z25F500
G01Y250Z24.58F1000
G01Z30
G01Y0B112.681
G01Z24.258F500
G01Y68.439Z25F1000
G01Y68.599Z30
G01Y174.599
G01Y174.757Z25F500
G01Y250Z24.187F1000
G01Z30
G01Y0Z29.999B114.591
G01Z24.659F500
G01Y30.982Z24.999F1000
G01Y30.999Z29.999
G01Y140.599
G01Y140.725Z25F500
G01Y250Z23.835F1000
G01Z29.999
G01Y0Z30B116.501
G01Y109.612Z25
G01Y250Z23.521
G01Z30
G01Y0B118.411
G01Y81.452Z25
G01Y250Z23.243
G01Z30
G01Y0B120.321
G01Y56.275Z25
G01Y250Z22.999
G01Z30
G01Y0B122.231
G01Y34.115Z25
G01Y250Z22.788
G01Z30
G01Y0B124.14
G01Z24.949F500
G01Y4.618Z25F1000
G01Y4.8Z30
G01Y14.8
G01Y14.923Z25F500
G01Y250Z22.609F1000
G01Z30
G01Y0B126.05
G01Z24.52F500
G01Y250Z22.46F1000
G01Z30
G01Y0B127.96
G01Z24.133F500
G01Y250Z22.341F1000
G01Z30
G01Y0B129.87
G01Z23.787F500
G01Y250Z22.251F1000
G01Z30
G01Y0B131.78
G01Z23.478F500
G01Y250Z22.19F1000
G01Z30
G01Y0B133.69
G01Z23.205F500
G01Y250Z22.157F1000
G01Z30
G01Y0Z29.999B135.6
G01Z22.966F500
G01Y250Z22.152F1000
G01Z29.999
G01Y0Z30B137.509
G01Z22.76F500
G01Y250Z22.174F1000
G01Z30
G01Y0B139.419
G01Z22.585F500
G01Y250Z22.225F1000
G01Z30
G01Y0Z29.999B141.329
G01Z22.441F500
G01Y250Z22.305F1000
G01Z29.999
G01Y0B143.239
G01Z22.326F500
G01Y250Z22.413F1000
G01Z29.999
G01Y0Z30B145.149
G01Z22.241F500
G01Y250Z22.55F1000
G01Z30
G01Y0B147.059
G01Z22.183F500
G01Y250Z22.718F1000
G01Z30
G01Y0B148.969
G01Z22.154F500
G01Y250Z22.917F1000
G01Z30
G01Y0Z29.999B150.878
G01Z22.153F500
G01Y250Z23.148F1000
G01Z29.999
G01Y0Z30B152.788
G01Z22.18F500
G01Y250Z23.413F1000
G01Z30
G01Y0B154.698
G01Z22.235F500
G01Y250Z23.714F1000
G01Z30
G01Y0B156.608
G01Z22.319F500
G01Y250Z24.051F1000
G01Z30
G01Y0Z29.999B158.518
G01Z22.431F500
G01Y250Z24.429F1000
G01Z29.999
G01Y0B160.428
G01Z22.573F500
G01Y250Z24.848F1000
G01Z29.999
G01Y0Z30B162.338
G01Z22.745F500
G01Y220.47Z25F1000
G01Y220.599Z30
G01Y250
G01Y0Z29.999B164.247
G01Z22.949F500
G01Y198.989Z25F1000
G01Y199Z29.999
G01Y250
G01Y0Z23.185B166.157
G01Y174.491Z25
G01Y174.599Z30
G01Y250
G01Y0B168.067
G01Z23.455F500
G01Y147.001Z25F1000
G01Y147.2Z30
G01Y250
G01Y0Z23.761B169.977
G01Y116.551Z25
G01Y116.599Z30
G01Y227.799
G01Y227.861Z25F500
G01Y250Z24.755F1000
G01Z30
G01Y0B171.887
G01Z24.104F500
G01Y83.174Z25F1000
G01Y83.2Z30
G01Y189.599
G01Y189.762Z25F500
G01Y250Z24.345F1000
G01Z30
G01Y0B173.797
G01Z24.487F500
G01Y46.908Z25F1000
G01Y46.999Z30
G01Y154.399
G01Y154.527Z25F500
G01Y250Z23.976F1000
G01Z30
G01Y0B175.707
G01Z24.913F500
G01Y7.793Z25F1000
G01Y7.8Z30
G01Y121.999
G01Y122.199Z24.999F500
G01Y250Z23.647F1000
G01Z30
G01Y0Z29.999B177.616
G01Y92.803Z24.999
G01Y250Z23.354
G01Z29.999
G01Y0Z30B179.526
G01Y66.382Z25
G01Y250Z23.096
G01Z30
G01Y0B181.436
G01Y42.963Z25
G01Y250Z22.872
G01Z30
G01Y0Z29.999B183.346
G01Y22.57Z25
G01Y250Z22.68
G01Z29.999
G01Y0Z30B185.256
G01Z24.693F500
G01Y250Z22.518F1000
G01Z30
G01Y0B187.166
G01Z24.289F500
G01Y250Z22.387F1000
G01Z30
G01Y0B189.076
G01Z23.926F500
G01Y250Z22.285F1000
G01Z30
G01Y0Z29.999B190.985
G01Z23.602F500
G01Y250Z22.212F1000
G01Z29.999
G01Y0Z30B192.895
G01Z23.314F500
G01Y250Z22.167F1000
G01Z30
G01Y0B194.805
G01Z23.061F500
G01Y250Z22.15F1000
G01Z30
G01Y0B196.715
G01Z22.842F500
G01Y250Z22.162F1000
G01Z30
G01Y0B198.625
G01Z22.654F500
G01Y250Z22.201F1000
G01Z30
G01Y0B200.535
G01Z22.497F500
G01Y250Z22.268F1000
G01Z30
G01Y0B202.445
G01Z22.371F500
G01Y250Z22.364F1000
G01Z30
G01Y0Z29.999B204.354
G01Z22.273F500
G01Y250Z22.489F1000
G01Z29.999
G01Y0Z30B206.264
G01Z22.204F500
G01Y250Z22.644F1000
G01Z30
G01Y0B208.174
G01Z22.163F500
G01Y250Z22.83F1000
G01Z30
G01Y0B210.084
G01Z22.15F500
G01Y250Z23.048F1000
G01Z30
G01Y0B211.994
G01Z22.166F500
G01Y250Z23.299F1000
G01Z30
G01Y0B213.904
G01Z22.209F500
G01Y250Z23.584F1000
G01Z30
G01Y0B215.814
G01Z22.28F500
G01Y250Z23.906F1000
G01Z30
G01Y0B217.723
G01Z22.381F500
G01Y250Z24.267F1000
G01Z30
G01Y0B219.633
G01Z22.51F500
G01Y250Z24.668F1000
G01Z30
G01Y0B221.543
G01Z22.67F500
G01Y228.51Z25F1000
G01Y228.599Z30
G01Y250
G01Y0B223.453
G01Z22.86F500
G01Y208.292Z25F1000
G01Y208.399Z30
G01Y250
G01Y0Z23.082B225.363
G01Y185.045Z24.999
G01Y185.199Z30
G01Y250
G01Y0B227.273
G01Z23.338F500
G01Y158.796Z25F1000
G01Y158.799Z30
G01Y250
G01Y0Z23.629B229.183
G01Y129.573Z25
G01Y129.6Z30
G01Y244.399
G01Y244.541Z25F500
G01Y250Z24.939F1000
G01Z30
G01Y0B231.092
G01Z23.956F500
G01Y97.409Z25F1000
G01Y97.599Z30
G01Y205.2
G01Y205.263Z25F500
G01Y250Z24.511F1000
G01Z30
G01Y0B233.002
G01Z24.323F500
G01Y62.341Z25F1000
G01Y62.399Z30
G01Y168.799
G01Y168.832Z25F500
G01Y250Z24.125F1000
G01Z30
G01Y0B234.912
G01Z24.731F500
G01Y24.405Z25F1000
G01Y24.599Z30
G01Y135.199
G01Y135.289Z25F500
G01Y250Z23.779F1000
G01Z30
G01Y0B236.822
G01Y104.67Z25
G01Y250Z23.471
G01Z30
G01Y0B238.732
G01Y77.009Z25
G01Y250Z23.199
G01Z30
G01Y0Z29.999B240.642
G01Y52.338Z24.999
G01Y250Z22.961
G01Z29.999
G01Y0Z30B242.552
G01Y30.683Z25
G01Y250Z22.756
G01Z30
G01Y0B244.462
G01Z24.874F500
G01Y250Z22.582F1000
G01Z30
G01Y0B246.371
G01Z24.452F500
G01Y250Z22.438F1000
G01Z30
G01Y0Z29.999B248.281
G01Z24.072F500
G01Y250Z22.324F1000
G01Z29.999
G01Y0Z30B250.191
G01Z23.732F500
G01Y250Z22.239F1000
G01Z30
G01Y0B252.101
G01Z23.429F500
G01Y250Z22.183F1000
G01Z30
G01Y0Z29.999B254.011
G01Z23.162F500
G01Y250Z22.154F1000
G01Z29.999
G01Y0Z30B255.921
G01Z22.929F500
G01Y250Z22.154F1000
G01Z30
G01Y0B257.831
G01Z22.728F500
G01Y250Z22.181F1000
G01Z30
G01Y0B259.74
G01Z22.559F500
G01Y250Z22.237F1000
G01Z30
G01Y0B261.65
G01Z22.42F500
G01Y250Z22.321F1000
G01Z30
G01Y0Z29.999B263.56
G01Z22.31F500
G01Y250Z22.434F1000
G01Z29.999
G01Y0Z30B265.47
G01Z22.229F500
G01Y250Z22.576F1000
G01Z30
G01Y0Z29.999B267.38
G01Z22.177F500
G01Y250Z22.749F1000
G01Z29.999
G01Y0Z30B269.29
G01Z22.152F500
G01Y250Z22.953F1000
G01Z30
G01Y0Z29.999B271.2
G01Z22.156F500
G01Y250Z23.19F1000
G01Z29.999
G01Y0B273.109
G01Z22.187F500
G01Y250Z23.461F1000
G01Z29.999
G01Y0Z30B275.019
G01Z22.247F500
G01Y250Z23.768F1000
G01Z30
G01Y0B276.929
G01Z22.335F500
G01Y250Z24.112F1000
G01Z30
G01Y0B278.839
G01Z22.453F500
G01Y250Z24.496F1000
G01Z30
G01Y0Z29.999B280.749
G01Z22.6F500
G01Y237.035Z25F1000
G01Y237.199Z29.999
G01Y241.999
G01Y242.102Z25F500
G01Y250Z24.923F1000
G01Z29.999
G01Y0Z30B282.659
G01Z22.777F500
G01Y217.069Z25F1000
G01Y217.199Z30
G01Y250
G01Y0B284.569
G01Z22.986F500
G01Y195.08Z25F1000
G01Y195.199Z30
G01Y250
G01Y0Z23.228B286.478
G01Y170.076Z25
G01Y170.199Z30
G01Y250
G01Y0B288.388
G01Z23.504F500
G01Y142.087Z25F1000
G01Y142.199Z30
G01Y250
G01Y0Z23.816B290.298
G01Y111.142Z24.999
G01Y111.199Z30
G01Y221.199
G01Y221.258Z25F500
G01Y250Z24.683F1000
G01Z30
G01Y0B292.208
G01Z24.166F500
G01Y77.277Z25F1000
G01Y77.399Z30
G01Y183.599
G01Y183.638Z25F500
G01Y250Z24.28F1000
G01Z30
G01Y0B294.118
G01Z24.556F500
G01Y40.529Z25F1000
G01Y40.599Z30
G01Y148.8
G01Y148.888Z25F500
G01Y250Z23.918F1000
G01Z30
G01Y0B296.028
G01Z24.989F500
G01Y0.939Z25F1000
G01Y1Z30
G01Y116.999
G01Y117.048Z25F500
G01Y250Z23.595F1000
G01Z30
G01Y0Z29.999B297.938
G01Y88.153Z24.999
G01Y250Z23.308
G01Z29.999
G01Y0Z30B299.847
G01Y62.234Z25
G01Y250Z23.056
G01Z30
G01Y0B301.757
G01Y39.322Z25
G01Y250Z22.837
G01Z30
G01Y0B303.667
G01Y19.44Z25
G01Y250Z22.65
G01Z30
G01Y0B305.577
G01Z24.622F500
G01Y250Z22.494F1000
G01Z30
G01Y0B307.487
G01Z24.225F500
G01Y250Z22.368F1000
G01Z30
G01Y0B309.397
G01Z23.869F500
G01Y250Z22.271F1000
G01Z30
G01Y0B311.307
G01Z23.551F500
G01Y250Z22.203F1000
G01Z30
G01Y0B313.216
G01Z23.269F500
G01Y250Z22.163F1000
G01Z30
G01Y0Z29.999B315.126
G01Z23.022F500
G01Y250Z22.15F1000
G01Z29.999
G01Y0Z30B317.036
G01Z22.808F500
G01Y250Z22.166F1000
G01Z30
G01Y0B318.946
G01Z22.626F500
G01Y250Z22.21F1000
G01Z30
G01Y0Z29.999B320.856
G01Z22.474F500
G01Y250Z22.282F1000
G01Z29.999
G01Y0Z30B322.766
G01Z22.352F500
G01Y250Z22.383F1000
G01Z30
G01Y0B324.676
G01Z22.259F500
G01Y250Z22.513F1000
G01Z30
G01Y0B326.585
G01Z22.195F500
G01Y250Z22.673F1000
G01Z30
G01Y0B328.495
G01Z22.159F500
G01Y250Z22.865F1000
G01Z30
G01Y0B330.405
G01Z22.151F500
G01Y250Z23.088F1000
G01Z30
G01Y0B332.315
G01Z22.171F500
G01Y250Z23.344F1000
G01Z30
G01Y0B334.225
G01Z22.219F500
G01Y250Z23.636F1000
G01Z30
G01Y0B336.135
G01Z22.295F500
G01Y250Z23.964F1000
G01Z30
G01Y0B338.045
G01Z22.4F500
G01Y250Z24.331F1000
G01Z30
G01Y0B339.954
G01Z22.535F500
G01Y250Z24.74F1000
G01Z30
G01Y0Z29.999B341.864
G01Z22.699F500
G01Y225.321Z24.999F1000
G01Y225.4Z29.999
G01Y250
G01Y0B343.774
G01Z22.895F500
G01Y204.593Z24.999F1000
G01Y204.599Z29.999
G01Y250
G01Y0Z23.123B345.684
G01Y180.84Z25
G01Y180.999Z30
G01Y250
G01Y0B347.594
G01Z23.385F500
G01Y154.088Z25F1000
G01Y154.2Z30
G01Y250
G01Y0Z23.681B349.504
G01Y124.369Z25
G01Y124.399Z30
G01Y237.599
G01Y237.741Z25F500
G01Y250Z24.864F1000
G01Z30
G01Y0B351.414
G01Z24.015F500
G01Y91.715Z25F1000
G01Y91.799Z30
G01Y198.799
G01Y198.939Z25F500
G01Y250Z24.443F1000
G01Z30
G01Y0B353.323
G01Z24.389F500
G01Y56.161Z25F1000
G01Y56.199Z30
G01Y162.799
G01Y163Z24.999F500
G01Y250Z24.064F1000
G01Z30
G01Y0B355.233
G01Z24.803F500
G01Y17.747Z25F1000
G01Y17.8Z30
G01Y129.799
G01Y129.935Z25F500
G01Y250Z23.725F1000
G01Z30
G01Y0B357.143
G01Y99.811Z25
G01Y250Z23.423
G01Z30
G01Y0B359.053
G01Y72.651Z25
G01Y250Z23.157
G01Z30
G01Y0B0
G01Y250
G01B1.909
G01B3.819
G01B5.729
G01Z29.999B7.639F500
G01Z30B9.549F1000
G01B11.459
G01Z29.999B13.369F500
G01Z30B15.278F1000
G01B17.188
G01B19.098
G01Z29.999B21.008F500
G01B22.918F1000
G01Z30B24.828
G01B26.738
G01B28.647
G01B30.557
G01B32.467F500
G01B34.377F1000
G01B36.287
G01B38.197
G01B40.107
G01B42.016
G01B43.926
G01B45.836
G01B47.746
G01Z29.999B49.656F500
G01Z30B51.566F1000
G01Z29.999B53.476F500
G01Z30B55.385F1000
G01Z29.999B57.295F500
G01Z30B59.205F1000
G01B61.115
G01B63.025F500
G01B64.935F1000
G01B66.845
G01B68.754F500
G01Z29.999B70.664
G01Z30B72.574F1000
G01B74.484
G01Z29.999B76.394F500
G01Z30B78.304F1000
G01B80.214
G01B82.123
G01B84.033
G01B85.943F500
G01B87.853F1000
G01B89.763
G01Z29.999B91.673F500
G01Z30B93.583F1000
G01Z29.999B95.492F500
G01Z30B97.402F1000
G01B99.312F500
G01B101.222F1000
G01B103.132
G01B105.042F500
G01B106.952F1000
G01Z29.999B108.861F500
G01Z30B110.771F1000
G01B112.681
G01Z29.999B114.591F500
G01Z30B116.501F1000
G01B118.411
G01B120.321
G01B122.231F500
G01B124.14F1000
G01B126.05F500
G01B127.96F1000
G01B129.87
G01B131.78
G01B133.69
G01Z29.999B135.6F500
G01Z30B137.509F1000
G01B139.419F500
G01Z29.999B141.329
G01B143.239F1000
G01Z30B145.149
G01B147.059F500
G01B148.969F1000
G01Z29.999B150.878F500
G01Z30B152.788F1000
G01B154.698F500
G01B156.608F1000
G01Z29.999B158.518F500
G01B160.428F1000
G01Z30B162.338
G01Z29.999B164.247F500
G01Z30B166.157F1000
G01B168.067
G01B169.977
G01B171.887
G01B173.797
G01B175.707F500
G01Z29.999B177.616
G01Z30B179.526F1000
G01B181.436F500
G01Z29.999B183.346
G01Z30B185.256F1000
G01B187.166
G01B189.076
G01Z29.999B190.985F500
G01Z30B192.895F1000
G01B194.805
G01B196.715
G01B198.625
G01B200.535
G01B202.445
G01Z29.999B204.354F500
G01Z30B206.264F1000
G01B208.174
G01B210.084F500
G01B211.994F1000
G01B213.904
G01B215.814
G01B217.723
G01B219.633
G01B221.543
G01B223.453F500
G01B225.363F1000
G01B227.273
G01B229.183
G01B231.092
G01B233.002F500
G01B234.912F1000
G01B236.822
G01B238.732
G01Z29.999B240.642F500
G01Z30B242.552F1000
G01B244.462
G01B246.371
G01Z29.999B248.281F500
G01Z30B250.191F1000
G01B252.101
G01Z29.999B254.011F500
G01Z30B255.921F1000
G01B257.831
G01B259.74
G01B261.65
G01Z29.999B263.56F500
G01Z30B265.47F1000
G01Z29.999B267.38F500
G01Z30B269.29F1000
G01Z29.999B271.2F500
G01B273.109F1000
G01Z30B275.019
G01B276.929
G01B278.839F500
G01Z29.999B280.749
G01Z30B282.659F1000
G01B284.569
G01B286.478F500
G01B288.388F1000
G01B290.298
G01B292.208
G01B294.118F500
G01B296.028F1000
G01Z29.999B297.938F500
G01Z30B299.847F1000
G01B301.757
G01B303.667
G01B305.577
G01B307.487
G01B309.397F500
G01B311.307F1000
G01B313.216
G01Z29.999B315.126F500
G01Z30B317.036F1000
G01B318.946F500
G01Z29.999B320.856
G01Z30B322.766F1000
G01B324.676
G01B326.585
G01B328.495
G01B330.405
G01B332.315F500
G01B334.225F1000
G01B336.135
G01B338.045
G01B339.954
G01Z29.999B341.864F500
G01B343.774F1000
G01Z30B345.684
G01B347.594
G01B349.504
G01B351.414
G01B353.323F500
G01B355.233F1000
G01B357.143
G01B359.053F500
G01B0F1000
G01B1.909
G01B3.819
G01B5.729
G01Z29.999B7.639F500
G01Z30B9.549F1000
G01B11.459
G01Z29.999B13.369F500
G01Z30B15.278F1000
G01B17.188
G01B19.098
G01Z29.999B21.008F500
G01B22.918F1000
G01Z30B24.828
G01B26.738
G01B28.647
G01B30.557
G01B32.467F500
G01B34.377F1000
G01B36.287
G01B38.197
G01B40.107
G01B42.016
G01B43.926
G01B45.836
G01B47.746
G01Z29.999B49.656F500
G01Z30B51.566F1000
G01Z29.999B53.476F500
G01Z30B55.385F1000
G01Z29.999B57.295F500
G01Z30B59.205F1000
G01B61.115
G01B63.025F500
G01B64.935F1000
G01B66.845
G01B68.754F500
G01Z29.999B70.664
G01Z30B72.574F1000
G01B74.484
G01Z29.999B76.394F500
G01Z30B78.304F1000
G01B80.214
G01B82.123
G01B84.033
G01B85.943F500
G01B87.853F1000
G01B89.763
G01Z29.999B91.673F500
G01Z30B93.583F1000
G01Z29.999B95.492F500
G01Z30B97.402F1000
G01B99.312F500
G01B101.222F1000
G01B103.132
G01B105.042F500
G01B106.952F1000
G01Z29.999B108.861F500
G01Z30B110.771F1000
G01B112.681
G01Z29.999B114.591F500
G01Z30B116.501F1000
G01B118.411
G01B120.321
G01B122.231F500
G01B124.14F1000
G01B126.05F500
G01B127.96F1000
G01B129.87
G01B131.78
G01B133.69
G01Z29.999B135.6F500
G01Z30B137.509F1000
G01B139.419F500
G01Z29.999B141.329
G01B143.239F1000
G01Z30B145.149
G01B147.059F500
G01B148.969F1000
G01Z29.999B150.878F500
G01Z30B152.788F1000
G01B154.698F500
G01B156.608F1000
G01Z29.999B158.518F500
G01B160.428F1000
G01Z30B162.338
G01Z29.999B164.247F500
G01Z30B166.157F1000
G01B168.067
G01B169.977
G01B171.887
G01B173.797
G01B175.707F500
G01Z29.999B177.616
G01Z30B179.526F1000
G01B181.436F500
G01Z29.999B183.346
G01Z30B185.256F1000
G01B187.166
G01B189.076
G01Z29.999B190.985F500
G01Z30B192.895F1000
G01B194.805
G01B196.715
G01B198.625
G01B200.535
G01B202.445
G01Z29.999B204.354F500
G01Z30B206.264F1000
G01B208.174
G01B210.084F500
G01B211.994F1000
G01B213.904
G01B215.814
G01B217.723
G01B219.633
G01B221.543
G01B223.453F500
G01B225.363F1000
G01B227.273
G01B229.183
G01B231.092
G01B233.002F500
G01B234.912F1000
G01B236.822
G01B238.732
G01Z29.999B240.642F500
G01Z30B242.552F1000
G01B244.462
G01B246.371
G01Z29.999B248.281F500
G01Z30B250.191F1000
G01B252.101
G01Z29.999B254.011F500
G01Z30B255.921F1000
G01B257.831
G01B259.74
G01B261.65
G01Z29.999B263.56F500
G01Z30B265.47F1000
G01Z29.999B267.38F500
G01Z30B269.29F1000
G01Z29.999B271.2F500
G01B273.109F1000
G01Z30B275.019
G01B276.929
G01B278.839F500
G01Z29.999B280.749
G01Z30B282.659F1000
G01B284.569
G01B286.478F500
G01B288.388F1000
G01B290.298
G01B292.208
G01B294.118F500
G01B296.028F1000
G01Z29.999B297.938F500
G01Z30B299.847F1000
G01B301.757
G01B303.667
G01B305.577
G01B307.487
G01B309.397F500
G01B311.307F1000
G01B313.216
G01Z29.999B315.126F500
G01Z30B317.036F1000
G01B318.946F500
G01Z29.999B320.856
G01Z30B322.766F1000
G01B324.676
G01B326.585
G01B328.495
G01B330.405
G01B332.315F500
G01B334.225F1000
G01B336.135
G01B338.045
G01B339.954
G01Z29.999B341.864F500
G01B343.774F1000
G01Z30B345.684
G01B347.594
G01B349.504
G01B351.414
G01B353.323F500
G01B355.233F1000
G01B357.143
G01B359.053F500
G01B0F1000
G01B1.909
G01B3.819
G01B5.729
G01Z29.999B7.639F500
G01Z30B9.549F1000
G01B11.459
G01Z29.999B13.369F500
G01Z30B15.278F1000
G01B17.188
G01B19.098
G01Z29.999B21.008F500
G01B22.918F1000
G01Z30B24.828
G01B26.738
G01B28.647
G01B30.557
G01B32.467F500
G01B34.377F1000
G01B36.287
G01B38.197
G01B40.107
G01B42.016
G01B43.926
G01B45.836
G01B47.746
G01Z29.999B49.656F500
G01Z30B51.566F1000
G01Z29.999B53.476F500
G01Z30B55.385F1000
G01Z29.999B57.295F500
G01Z30B59.205F1000
G01B61.115
G01B63.025F500
G01B64.935F1000
G01B66.845
G01B68.754F500
G01Z29.999B70.664
G01Z30B72.574F1000
G01B74.484
G01Z29.999B76.394F500
G01Z30B78.304F1000
G01B80.214
G01B82.123
G01B84.033
G01B85.943F500
G01B87.853F1000
G01B89.763
G01Z29.999B91.673F500
G01Z30B93.583F1000
G01Z29.999B95.492F500
G01Z30B97.402F1000
G01B99.312F500
G01B101.222F1000
G01B103.132
G01B105.042F500
G01B106.952F1000
G01Z29.999B108.861F500
G01Z30B110.771F1000
G01B112.681
G01Z29.999B114.591F500
G01Z30B116.501F1000
G01B118.411
G01B120.321
G01B122.231F500
G01B124.14F1000
G01B126.05F500
G01B127.96F1000
G01B129.87
G01B131.78
G01B133.69
G01Z29.999B135.6F500
G01Z30B137.509F1000
G01B139.419F500
G01Z29.999B141.329
G01B143.239F1000
G01Z30B145.149
G01B147.059F500
G01B148.969F1000
G01Z29.999B150.878F500
G01Z30B152.788F1000
G01B154.698F500
G01B156.608F1000
G01Z29.999B158.518F500
G01B160.428F1000
G01Z30B162.338
G01Z29.999B164.247F500
G01Z30B166.157F1000
G01B168.067
G01B169.977
G01B171.887
G01B173.797
G01B175.707F500
G01Z29.999B177.616
G01Z30B179.526F1000
G01B181.436F500
G01Z29.999B183.346
G01Z30B185.256F1000
G01B187.166
G01B189.076
G01Z29.999B190.985F500
G01Z30B192.895F1000
G01B194.805
G01B196.715
G01B198.625
G01B200.535
G01B202.445
G01Z29.999B204.354F500
G01Z30B206.264F1000
G01B208.174
G01B210.084F500
G01B211.994F1000
G01B213.904
G01B215.814
G01B217.723
G01B219.633
G01B221.543
G01B223.453F500
G01B225.363F1000
G01B227.273
G01B229.183
G01B231.092
G01B233.002F500
G01B234.912F1000
G01B236.822
G01B238.732
G01Z29.999B240.642F500
G01Z30B242.552F1000
G01B244.462
G01B246.371
G01Z29.999B248.281F500
G01Z30B250.191F1000
G01B252.101
G01Z29.999B254.011F500
G01Z30B255.921F1000
G01B257.831
G01B259.74
G01B261.65
G01Z29.999B263.56F500
G01Z30B265.47F1000
G01Z29.999B267.38F500
G01Z30B269.29F1000
G01Z29.999B271.2F500
G01B273.109F1000
G01Z30B275.019
G01B276.929
G01B278.839F500
G01Z29.999B280.749
G01Z30B282.659F1000
G01B284.569
G01B286.478F500
G01B288.388F1000
G01B290.298
G01B292.208
G01B294.118F500
G01B296.028F1000
G01Z29.999B297.938F500
G01Z30B299.847F1000
G01B301.757
G01B303.667
G01B305.577
G01B307.487
G01B309.397F500
G01B311.307F1000
G01B313.216
G01Z29.999B315.126F500
G01Z30B317.036F1000
G01B318.946F500
G01Z29.999B320.856
G01Z30B322.766F1000
G01B324.676
G01B326.585
G01B328.495
G01B330.405
G01B332.315F500
G01B334.225F1000
G01B336.135
G01B338.045
G01B339.954
G01Z29.999B341.864F500
G01B343.774F1000
G01Z30B345.684
G01B347.594
G01B349.504
G01B351.414
G01B353.323F500
G01B355.233F1000
G01B357.143
G01B359.053F500
G01B0F1000
G01B1.909
G01B3.819
G01B5.729
G01Z29.999B7.639F500
G01Z30B9.549F1000
G01B11.459
G01Z29.999B13.369F500
G01Z30B15.278F1000
G01B17.188
G01B19.098
G01Z29.999B21.008F500
G01B22.918F1000
G01Z30B24.828
G01B26.738
G01B28.647
G01B30.557
G01B32.467F500
G01B34.377F1000
G01B36.287
G01B38.197
G01B40.107
G01B42.016
G01B43.926
G01B45.836
G01B47.746
G01Z29.999B49.656F500
G01Z30B51.566F1000
G01Z29.999B53.476F500
G01Z30B55.385F1000
G01Z29.999B57.295F500
G01Z30B59.205F1000
G01B61.115
G01B63.025F500
G01B64.935F1000
G01B66.845
G01B68.754F500
G01Z29.999B70.664
G01Z30B72.574F1000
G01B74.484
G01Z29.999B76.394F500
G01Z30B78.304F1000
G01B80.214
G01B82.123
G01B84.033
G01B85.943F500
G01B87.853F1000
G01B89.763
G01Z29.999B91.673F500
G01Z30B93.583F1000
G01Z29.999B95.492F500
G01Z30B97.402F1000
G01B99.312F500
G01B101.222F1000
G01B103.132
G01B105.042F500
G01B106.952F1000
G01Z29.999B108.861F500
G01Z30B110.771F1000
G01B112.681
G01Z29.999B114.591F500
G01Z30B116.501F1000
G01B118.411
G01B120.321
G01B122.231F500
G01B124.14F1000
G01B126.05F500
G01B127.96F1000
G01B129.87
G01B131.78
G01B133.69
G01Z29.999B135.6F500
G01Z30B137.509F1000
G01B139.419F500
G01Z29.999B141.329
G01B143.239F1000
G01Z30B145.149
G01B147.059F500
G01B148.969F1000
G01Z29.999B150.878F500
G01Z30B152.788F1000
G01B154.698F500
G01B156.608F1000
G01Z29.999B158.518F500
G01B160.428F1000
G01Z30B162.338
G01Z29.999B164.247F500
G01Z30B166.157F1000
G01B168.067
G01B169.977
G01B171.887
G01B173.797
G01B175.707F500
G01Z29.999B177.616
G01Z30B179.526F1000
G01B181.436F500
G01Z29.999B183.346
G01Z30B185.256F1000
G01B187.166
G01B189.076
G01Z29.999B190.985F500
G01Z30B192.895F1000
G01B194.805
G01B196.715
G01B198.625
G01B200.535
G01B202.445
G01Z29.999B204.354F500
G01Z30B206.264F1000
G01B208.174
G01B210.084F500
G01B211.994F1000
G01B213.904
G01B215.814
G01B217.723
G01B219.633
G01B221.543
G01B223.453F500
G01B225.363F1000
G01B227.273
G01B229.183
G01B231.092
G01B233.002F500
G01B234.912F1000
G01B236.822
G01B238.732
G01Z29.999B240.642F500
G01Z30B242.552F1000
G01B244.462
G01B246.371
G01Z29.999B248.281F500
G01Z30B250.191F1000
G01B252.101
G01Z29.999B254.011F500
G01Z30B255.921F1000
G01B257.831
G01B259.74
G01B261.65
G01Z29.999B263.56F500
G01Z30B265.47F1000
G01Z29.999B267.38F500
G01Z30B269.29F1000
G01Z29.999B271.2F500
G01B273.109F1000
G01Z30B275.019
G01B276.929
G01B278.839F500
G01Z29.999B280.749
G01Z30B282.659F1000
G01B284.569
G01B286.478F500
G01B288.388F1000
G01B290.298
G01B292.208
G01B294.118F500
G01B296.028F1000
G01Z29.999B297.938F500
G01Z30B299.847F1000
G01B301.757
G01B303.667
G01B305.577
G01B307.487
G01B309.397F500
G01B311.307F1000
G01B313.216
G01Z29.999B315.126F500
G01Z30B317.036F1000
G01B318.946F500
G01Z29.999B320.856
G01Z30B322.766F1000
G01B324.676
G01B326.585
G01B328.495
G01B330.405
G01B332.315F500
G01B334.225F1000
G01B336.135
G01B338.045
G01B339.954
G01Z29.999B341.864F500
G01B343.774F1000
G01Z30B345.684
G01B347.594
G01B349.504
G01B351.414
G01B353.323F500
G01B355.233F1000
G01B357.143
G01B359.053F500
G01B0F1000
G01B1.909
G01B3.819
G01B5.729
G01Z29.999B7.639F500
G01Z30B9.549F1000
G01B11.459
G01Z29.999B13.369F500
G01Z30B15.278F1000
G01B17.188
G01B19.098
G01Z29.999B21.008F500
G01B22.918F1000
G01Z30B24.828
G01B26.738
G01B28.647
G01B30.557
G01B32.467F500
G01B34.377F1000
G01B36.287
G01B38.197
G01B40.107
G01B42.016
G01B43.926
G01B45.836
G01B47.746
G01Z29.999B49.656F500
G01Z30B51.566F1000
G01Z29.999B53.476F500
G01Z30B55.385F1000
G01Z29.999B57.295F500
G01Z30B59.205F1000
G01B61.115
G01B63.025F500
G01B64.935F1000
G01B66.845
G01B68.754F500
G01Z29.999B70.664
G01Z30B72.574F1000
G01B74.484
G01Z29.999B76.394F500
G01Z30B78.304F1000
G01B80.214
G01B82.123
G01B84.033
G01B85.943F500
G01B87.853F1000
G01B89.763
G01Z29.999B91.673F500
G01Z30B93.583F1000
G01Z29.999B95.492F500
G01Z30B97.402F1000
G01B99.312F500
G01B101.222F1000
G01B103.132
G01B105.042F500
G01B106.952F1000
G01Z29.999B108.861F500
G01Z30B110.771F1000
G01B112.681
G01Z29.999B114.591F500
G01Z30B116.501F1000
G01B118.411
G01B120.321
G01B122.231F500
G01B124.14F1000
G01B126.05F500
G01B127.96F1000
G01B129.87
G01B131.78
G01B133.69
G01Z29.999B135.6F500
G01Z30B137.509F1000
G01B139.419F500
G01Z29.999B141.329
G01B143.239F1000
G01Z30B145.149
G01B147.059F500
G01B148.969F1000
G01Z29.999B150.878F500
G01Z30B152.788F1000
G01B154.698F500
G01B156.608F1000
G01Z29.999B158.518F500
G01B160.428F1000
G01Z30B162.338
G01Z29.999B164.247F500
G01Z30B166.157F1000
G01B168.067
G01B169.977
G01B171.887
G01B173.797
G01B175.707F500
G01Z29.999B177.616
G01Z30B179.526F1000
G01B181.436F500
G01Z29.999B183.346
G01Z30B185.256F1000
G01B187.166
G01B189.076
G01Z29.999B190.985F500
G01Z30B192.895F1000
G01B194.805
G01B196.715
G01B198.625
G01B200.535
G01B202.445
G01Z29.999B204.354F500
G01Z30B206.264F1000
G01B208.174
G01B210.084F500
G01B211.994F1000
G01B213.904
G01B215.814
G01B217.723
G01B219.633
G01B221.543
G01B223.453F500
G01B225.363F1000
G01B227.273
G01B229.183
G01B231.092
G01B233.002F500
G01B234.912F1000
G01B236.822
G01B238.732
G01Z29.999B240.642F500
G01Z30B242.552F1000
G01B244.462
G01B246.371
G01Z29.999B248.281F500
G01Z30B250.191F1000
G01B252.101
G01Z29.999B254.011F500
G01Z30B255.921F1000
G01B257.831
G01B259.74
G01B261.65
G01Z29.999B263.56F500
G01Z30B265.47F1000
G01Z29.999B267.38F500
G01Z30B269.29F1000
G01Z29.999B271.2F500
G01B273.109F1000
G01Z30B275.019
G01B276.929
G01B278.839F500
G01Z29.999B280.749
G01Z30B282.659F1000
G01B284.569
G01B286.478F500
G01B288.388F1000
G01B290.298
G01B292.208
G01B294.118F500
G01B296.028F1000
G01Z29.999B297.938F500
G01Z30B299.847F1000
G01B301.757
G01B303.667
G01B305.577
G01B307.487
G01B309.397F500
G01B311.307F1000
G01B313.216
G01Z29.999B315.126F500
G01Z30B317.036F1000
G01B318.946F500
G01Z29.999B320.856
G01Z30B322.766F1000
G01B324.676
G01B326.585
G01B328.495
G01B330.405
G01B332.315F500
G01B334.225F1000
G01B336.135
G01B338.045
G01B339.954
G01Z29.999B341.864F500
G01B343.774F1000
G01Z30B345.684
G01B347.594
G01B349.504
G01B351.414
G01B353.323F500
G01B355.233F1000
G01B357.143
G01B359.053F500
G01B0F1000
G01B1.909
G01B3.819
G01B5.729
G01Z29.999B7.639F500
G01Z30B9.549F1000
G01B11.459
G01Z29.999B13.369F500
G01Z30B15.278F1000
G01B17.188
G01B19.098
G01Z29.999B21.008F500
G01B22.918F1000
G01Z30B24.828
G01B26.738
G01B28.647
G01B30.557
G01B32.467F500
G01B34.377F1000
G01B36.287
G01B38.197
G01B40.107
G01B42.016
G01B43.926
G01B45.836
G01B47.746
G01Z29.999B49.656F500
G01Z30B51.566F1000
G01Z29.999B53.476F500
G01Z30B55.385F1000
G01Z29.999B57.295F500
G01Z30B59.205F1000
G01B61.115
G01B63.025F500
G01B64.935F1000
G01B66.845
G01B68.754F500
G01Z29.999B70.664
G01Z30B72.574F1000
G01B74.484
G01Z29.999B76.394F500
G01Z30B78.304F1000
G01B80.214
G01B82.123
G01B84.033
G01B85.943F500
G01B87.853F1000
G01B89.763
G01Z29.999B91.673F500
G01Z30B93.583F1000
G01Z29.999B95.492F500
G01Z30B97.402F1000
G01B99.312F500
G01B101.222F1000
G01B103.132
G01B105.042F500
G01B106.952F1000
G01Z29.999B108.861F500
G01Z30B110.771F1000
G01B112.681
G01Z29.999B114.591F500
G01Z30B116.501F1000
G01B118.411
G01B120.321
G01B122.231F500
G01B124.14F1000
G01B126.05F500
G01B127.96F1000
G01B129.87
G01B131.78
G01B133.69
G01Z29.999B135.6F500
G01Z30B137.509F1000
G01B139.419F500
G01Z29.999B141.329
G01B143.239F1000
G01Z30B145.149
G01B147.059F500
G01B148.969F1000
G01Z29.999B150.878F500
G01Z30B152.788F1000
G01B154.698F500
G01B156.608F1000
G01Z29.999B158.518F500
G01B160.428F1000
G01Z30B162.338
G01Z29.999B164.247F500
G01Z30B166.157F1000
G01B168.067
G01B169.977
G01B171.887
G01B173.797
G01B175.707F500
G01Z29.999B177.616
G01Z30B179.526F1000
G01B181.436F500
G01Z29.999B183.346
G01Z30B185.256F1000
G01B187.166
G01B189.076
G01Z29.999B190.985F500
G01Z30B192.895F1000
G01B194.805
G01B196.715
G01B198.625
G01B200.535
G01B202.445
G01Z29.999B204.354F500
G01Z30B206.264F1000
G01B208.174
G01B210.084F500
G01B211.994F1000
G01B213.904
G01B215.814
G01B217.723
G01B219.633
G01B221.543
G01B223.453F500
G01B225.363F1000
G01B227.273
G01B229.183
G01B231.092
G01B233.002F500
G01B234.912F1000
G01B236.822
G01B238.732
G01Z29.999B240.642F500
G01Z30B242.552F1000
G01B244.462
G01B246.371
G01Z29.999B248.281F500
G01Z30B250.191F1000
G01B252.101
G01Z29.999B254.011F500
G01Z30B255.921F1000
G01B257.831
G01B259.74
G01B261.65
G01Z29.999B263.56F500
G01Z30B265.47F1000
G01Z29.999B267.38F500
G01Z30B269.29F1000
G01Z29.999B271.2F500
G01B273.109F1000
G01Z30B275.019
G01B276.929
G01B278.839F500
G01Z29.999B280.749
G01Z30B282.659F1000
G01B284.569
G01B286.478F500
G01B288.388F1000
G01B290.298
G01B292.208
G01B294.118F500
G01B296.028F1000
G01Z29.999B297.938F500
G01Z30B299.847F1000
G01B301.757
G01B303.667
G01B305.577
G01B307.487
G01B309.397F500
G01B311.307F1000
G01B313.216
G01Z29.999B315.126F500
G01Z30B317.036F1000
G01B318.946F500
G01Z29.999B320.856
G01Z30B322.766F1000
G01B324.676
G01B326.585
G01B328.495
G01B330.405
G01B332.315F500
G01B334.225F1000
G01B336.135
G01B338.045
G01B339.954
G01Z29.999B341.864F500
G01B343.774F1000
G01Z30B345.684
G01B347.594
G01B349.504
G01B351.414
G01B353.323F500
G01B355.233F1000
G01B357.143
G01B359.053F500
G01B0F1000
G01B1.909
G01B3.819
G01B5.729
G01Z29.999B7.639F500
G01Z30B9.549F1000
G01B11.459
G01Z29.999B13.369F500
G01Z30B15.278F1000
G01B17.188
G01B19.098
G01Z29.999B21.008F500
G01B22.918F1000
G01Z30B24.828
G01B26.738
G01B28.647
G01B30.557
G01B32.467F500
G01B34.377F1000
G01B36.287
G01B38.197
G01B40.107
G01B42.016
G01B43.926
G01B45.836
G01B47.746
G01Z29.999B49.656F500
G01Z30B51.566F1000
G01Z29.999B53.476F500
G01Z30B55.385F1000
G01Z29.999B57.295F500
G01Z30B59.205F1000
G01B61.115
G01B63.025F500
G01B64.935F1000
G01B66.845
G01B68.754F500
G01Z29.999B70.664
G01Z30B72.574F1000
G01B74.484
G01Z29.999B76.394F500
G01Z30B78.304F1000
G01B80.214
G01B82.123
G01B84.033
G01B85.943F500
G01B87.853F1000
G01B89.763
G01Z29.999B91.673F500
G01Z30B93.583F1000
G01Z29.999B95.492F500
G01Z30B97.402F1000
G01B99.312F500
G01B101.222F1000
G01B103.132
G01B105.042F500
G01B106.952F1000
G01Z29.999B108.861F500
G01Z30B110.771F1000
G01B112.681
G01Z29.999B114.591F500
G01Z30B116.501F1000
G01B118.411
G01B120.321
G01B122.231F500
G01B124.14F1000
G01B126.05F500
G01B127.96F1000
G01B129.87
G01B131.78
G01B133.69
G01Z29.999B135.6F500
G01Z30B137.509F1000
G01B139.419F500
G01Z29.999B141.329
G01B143.239F1000
G01Z30B145.149
G01B147.059F500
G01B148.969F1000
G01Z29.999B150.878F500
G01Z30B152.788F1000
G01B154.698F500
G01B156.608F1000
G01Z29.999B158.518F500
G01B160.428F1000
G01Z30B162.338
G01Z29.999B164.247F500
G01Z30B166.157F1000
G01B168.067
G01B169.977
G01B171.887
G01B173.797
G01B175.707F500
G01Z29.999B177.616
G01Z30B179.526F1000
G01B181.436F500
G01Z29.999B183.346
G01Z30B185.256F1000
G01B187.166
G01B189.076
G01Z29.999B190.985F500
G01Z30B192.895F1000
G01B194.805
G01B196.715
G01B198.625
G01B200.535
G01B202.445
G01Z29.999B204.354F500
G01Z30B206.264F1000
G01B208.174
G01B210.084F500
G01B211.994F1000
G01B213.904
G01B215.814
G01B217.723
G01B219.633
G01B221.543
G01B223.453F500
G01B225.363F1000
G01B227.273
G01B229.183
G01B231.092
G01B233.002F500
G01B234.912F1000
G01B236.822
G01B238.732
G01Z29.999B240.642F500
G01Z30B242.552F1000
G01B244.462
G01B246.371
G01Z29.999B248.281F500
G01Z30B250.191F1000
G01B252.101
G01Z29.999B254.011F500
G01Z30B255.921F1000
G01B257.831
G01B259.74
G01B261.65
G01Z29.999B263.56F500
G01Z30B265.47F1000
G01Z29.999B267.38F500
G01Z30B269.29F1000
G01Z29.999B271.2F500
G01B273.109F1000
G01Z30B275.019
G01B276.929
G01B278.839F500
G01Z29.999B280.749
G01Z30B282.659F1000
G01B284.569
G01B286.478F500
G01B288.388F1000
G01B290.298
G01B292.208
G01B294.118F500
G01B296.028F1000
G01Z29.999B297.938F500
G01Z30B299.847F1000
G01B301.757
G01B303.667
G01B305.577
G01B307.487
G01B309.397F500
G01B311.307F1000
G01B313.216
G01Z29.999B315.126F500
G01Z30B317.036F1000
G01B318.946F500
G01Z29.999B320.856
G01Z30B322.766F1000
G01B324.676
G01B326.585
G01B328.495
G01B330.405
G01B332.315F500
G01B334.225F1000
G01B336.135
G01B338.045
G01B339.954
G01Z29.999B341.864F500
G01B343.774F1000
G01Z30B345.684
G01B347.594
G01B349.504
G01B351.414
G01B353.323F500
G01B355.233F1000
G01B357.143
G01B359.053F500
G01B0F1000
G01B1.909
G01B3.819
G01B5.729
G01Z29.999B7.639F500
G01Z30B9.549F1000
G01B11.459
G01Z29.999B13.369F500
G01Z30B15.278F1000
G01B17.188
G01B19.098
G01Z29.999B21.008F500
G01B22.918F1000
G01Z30B24.828
G01B26.738
G01B28.647
G01B30.557
G01B32.467F500
G01B34.377F1000
G01B36.287
G01B38.197
G01B40.107
G01B42.016
G01B43.926
G01B45.836
G01B47.746
G01Z29.999B49.656F500
G01Z30B51.566F1000
G01Z29.999B53.476F500
G01Z30B55.385F1000
G01Z29.999B57.295F500
G01Z30B59.205F1000
G01B61.115
G01B63.025F500
G01B64.935F1000
G01B66.845
G01B68.754F500
G01Z29.999B70.664
G01Z30B72.574F1000
G01B74.484
G01Z29.999B76.394F500
G01Z30B78.304F1000
G01B80.214
G01B82.123
G01B84.033
G01B85.943F500
G01B87.853F1000
G01B89.763
G01Z29.999B91.673F500
G01Z30B93.583F1000
G01Z29.999B95.492F500
G01Z30B97.402F1000
G01B99.312F500
G01B101.222F1000
G01B103.132
G01B105.042F500
G01B106.952F1000
G01Z29.999B108.861F500
G01Z30B110.771F1000
G01B112.681
G01Z29.999B114.591F500
G01Z30B116.501F1000
G01B118.411
G01B120.321
G01B122.231F500
G01B124.14F1000
G01B126.05F500
G01B127.96F1000
G01B129.87
G01B131.78
G01B133.69
G01Z29.999B135.6F500
G01Z30B137.509F1000
G01B139.419F500
G01Z29.999B141.329
G01B143.239F1000
G01Z30B145.149
G01B147.059F500
G01B148.969F1000
G01Z29.999B150.878F500
G01Z30B152.788F1000
G01B154.698F500
G01B156.608F1000
G01Z29.999B158.518F500
G01B160.428F1000
G01Z30B162.338
G01Z29.999B164.247F500
G01Z30B166.157F1000
G01B168.067
G01B169.977
G01B171.887
G01B173.797
G01B175.707F500
G01Z29.999B177.616
G01Z30B179.526F1000
G01B181.436F500
G01Z29.999B183.346
G01Z30B185.256F1000
G01B187.166
G01B189.076
G01Z29.999B190.985F500
G01Z30B192.895F1000
G01B194.805
G01B196.715
G01B198.625
G01B200.535
G01B202.445
G01Z29.999B204.354F500
G01Z30B206.264F1000
G01B208.174
G01B210.084F500
G01B211.994F1000
G01B213.904
G01B215.814
G01B217.723
G01B219.633
G01B221.543
G01B223.453F500
G01B225.363F1000
G01B227.273
G01B229.183
G01B231.092
G01B233.002F500
G01B234.912F1000
G01B236.822
G01B238.732
G01Z29.999B240.642F500
G01Z30B242.552F1000
G01B244.462
G01B246.371
G01Z29.999B248.281F500
G01Z30B250.191F1000
G01B252.101
G01Z29.999B254.011F500
G01Z30B255.921F1000
G01B257.831
G01B259.74
G01B261.65
G01Z29.999B263.56F500
G01Z30B265.47F1000
G01Z29.999B267.38F500
G01Z30B269.29F1000
G01Z29.999B271.2F500
G01B273.109F1000
G01Z30B275.019
G01B276.929
G01B278.839F500
G01Z29.999B280.749
G01Z30B282.659F1000
G01B284.569
G01B286.478F500
G01B288.388F1000
G01B290.298
G01B292.208
G01B294.118F500
G01B296.028F1000
G01Z29.999B297.938F500
G01Z30B299.847F1000
G01B301.757
G01B303.667
G01B305.577
G01B307.487
G01B309.397F500
G01B311.307F1000
G01B313.216
G01Z29.999B315.126F500
G01Z30B317.036F1000
G01B318.946F500
G01Z29.999B320.856
G01Z30B322.766F1000
G01B324.676
G01B326.585
G01B328.495
G01B330.405
G01B332.315F500
G01B334.225F1000
G01B336.135
G01B338.045
G01B339.954
G01Z29.999B341.864F500
G01B343.774F1000
G01Z30B345.684
G01B347.594
G01B349.504
G01B351.414
G01B353.323F500
G01B355.233F1000
G01B357.143
G01B359.053F500
G01B0F1000
G01B1.909
G01B3.819
G01B5.729
G01Z29.999B7.639F500
G01Z30B9.549F1000
G01B11.459
G01Z29.999B13.369F500
G01Z30B15.278F1000
G01B17.188
G01B19.098
G01Z29.999B21.008F500
G01B22.918F1000
G01Z30B24.828
G01B26.738
G01B28.647
G01B30.557
G01B32.467F500
G01B34.377F1000
G01B36.287
G01B38.197
G01B40.107
G01B42.016
G01B43.926
G01B45.836
G01B47.746
G01Z29.999B49.656F500
G01Z30B51.566F1000
G01Z29.999B53.476F500
G01Z30B55.385F1000
G01Z29.999B57.295F500
G01Z30B59.205F1000
G01B61.115
G01B63.025F500
G01B64.935F1000
G01B66.845
G01B68.754F500
G01Z29.999B70.664
G01Z30B72.574F1000
G01B74.484
G01Z29.999B76.394F500
G01Z30B78.304F1000
G01B80.214
G01B82.123
G01B84.033
G01B85.943F500
G01B87.853F1000
G01B89.763
G01Z29.999B91.673F500
G01Z30B93.583F1000
G01Z29.999B95.492F500
G01Z30B97.402F1000
G01B99.312F500
G01B101.222F1000
G01B103.132
G01B105.042F500
G01B106.952F1000
G01Z29.999B108.861F500
G01Z30B110.771F1000
G01B112.681
G01Z29.999B114.591F500
G01Z30B116.501F1000
G01B118.411
G01B120.321
G01B122.231F500
G01B124.14F1000
G01B126.05F500
G01B127.96F1000
G01B129.87
G01B131.78
G01B133.69
G01Z29.999B135.6F500
G01Z30B137.509F1000
G01B139.419F500
G01Z29.999B141.329
G01B143.239F1000
G01Z30B145.149
G01B147.059F500
G01B148.969F1000
G01Z29.999B150.878F500
G01Z30B152.788F1000
G01B154.698F500
G01B156.608F1000
G01Z29.999B158.518F500
G01B160.428F1000
G01Z30B162.338
G01Z29.999B164.247F500
G01Z30B166.157F1000
G01B168.067
G01B169.977
G01B171.887
G01B173.797
G01B175.707F500
G01Z29.999B177.616
G01Z30B179.526F1000
G01B181.436F500
G01Z29.999B183.346
G01Z30B185.256F1000
G01B187.166
G01B189.076
G01Z29.999B190.985F500
G01Z30B192.895F1000
G01B194.805
G01B196.715
G01B198.625
G01B200.535
G01B202.445
G01Z29.999B204.354F500
G01Z30B206.264F1000
G01B208.174
G01B210.084F500
G01B211.994F1000
G01B213.904
G01B215.814
G01B217.723
G01B219.633
G01B221.543
G01B223.453F500
G01B225.363F1000
G01B227.273
G01B229.183
G01B231.092
G01B233.002F500
G01B234.912F1000
G01B236.822
G01B238.732
G01Z29.999B240.642F500
G01Z30B242.552F1000
G01B244.462
G01B246.371
G01Z29.999B248.281F500
G01Z30B250.191F1000
G01B252.101
G01Z29.999B254.011F500
G01Z30B255.921F1000
G01B257.831
G01B259.74
G01B261.65
G01Z29.999B263.56F500
G01Z30B265.47F1000
G01Z29.999B267.38F500
G01Z30B269.29F1000
G01Z29.999B271.2F500
G01B273.109F1000
G01Z30B275.019
G01B276.929
G01B278.839F500
G01Z29.999B280.749
G01Z30B282.659F1000
G01B284.569
G01B286.478F500
G01B288.388F1000
G01B290.298
G01B292.208
G01B294.118F500
G01B296.028F1000
G01Z29.999B297.938F500
G01Z30B299.847F1000
G01B301.757
G01B303.667
G01B305.577
G01B307.487
G01B309.397F500
G01B311.307F1000
G01B313.216
G01Z29.999B315.126F500
G01Z30B317.036F1000
G01B318.946F500
G01Z29.999B320.856
G01Z30B322.766F1000
G01B324.676
G01B326.585
G01B328.495
G01B330.405
G01B332.315F500
G01B334.225F1000
G01B336.135
G01B338.045
G01B339.954
G01Z29.999B341.864F500
G01B343.774F1000
G01Z30B345.684
G01B347.594
G01B349.504
G01B351.414
G01B353.323F500
G01B355.233F1000
G01B357.143
G01B359.053F500
M02
